fotiskoutsikos/xarm7_motion_planning/scripts/logs/2025-04-25_11-20-14/desired_joint_angles.csv
j1,j2,j3,j4,j5,j6,j7
0.0,0.7,0.0,1.5707963267948966,0.0,0.8707963267948966,0.0
-0.0007094058753743394,0.700111860609885,0.007193110319922223,1.5710470082224766,0.0007959229625761909,0.870739049610863,0.0
-0.001492304805149493,0.7002073912331453,0.011374247560283634,1.5711959609563007,0.0012760866517704688,0.8707019567194019,0.0
-0.0024017610046455414,0.7003413584464604,0.016510257816925816,1.5713766931166546,0.0018632914588537866,0.870654899499263,0.0
-0.0035155532017915082,0.7006000409155272,0.0247756479429683,1.5716801006795504,0.0027913666324499457,0.8705658884188266,0.0
-0.004898365740356922,0.7009683769746704,0.03375636644652112,1.5720541158367574,0.0038074635190535142,0.8704396425157276,0.0
-0.006367886582104481,0.7012881708718711,0.04018758551672592,1.5723451696300614,0.004557327496280877,0.8703359062379794,0.0
-0.007526745156475769,0.7015167160086887,0.044403352241607845,1.5725399234336899,0.00505782796396822,0.8702662832872792,0.0
-0.009073480691363893,0.7020503079714324,0.05300488424045867,1.5730056417144138,0.006039885152323676,0.8700819320657388,0.0
-0.010580313167352445,0.7024786598611166,0.059165228172163006,1.5733586393298695,0.0067613382398769885,0.8699402010542113,0.0
-0.01193704085033562,0.7028702356808185,0.06439038684854752,1.5736732333477248,0.007376458418263865,0.8698122042014833,0.0
-0.013570388257426614,0.7036818025948426,0.07385346048677442,1.5743526381260597,0.008450954388299762,0.8695158834152248,0.0
-0.014196612264650426,0.7038263487335172,0.07556782728517362,1.5744577025564348,0.008660753121059265,0.8694738071175772,0.0
-0.015874794496759197,0.7051772044906279,0.08863036494898517,1.5756052549856259,0.010114384197782964,0.8689456311184934,0.0
-0.017793899802094677,0.705825271973659,0.09467659452930074,1.57609402813526,0.010838472325291188,0.8687293340226434,0.0
-0.019435203227318672,0.7064252194780126,0.10001286372148518,1.576544340066436,0.011474254001392164,0.8685292731313691,0.0
-0.021032203163951827,0.7071098396371164,0.10573706094352202,1.5770654120215313,0.012147888570286501,0.8682941795128262,0.0
-0.02250207967753028,0.7077822500866018,0.1110960928218307,1.5775758488018314,0.012776524535193446,0.8680626311619315,0.0
-0.024036104646019324,0.7086180129937493,0.11733928104488817,1.5782208200107974,0.013499742790703196,0.8677652888524553,0.0
-0.025410835804925192,0.7093383169382734,0.12254052043109748,1.578766998805907,0.014105664456438622,0.8675142814643638,0.0
-0.02668848085427762,0.7100296077053362,0.12735214129897665,1.5792888292807261,0.014665664219907488,0.8672739379716828,0.0
-0.028228683646988793,0.7111840924073879,0.13475722492382344,1.5801946267546327,0.015507094533441663,0.8668459484458778,0.0
-0.029086156946051652,0.7115894985332013,0.13745297871647727,1.5804860690491855,0.015826030162380253,0.8667137721244101,0.0
-0.03062271508266719,0.712808827228873,0.14474110995508832,1.581437147155642,0.016652619607481378,0.866262175044684,0.0
-0.03195246228637132,0.7136507585409454,0.1497417543434923,1.5820665152330544,0.017230665873479534,0.8659680683968524,0.0
-0.03360325805188838,0.7152600627680525,0.1584514138325834,1.583334023606916,0.018206347652081983,0.8653584376649366,0.0
-0.03498754748178372,0.7161365432797345,0.16329023687008165,1.5839757758085802,0.01876720175501485,0.8650587252190811,0.0
-0.03650036994715196,0.7172874858518068,0.16930816629825962,1.584839288860724,0.019454399072490743,0.8646499830208707,0.0
-0.037702409223683085,0.7180858257790915,0.17347664663349166,1.5854187929050918,0.019936010652650382,0.8643795516216926,0.0
-0.03885260940476892,0.7188910578708805,0.17756989740591494,1.5860053329751025,0.02040688634089081,0.8641051543609714,0.0
-0.03997755220462561,0.719722074051974,0.18168311754300717,1.5866129643976514,0.020877986372227757,0.86382011184846,0.0
-0.041203740491042154,0.7207392128371682,0.18653033259896903,1.587367460211183,0.021427996860446812,0.8634633061441676,0.0
-0.04252882226782343,0.7219558137700789,0.19211282440519778,1.58827895730963,0.022056482482485075,0.8630295501486279,0.0
-0.04381221638941498,0.7230993786243716,0.19726270944035482,1.5891260881944458,0.02263747748939855,0.8626278987768915,0.0
-0.04526834162139074,0.7246172537559,0.20378581975768137,1.5902705643749062,0.023364652971606285,0.8620799632519547,0.0
-0.046595986542320375,0.7258100299490936,0.20890013748985148,1.5911429059034614,0.023940859513717678,0.86166747620497,0.0
-0.048085741708946195,0.7273658779896168,0.21527908083148234,1.5923015959251312,0.024651019172593963,0.8611143614718457,0.0
-0.04931320826183409,0.7284236409116798,0.21965960467526996,1.5930580100453982,0.025145621297457028,0.8607597292555693,0.0
-0.05048326734539455,0.7294553327489097,0.22385297121078615,1.5937946668377903,0.02561792594394853,0.8604145456022662,0.0
-0.05174458916609131,0.7306785944886756,0.2286704696208619,1.5946789166406128,0.02615609651446541,0.8599975921073859,0.0
-0.05302013422700542,0.7319563039083682,0.23359260311541877,1.5956023800510442,0.02670414229950665,0.8595619486225287,0.0
-0.0544729186616575,0.7336241921135075,0.2397657208391569,1.596828379309627,0.02738393474771396,0.8589785288929347,0.0
-0.05573191988567855,0.7348549286468565,0.24435380613720864,1.5977020155334185,0.02789468023057154,0.8585693373640525,0.0
-0.05701699016505907,0.7361720132539256,0.24915306389713604,1.5986399471271462,0.028426434496153005,0.8581292515697831,0.0
-0.058398662702924715,0.7377023977276677,0.2545713395582484,1.5997388464807032,0.02902258468500197,0.8576113719224093,0.0
-0.05987066301934663,0.7394204921599379,0.26049768951047236,1.600976053948093,0.02967124175604593,0.8570271874207904,0.0
-0.06145637787155666,0.7413658464423822,0.26702938376664115,1.6023794338200221,0.030382449551428957,0.8563635206597436,0.0
-0.06279648595791813,0.7427287633083041,0.271673336150049,1.6033213262662906,0.03089433153502805,0.8559272329412067,0.0
-0.06440089315891444,0.744699280498434,0.27807578476290123,1.60472547073974,0.03158910807384461,0.8552667368287679,0.0
-0.06593970551866574,0.7464442053321932,0.2837228914796377,1.6059414699483248,0.032204275836482596,0.8547007889028115,0.0
-0.06754953835833691,0.748360508082952,0.28977727814766496,1.6072803262031448,0.0328602100111966,0.8540767533564234,0.0
-0.06886473720279572,0.7497097309893908,0.2940978748945111,1.608186534187289,0.03333271330168202,0.8536629504715958,0.0
-0.0706675881659837,0.7522678585573761,0.3017304183473602,1.61000847351285,0.03414653536913164,0.8528054268383681,0.0
-0.07209720994699173,0.753745894063458,0.3063139821325305,1.6109868400988991,0.03464533963347201,0.852361914949042,0.0
-0.07362285116907182,0.7554723031800491,0.3115157246733292,1.6121469691781012,0.03520647968319306,0.8518318586530518,0.0
-0.07528443412320548,0.7575303067115341,0.31753531720936934,1.6135478432202979,0.0358501822705598,0.8511874075920496,0.0
-0.07716306337856392,0.7601323624341847,0.32488514747099995,1.615345412005166,0.036628026235743745,0.8503537627637628,0.0
-0.07858836484988455,0.7616182405624499,0.3292485917934772,1.6162986334014842,0.037098222687317384,0.8499292688879392,0.0
-0.08062382825042304,0.7646663854691362,0.33751402111987233,1.6184060290370612,0.037964096408092084,0.8489512021570292,0.0
-0.08266821511725655,0.7672685030731985,0.34463721713638895,1.6201299336418875,0.038715901709150013,0.8481686659108475,0.0
-0.08444499426634851,0.769248806205387,0.35012859994895446,1.6213865236731182,0.03929938430827893,0.8476122999557008,0.0
-0.08611068766291845,0.771114059957881,0.35524336198154305,1.6225619695724343,0.03984132607956443,0.8470942730458659,0.0
-0.08783904627342523,0.7731775521248314,0.3607708584219572,1.6238752837529589,0.04042281867472072,0.8465121916608419,0.0
-0.08938981362635291,0.7749492703413056,0.3655129028704384,1.6249803135270258,0.04092206271050054,0.8460285468297196,0.0
-0.0912130070937034,0.7773328255341235,0.37165901423876757,1.6265105247147886,0.04156132854209074,0.8453469442598216,0.0
-0.09306623413199333,0.7797335397919969,0.3777868755713782,1.6280351239221436,0.04219719816715404,0.8446720541926714,0.0
-0.09515832433680185,0.7826885884308177,0.38511426242314595,1.629935787181631,0.04295067061168961,0.843823872120315,0.0
-0.0972998351869925,0.7855497857532611,0.39218612233501066,1.6317326594824688,0.04367789915313063,0.8430329905593512,0.0
-0.0995977251892873,0.7887016318378626,0.3998352212206885,1.6337054731215461,0.04446018081550573,0.8421659635351024,0.0
-0.10145966137000309,0.7907920465858684,0.40506657735146345,1.634923070222753,0.045000799628337494,0.8416554697945648,0.0
-0.10343305734421364,0.7931860780872341,0.41090399234124897,1.6363415816722422,0.04559904050245998,0.8410537290930273,0.0
-0.10561488853449641,0.7960675248046922,0.41773535977391546,1.6380776316249588,0.04629285005438342,0.8403086916554998,0.0
-0.10791833480890373,0.7991510767521293,0.42494236084534215,1.6399231554254488,0.047021460076561584,0.839519585464026,0.0
-0.10981870036330295,0.8013323696496547,0.4301620995557752,1.6411488033704527,0.047552889085390515,0.8390181981634489,0.0
-0.1117970930679021,0.8037302572490927,0.43578418148919934,1.6425106070923652,0.04812151195767166,0.8384565743869937,0.0
-0.1133219171133432,0.805410386434887,0.4397836911166725,1.6434213776593078,0.04852764720351653,0.8380941104430553,0.0
-0.11529357068169217,0.80792208661945,0.4455260316572899,1.6448492013915634,0.04910357270187954,0.8375044934870203,0.0
-0.11705719351300543,0.8100383874297791,0.45039139851852283,1.6460146520702246,0.04959208356806164,0.8370343467628816,0.0
-0.1191832143576619,0.8128776176782585,0.45671563105992075,1.647625447344128,0.05022080539598515,0.8363691486213297,0.0
-0.12123727852086069,0.8154807353880371,0.4625288854187119,1.6490592260405743,0.05079876532935039,0.8357894707584151,0.0
-0.1232611968483797,0.8180043537900037,0.46814040189948947,1.6504261149265056,0.051355541236329766,0.8352435058370317,0.0
-0.1252203855860678,0.8204043392697689,0.47345906802817656,1.6517034182614436,0.05188231993030201,0.834740012511542,0.0
-0.1270217723777663,0.8225449094776325,0.4782050185112105,1.6528167058099965,0.05235203865564749,0.8343091805447637,0.0
-0.12890399693571117,0.824845703922005,0.4832400707031828,1.654016700387418,0.05284818194712353,0.8338432008991282,0.0
-0.13073773284815135,0.8270688572644126,0.4880835195577121,1.6551606549813191,0.053324449522137864,0.8334036083601536,0.0
-0.1327154233930427,0.8295445915597435,0.4934022604409589,1.6564399388245834,0.05384501113177757,0.8329095476054637,0.0
-0.13445502393980932,0.8316058644904419,0.49786089770913133,1.6574679363307658,0.054281770421727916,0.8325243602945268,0.0
-0.13653493966166047,0.8342555352904756,0.503459905749149,1.6588208651909808,0.054826358593961816,0.832005762053252,0.0
-0.13867446824773774,0.836956962742823,0.5091399523539286,1.6601791594632096,0.05537750259905059,0.8314911389004828,0.0
-0.14100929372254595,0.8399584506881285,0.5153789785523255,1.6616826555956663,0.055980370239224586,0.8309221301216229,0.0
-0.1434490240730293,0.8430553957470477,0.5217860989440911,1.663204807298858,0.05659792726535317,0.8303544749993242,0.0
-0.14593873773951133,0.8461497403612406,0.5281712968912055,1.6646894191292385,0.05721213181397629,0.8298118022020391,0.0
-0.14785517613282806,0.8482813831196281,0.5326652689735771,1.6656377838281813,0.05764612851964399,0.82949060338573,0.0
-0.14979414769226126,0.8504836918693645,0.5372598917941257,1.666619203670029,0.05808830162421322,0.8291569359955626,0.0
-0.15135917251859146,0.8521912006212733,0.5408437039222536,1.6673530283264284,0.058433363161066225,0.828917275640799,0.0
-0.15365817031264753,0.8550201552384165,0.5465729691385277,1.668647016150067,0.058979850193506204,0.8284628208894866,0.0
-0.1557102513639022,0.8574073754696581,0.5514467371833002,1.6696896774161945,0.05944506458808979,0.8281136105281162,0.0
-0.15773886175648916,0.859758307218165,0.5562260057599325,1.6707015544371866,0.059900328713526595,0.8277794445505119,0.0
-0.16042989651265896,0.8631719518473308,0.5629704893582206,1.6722322214353553,0.06053780181373933,0.8272481143777841,0.0
-0.16276008108742568,0.8658597494552818,0.5683719131035241,1.6733506462038317,0.061049610978177356,0.8268903413982998,0.0
-0.16440055569845294,0.8676021554470115,0.5719344863938002,1.6740238973523442,0.06138811889954437,0.8266949173714293,0.0
-0.16708866344987006,0.870879477571115,0.5783654905107504,1.6754044637926693,0.06199310053207193,0.8262435322236931,0.0
-0.1683029672606643,0.8727707882422607,0.5819427789936155,1.6760957954134128,0.062413643471366305,0.825239281094196,0.0
-0.1689960166851664,0.8743675308694044,0.5848161258679804,1.676645508308556,0.06281110592724565,0.8238531433324348,0.0
-0.16927540936237623,0.8750219207253327,0.5860503712016306,1.6767496302648068,0.06300962254256023,0.8228714636704914,0.0
-0.16952534365531996,0.8756359583492922,0.5872187713527347,1.6768151484115108,0.06319398507270695,0.8218249057184519,0.0
-0.16990776540825928,0.8767274746603501,0.5892319316043533,1.6769984027670117,0.0634746804986378,0.8201081742685501,0.0
-0.17022385713575763,0.8773235404810192,0.5903949245006931,1.677063877527793,0.0636116423689988,0.819199774813245,0.0
-0.170543717407601,0.8778706102287152,0.5914745415754914,1.67712415375952,0.06372122752276331,0.81840831084868,0.0
-0.17110426104486662,0.8789070943501542,0.5934718195035432,1.6772887764019153,0.06389319389975637,0.8170209281283266,0.0
-0.1717189056366743,0.8798601630201479,0.5953550318781929,1.6774283439221611,0.06401257395517185,0.8158456546521081,0.0
-0.17243471425836532,0.880870216000025,0.5973745217725094,1.6775787023822717,0.06409990202710947,0.8147028965535817,0.0
-0.17280532082748132,0.8815972755205531,0.5987465889051976,1.677711440429486,0.06415511282095857,0.8137707811349868,0.0
-0.1730177438765494,0.8823287606873834,0.6000341066542884,1.6778806539559548,0.06420757006715534,0.8127362515734391,0.0
-0.17310894250802236,0.8831262283098953,0.6013545349561417,1.6780996068099112,0.06426186639107082,0.8115335028774213,0.0
-0.17314439782312135,0.8837304219134527,0.6023392283314704,1.6782622564244252,0.06430245313889069,0.8105651068985478,0.0
-0.17312630513521582,0.8844743242571695,0.6035110237216281,1.6784841633496435,0.06435077645498039,0.8093608330053529,0.0
-0.17297441471645236,0.8857101726774769,0.6053656736855408,1.6789192694815451,0.06442697514423301,0.8074163723137272,0.0
-0.1728662618003166,0.8872391330524944,0.6076956854377881,1.6794405103536447,0.06452100392002807,0.8050622008915251,0.0
-0.17293075796659654,0.8883732055167564,0.6095245673120051,1.679737765602848,0.06459357767535302,0.8032146973993569,0.0
-0.17290513427604048,0.8894126497050168,0.6111557815954515,1.680012382629231,0.06465838287031124,0.8014102042000647,0.0
-0.172953957291869,0.8899279759166293,0.6120140531052585,1.680098355737969,0.06469217547905574,0.8004317090019756,0.0
-0.1729658092396052,0.8903801856984092,0.6127504077990819,1.6801772502633503,0.06472125780348427,0.7995409801894944,0.0
-0.17296476977909003,0.8907816320835766,0.6133979136076769,1.680247492357492,0.06474680251190963,0.7987345263497463,0.0
-0.17296480821920196,0.8910957435837605,0.6139063776988608,1.6802982134374522,0.06476680691650101,0.7980902576568878,0.0
-0.17293381343898498,0.8915490365976828,0.6146164502208112,1.6803900381531245,0.06479469565171547,0.7971798517514855,0.0
-0.17291822283749558,0.8919445663426788,0.6152434362135581,1.68046373285051,0.06481914031974895,0.7963798379948003,0.0
-0.17289112866125375,0.8923945010720566,0.615948805437069,1.680553293724456,0.06484651499831616,0.7954759641180997,0.0
-0.17288071522888449,0.8927712196500538,0.6165479891148068,1.680620149128336,0.06486961042302028,0.7947089736551253,0.0
-0.17285899959265055,0.8931994779502015,0.6172214927540262,1.6807011113902453,0.06489547282980264,0.7938398386145133,0.0
-0.17284338863017948,0.8936095128808186,0.6178696627262129,1.6807746931479126,0.06492021535919426,0.7930016924515416,0.0
-0.1728245920090317,0.8940415445715947,0.6185505217042249,1.6808524456203562,0.06494607923692214,0.7921159833500543,0.0
-0.1728118075541993,0.8944537229468368,0.6192037794317469,1.680921814877231,0.06497075534728194,0.7912619700549571,0.0
-0.17280234667149996,0.8948456624147365,0.6198273396493754,1.6809835292331854,0.06499420034409634,0.7904392737840071,0.0
-0.1727745706075699,0.8953362153597485,0.6205954854544389,1.6810693764404212,0.06502296819903138,0.7894159938635452,0.0
-0.1727682258176052,0.8957647075834914,0.6212795010054898,1.6811315184730458,0.06504838608524256,0.7885042091207912,0.0
-0.17277732803662094,0.8960478121681795,0.6217430875109823,1.6811591561099253,0.06506554294756678,0.7878751808119892,0.0
-0.17276302816478664,0.8964565819669933,0.6223927048428927,1.6812132480286028,0.0650895771436908,0.7869756220073739,0.0
-0.1727524235487658,0.8968687847365944,0.6230507393815935,1.6812631702527956,0.06511378779206135,0.7860582384022037,0.0
-0.17275294786416237,0.8972238561234662,0.6236258749873079,1.68129598920178,0.06513484168062574,0.7852472149497469,0.0
-0.17274163100643605,0.8976384669320431,0.6242894778179844,1.6813379785405114,0.06515906991786515,0.7842953384729031,0.0
-0.17273552024423167,0.8980531007635537,0.6249576239334066,1.6813732145234206,0.06518332838587647,0.7833278726565014,0.0
-0.17273604779452162,0.8984434788742347,0.6255929196134346,1.6813970015844977,0.06520628634187071,0.7823940186791484,0.0
-0.17273803287918943,0.898820448384933,0.6262095681753637,1.6814125929921266,0.06522849680379846,0.7814690879119249,0.0
-0.17274270112564025,0.8991740312259333,0.6267923095670342,1.6814187205097013,0.06524942107270938,0.7805764946205526,0.0
-0.17271301521986318,0.8997007665290105,0.6276327457604859,1.6814492975339077,0.06527951552837265,0.7792663921806288,0.0
-0.17274225015211592,0.9000467957714559,0.6282230281710752,1.6814319159083035,0.06530039442676061,0.7783490236164351,0.0
-0.17275688811901369,0.9003917643599123,0.6288063110384932,1.681409558670499,0.06532109971180945,0.7773956869788234,0.0
-0.17274974651125036,0.9008377468617393,0.6295432713011744,1.6813898005421477,0.06534723711679852,0.7761559333784674,0.0
-0.17277984847228203,0.9011337628022223,0.6300624867903304,1.6813432843670182,0.06536550717988668,0.7752698848909122,0.0
-0.17280117060348213,0.9013901620836949,0.630514278708158,1.6812921910888103,0.06538147834784071,0.7744581310680902,0.0
-0.1728201186478695,0.9015924208187072,0.6308762147208797,1.6812407263488836,0.06539430205640978,0.7737824948548981,0.0
-0.1728306679725399,0.9018358949686873,0.6313046096611938,1.6811815900660159,0.06540950298206245,0.772960534060087,0.0
-0.1728476178280799,0.9020175619656405,0.6316339322719227,1.681124247813925,0.06542116527724037,0.7723152126339379,0.0
-0.17284603993396774,0.9023258808418949,0.632168989333873,1.6810481590092474,0.06544011186492985,0.7712477014402843,0.0
-0.1728649459594196,0.9026277416874914,0.6327094284040281,1.680955660210068,0.06545906161323686,0.7701710008138316,0.0
-0.17289642723619963,0.9028187650805901,0.6330724637950584,1.680868542697965,0.0654717878071013,0.7694202836304216,0.0
-0.172921314946317,0.9029875606536687,0.6333961385323027,1.6807811206670527,0.06548321560274514,0.7687164468577038,0.0
-0.17294312600160922,0.9031327392248348,0.6336786724581476,1.6806962562759573,0.06549323554446426,0.7680782635986498,0.0
-0.17296158630019806,0.9033112257925325,0.6340217035674176,1.6805922886912095,0.06550543085198826,0.7672822939095498,0.0
-0.17298387632797524,0.903476297553742,0.6343462278000713,1.6804841709555405,0.06551695952976314,0.7665126185913012,0.0
-0.17300777013075444,0.9036325057721888,0.6346592669882828,1.6803704090327993,0.06552809744749916,0.7657488736894731,0.0
-0.1730329451020188,0.9037712711864424,0.634944630313795,1.680256083117327,0.06553827741444185,0.7650304654550527,0.0
-0.17306630511466645,0.9038948485330837,0.6352076519287544,1.6801448941015793,0.0655475690481138,0.764374766769222,0.0
-0.17310877138905462,0.9040393736389472,0.6355175313843293,1.68001270499195,0.06555843672559382,0.7636056564647701,0.0
-0.17315739472054673,0.9041701267799779,0.6358078868797195,1.6798802066475031,0.06556856489995347,0.7628806163165073,0.0
-0.17321696533368505,0.9043353032696715,0.6361750821150493,1.6797090633063616,0.06558135417451529,0.7619488290879994,0.0
-0.17327461352310752,0.9044466390828217,0.6364418537463158,1.6795669462486824,0.06559063403351495,0.7612546803917362,0.0
-0.1733344291531501,0.9045594674906213,0.6367180874369807,1.6794100540157337,0.06560029630823237,0.7605087790133697,0.0
-0.17339410090381277,0.9046607873749709,0.6369761526856237,1.679251580302109,0.06560936379461983,0.7597871074743924,0.0
-0.17344969087439885,0.9047435417939991,0.6371976920919963,1.6791038355711327,0.06561718984885134,0.7591446668065233,0.0
-0.17350999912144785,0.9048300396585772,0.637435466233852,1.6789366915378772,0.0656256334237554,0.7584324456107475,0.0
-0.17357046413147512,0.904906988973474,0.6376579995726553,1.678768995052644,0.06563357488313866,0.7577433535564894,0.0
-0.1736250734534572,0.9049668788067926,0.6378429683720763,1.678618540608749,0.06564021851847246,0.7571494279391285,0.0
-0.17370485932909033,0.9050610100671245,0.6381317864998329,1.6783793057961582,0.06565063873044366,0.756197090627821,0.0
-0.17377151735674584,0.9051166854692809,0.6383285516361981,1.6781971492290138,0.06565777408183715,0.7555225211115292,0.0
-0.17384611086244628,0.9051742969526008,0.6385451531380465,1.6779834469283963,0.06566571687208762,0.754745615217256,0.0
-0.17393069984738307,0.9052312288704055,0.6387792328132557,1.6777359360572086,0.06567438676566514,0.7538684324903094,0.0
-0.17400396616321973,0.9052678860572189,0.6389597777631294,1.677525681371169,0.0656811588209784,0.7531558011632511,0.0
-0.17409741493202846,0.905309133794004,0.6391857283235189,1.6772461769898688,0.06568974282785929,0.7522217884826672,0.0
-0.17418103035003268,0.9053337205123736,0.6393661109748007,1.6770005119159106,0.06569669951978192,0.7514333435822448,0.0
-0.17426637861621266,0.905350823471463,0.6395391902685077,1.6767450788984994,0.06570349344044292,0.7506330161764977,0.0
-0.17435228082513773,0.9053603401948815,0.6397020334368672,1.676485236111515,0.06570999812626493,0.7498378470971805,0.0
-0.17445965472710437,0.9053643567787922,0.6398950107379571,1.6761549710422514,0.06571783930666796,0.7488452593299499,0.0
-0.1745422821832815,0.90535887031822,0.6400287101960862,1.6759029779163825,0.06572339474173812,0.7481110687192568,0.0
-0.1746227142642493,0.9053482605555957,0.6401518044041359,1.675654017260978,0.06572861551863701,0.7473972586826051,0.0
-0.17470864373670755,0.9053321255176869,0.6402766585316124,1.6753852172105939,0.06573400878857058,0.7466372170148492,0.0
-0.1747947961238064,0.9053112536646082,0.6403949431477796,1.6751138707102005,0.06573921503612065,0.745880854008173,0.0
-0.1748829676775712,0.905285544567566,0.6405096505198506,1.674834337783702,0.06574435824897247,0.7451115815490782,0.0
-0.17496179796870834,0.9052589935505558,0.6406070530765855,1.6745827549576628,0.06574880666338466,0.7444271624352552,0.0
-0.1750481117239024,0.9052268165667842,0.6407092444590125,1.674305736512734,0.06575354683831398,0.743680317970518,0.0
-0.17513239481471893,0.9051924495844537,0.6408048981886721,1.6740334779420234,0.06575805485727654,0.742952452236369,0.0
-0.1751919957990724,0.9051664443399691,0.6408703660511761,1.6738393614763725,0.06576118147005433,0.7424365420022978,0.0
-0.1752740402226125,0.9051291791761689,0.6409581937406019,1.6735717950796873,0.06576540963396454,0.7417288482754352,0.0
-0.1753631511891652,0.9050867344340913,0.6410510028979594,1.6732794298974958,0.06576992335509083,0.7409590694495355,0.0
-0.17543303499770085,0.9050521579630237,0.641122440904131,1.6730480537826842,0.06577342395681215,0.7403513159002792,0.0
-0.1755209896738091,0.9050077439262462,0.6412111812521925,1.6727558760866357,0.06577778386816341,0.7395852219006753,0.0
-0.17560621191713288,0.9049639394398814,0.6412966909623624,1.6724704726554338,0.06578198696101799,0.738836741478974,0.0
-0.1756852933067973,0.904923040864132,0.641376088340461,1.6722041163109047,0.06578587341875261,0.7381373985115514,0.0
-0.17576798407790706,0.9048801722324996,0.6414586129158094,1.6719260434141952,0.06578989148937232,0.7374077802935134,0.0
-0.17583640176701196,0.904844460888982,0.6415261613965216,1.6716965022002375,0.06579316797521928,0.7368064536353706,0.0
-0.1759125991579104,0.9048041887877369,0.6415998562092247,1.6714424267530068,0.06579674244998925,0.7361433881914227,0.0
-0.17600448321657033,0.9047544178801193,0.6416855548463762,1.6711388124877578,0.06580092176319673,0.7353564441884621,0.0
-0.17615741745027655,0.9046671949609459,0.6418156888914934,1.6706467745553704,0.0658074033428794,0.734104099847673,0.0
-0.17631275594663692,0.9045676239976586,0.6419317034685982,1.670142776058779,0.06581357232613047,0.7328454037036963,0.0
-0.17643862886060302,0.90447933992535,0.6420154114768195,1.669729088043269,0.06581832301628683,0.7318263829898125,0.0
-0.17651961681359263,0.904419659111593,0.6420659821288021,1.669459240157202,0.06582130717125428,0.7311651873929295,0.0
-0.17669705454523849,0.9042859705973679,0.6421501429819616,1.6689236017134765,0.06582670406731608,0.7299178145195445,0.0
-0.17680207981781199,0.9041879373986096,0.6421858913765498,1.6685656859867672,0.06582992748236238,0.7290857973568937,0.0
-0.17696299867697818,0.9040418159092853,0.6422252169975851,1.6680727013190964,0.06583399296183587,0.7279933993185352,0.0
-0.1770557575277731,0.903943016831961,0.642236869463761,1.6677574188718898,0.06583635810545338,0.7272927993956319,0.0
-0.17713624674371464,0.9038584237958891,0.6422450577705767,1.6674931091651708,0.06583827260682801,0.7267141172585969,0.0
-0.17722089678395428,0.9037687903975995,0.6422489989728503,1.6672242495552225,0.06584009758261533,0.7261389648195083,0.0
-0.17731634919874925,0.903664869595346,0.6422459460583096,1.6669286425802106,0.0658419247987887,0.7255241250902226,0.0
-0.1773998552258184,0.9035682652073581,0.6422359712802264,1.6666655812618762,0.06584340550899623,0.7249853904341299,0.0
-0.1774969655455692,0.9034533169024583,0.6422171511128345,1.6663675463745034,0.06584490631198829,0.724393093989815,0.0
-0.17759834214619666,0.9033271827784526,0.6421877359168879,1.6660565194016856,0.06584627095765005,0.7237909769876322,0.0
-0.17771667230112856,0.9031741887564073,0.6421419623669333,1.6656993945240945,0.06584758168383678,0.7231236957308795,0.0
-0.17781637076740242,0.9030340025781449,0.6420906227758537,1.665385396094849,0.06584854493116567,0.722544911524416,0.0
-0.1779192952481081,0.9028862221895905,0.6420310478834674,1.6650656095227452,0.06584937302896574,0.7219704931375581,0.0
-0.1780314010397387,0.9027215283917795,0.6419581185408731,1.6647227358110304,0.06585007466817588,0.7213734037185059,0.0
-0.17812856019636325,0.902570159267854,0.6418845199062692,1.664417109792884,0.06585055735157624,0.7208486644732208,0.0
-0.17823580559595786,0.9024021274907366,0.6417984849928352,1.6640881663019753,0.0658509320553385,0.7203011781340409,0.0
-0.17833811773885858,0.9022354185236475,0.6417074441668745,1.6637712840518695,0.06585115126470245,0.7197846839830094,0.0
-0.17845024634873102,0.9020504108428963,0.6416016046630604,1.663430176494504,0.06585123358253787,0.7192460872652201,0.0
-0.17856031383689303,0.9018616994729898,0.6414876375298258,1.6630922903799412,0.06585116129748408,0.7187250786181336,0.0
-0.17867265269566424,0.9016642817742482,0.6413633711100859,1.6627482322183489,0.06585094445960256,0.7182084939057164,0.0
-0.17877952009953232,0.901469908530348,0.6412360839218382,1.6624174530086333,0.06585061144944644,0.7177218650079231,0.0
-0.17891349090890285,0.9012297014183919,0.6410751693315886,1.6620203032816045,0.06585004088318931,0.7171639060545998,0.0
-0.1790186360587368,0.9010236363570807,0.6409292041194375,1.6616877179205778,0.06584942382119233,0.7166984567687834,0.0
-0.17916634454948066,0.9007482909751797,0.6407332973850223,1.6612544576144195,0.06584846324406095,0.7161263652102298,0.0
-0.17931681299307084,0.9004515788625495,0.6405121811396288,1.6608024307112135,0.06584721646288322,0.715548259712942,0.0
-0.17942811846059842,0.90020976543319,0.6403237236376798,1.6604409789899488,0.06584609643575591,0.7150838398624803,0.0
-0.17955905898074973,0.8999373691665827,0.6401119367903104,1.6600392235648682,0.06584478288440561,0.7145879219515042,0.0
-0.17968835598183636,0.8996625067275457,0.6398939315519973,1.6596411944939629,0.06584336597842073,0.7141087456124808,0.0
-0.1798208898178331,0.8993775247125629,0.6396643097925057,1.6592356605404563,0.06584181246467093,0.7136344080959518,0.0
-0.17995142132546346,0.899090691881191,0.6394290643587972,1.6588343543411534,0.06584016761539156,0.7131764200454564,0.0
-0.18010007143367923,0.8987670263541837,0.6391610997186251,1.6583894518441316,0.06583822618272685,0.7126892396911387,0.0
-0.18028753852426005,0.8983638057280805,0.6388232800471885,1.657848076824566,0.06583566599147733,0.7121305748228023,0.0
-0.18041666229775233,0.8980416979731033,0.6385394345589634,1.657425552567553,0.06583348075332011,0.7116873784485802,0.0
-0.18054863556791806,0.8977210706592985,0.6382574613426205,1.657007376138861,0.06583130097131244,0.7112596522797264,0.0
-0.18068618512879603,0.8973912202584281,0.637966497781355,1.656581280868823,0.06582902931678852,0.7108364920910826,0.0
-0.1808499186484178,0.8970091701868464,0.6376289399399566,1.6560942984885678,0.06582634581837993,0.7103757264603181,0.0
-0.18098568428711106,0.8966678965908562,0.6373194334386274,1.655666344929075,0.0658238667403088,0.7099726368646008,0.0
-0.1811377330241499,0.8962952851823484,0.6369814948970713,1.6552034314264534,0.06582113544925891,0.7095532604572877,0.0
-0.18128627414336934,0.8959227488460332,0.6366394856659792,1.654746466458738,0.06581835144406545,0.7091489359390406,0.0
-0.18147480346722641,0.8954679800843652,0.6362226241023476,1.654195408341422,0.06581491043585218,0.7086896749326322,0.0
-0.18163482244410176,0.8950470396315455,0.6358258680148261,1.653694724239969,0.06581162045287381,0.7082751763001223,0.0
-0.18179309506053493,0.894627692309478,0.6354281199226647,1.6532002301430655,0.06580831922186318,0.7078752551050727,0.0
-0.18196194770079663,0.8941846852394172,0.6350067134108259,1.6526822974263156,0.0658048116011528,0.7074705638249831,0.0
-0.18212051497854445,0.8937559784027445,0.6345942388947969,1.6521863341591985,0.06580137808586778,0.7070897180047198,0.0
-0.18230310256240026,0.8932760678247332,0.6341329708000487,1.6516354328497895,0.06579752398018598,0.7066857501016954,0.0
-0.1824659952172395,0.892824464424751,0.6336917640384557,1.6511234347807726,0.06579384195610687,0.7063142851757077,0.0
-0.18264012546597638,0.8923481788009836,0.6332258081107591,1.65058708518163,0.06578995254836746,0.7059384041947746,0.0
-0.1828236485953603,0.8918454350952733,0.6327314839714555,1.6500259875650611,0.06578582350981574,0.7055585243745077,0.0
-0.18299458715555864,0.8913598453256256,0.6322484299945208,1.6494895159439233,0.06578179821088581,0.7052009620159236,0.0
-0.18318385095541592,0.8908329127386152,0.6317242315247583,1.6489109859185827,0.06577743034701249,0.7048308811618147,0.0
-0.18335263887095513,0.8903398180008221,0.6312270860659616,1.6483750939021213,0.06577330437800591,0.704490972981475,0.0
-0.18355591484124534,0.8897727684883252,0.6306583192039054,1.6477614158596703,0.06576858083220563,0.7041224212065024,0.0
-0.18374276632459766,0.8892244315625495,0.6301004225871388,1.6471748122699166,0.06576396315895364,0.7037750135423027,0.0
-0.18391099329551377,0.8887141806240815,0.6295765348869379,1.646632777843428,0.06575965136844447,0.7034563543775421,0.0
-0.1841078200351311,0.8881439301845377,0.6289941902166519,1.6460284937158804,0.06575486447524638,0.7031181223896575,0.0
-0.1843211960549449,0.8875259460603852,0.6283604789097076,1.645378805185894,0.06574966213961414,0.7027693301908036,0.0
-0.18452499499984384,0.886911769811436,0.6277234185570866,1.6447396622491073,0.06574445298519194,0.7024328577307551,0.0
-0.18473101670674097,0.8862852970731665,0.6270703348199766,1.644091894146384,0.0657391349908365,0.7021010031519719,0.0
-0.1849393852778588,0.8856464975637262,0.6264012107119309,1.6434354304218113,0.06573371010716851,0.7017737623312496,0.0
-0.18514187361813253,0.8850142210325708,0.6257346950018307,1.6427897810765855,0.06572833456994849,0.701458218688858,0.0
-0.18536518580444095,0.8843317575666264,0.6250156738514684,1.6420955270581301,0.06572255496261434,0.7011333088714519,0.0
-0.1855547225758686,0.8837138246800468,0.6243553726771102,1.6414727637686721,0.06571728597903702,0.7008405062028447,0.0
-0.1857946634424777,0.8829863536233987,0.6235853712161884,1.6407392255352102,0.06571115251796336,0.7005184839856519,0.0
-0.18601287753000467,0.8822845486797942,0.6228321291638286,1.64003909134923,0.06570518789178573,0.7002141610362556,0.0
-0.18623434935729652,0.8815706996366185,0.6220634299086902,1.6393300772224668,0.06569913346055743,0.6999142722361354,0.0
-0.18647691679781966,0.8808019776026383,0.6212353248949491,1.6385693979958234,0.06569263791026654,0.6996065015776807,0.0
-0.18669963557880573,0.8800622155891528,0.6204296178638816,1.6378434620519828,0.06568635988242565,0.6993154113445913,0.0
-0.1869176286485821,0.8793325719157046,0.6196318607396535,1.6371301504002838,0.0656801831719198,0.699034675131423,0.0
-0.18725269451496063,0.878340388674252,0.618565286350337,1.6361572808305003,0.06567191796869391,0.6986976392524433,0.0
-0.1874356598978202,0.8776257437757949,0.6177597938298303,1.635475505950924,0.0656657567073365,0.6984363674836235,0.0
-0.18766438136802036,0.8768373115257437,0.6168855122064456,1.6347163653672814,0.06565910367375878,0.6981616987165138,0.0
-0.1878799849723637,0.8760834779453015,0.6160457598028736,1.6339929702584814,0.06565275873872758,0.6979025171303936,0.0
-0.18807494629754037,0.8753882267155381,0.615267356812821,1.6333278029888254,0.06564692079339149,0.6976643856760302,0.0
-0.18830679133216754,0.874613411657693,0.6144062530164435,1.6325849853963295,0.06564048563811518,0.6974138124289739,0.0
-0.188548768696558,0.8738013557729594,0.6135002879488182,1.6318102766425793,0.06563374609373734,0.6971623473998324,0.0
-0.18878950185430307,0.8729758279321211,0.6125732716695288,1.6310274584411357,0.06562688677205604,0.6969150568727812,0.0
-0.18903037470943407,0.8721376973843509,0.6116271722988166,1.6302365662909366,0.06561992510291574,0.696671753032794,0.0
-0.18929284485970677,0.8712365055285254,0.6106087051087119,1.6293886763404164,0.0656124655318112,0.6964229446829103,0.0
-0.18957329584340032,0.8702692204957562,0.6095109238511663,1.6284832022543922,0.06560446396020539,0.6961691639596072,0.0
-0.189836699100069,0.8693140618608673,0.608415190339611,1.6275961657843285,0.06559653094875846,0.6959233056117925,0.0
-0.18997892232624697,0.8686829297305555,0.6076711570244242,1.627017713108834,0.06559121404893334,0.6957425854073062,0.0
-0.1902456756364317,0.8677642368014804,0.6066210676750122,1.6261615910926337,0.06558370673483098,0.6955128755033816,0.0
-0.19048473851536193,0.8668846305606313,0.605602669561529,1.6253493873036127,0.06557647323182834,0.6952954755693898,0.0
-0.19075868073151284,0.8659118119747032,0.6044784405108318,1.6244517285133357,0.06556852139491993,0.6950694495935119,0.0
-0.19104923148513178,0.8648686273862166,0.6032665560349645,1.6234942877083598,0.06555999163079873,0.6948394434946829,0.0
-0.19120193372061034,0.8641705980006477,0.6024290291099261,1.6228647605625777,0.06555416973845495,0.6946662325766542,0.0
-0.19148571569788894,0.863165270728623,0.6012577558378462,1.6219428870492434,0.06554602725882348,0.694450615576838,0.0
-0.1916388203828021,0.8624799972894671,0.6004334467231368,1.6213257660925164,0.06554036170031807,0.6942870525316088,0.0
-0.19196116691544327,0.8614327738434187,0.5992230918204743,1.6203608849081088,0.06553161849200169,0.6940806769890846,0.0
-0.19224035587187568,0.860532675115066,0.5981806032393682,1.6195326371671994,0.06552305219605133,0.693908390546333,0.0
-0.19258834347114,0.8595169018975992,0.5970190532598219,1.618593806820584,0.06551250364643013,0.6937425849015393,0.0
-0.192914016678771,0.8585182989068031,0.5958612807291949,1.617683324290764,0.06550108102965022,0.6935992057899029,0.0
-0.1931545513603956,0.8575391698489205,0.5946706685886988,1.616827266521603,0.06548963020091712,0.6934796446635224,0.0
-0.1933934934235849,0.8564404941920877,0.5933089505761947,1.6158857185140805,0.06547675354674573,0.6933697519316621,0.0
-0.19359494390441756,0.8552770912516778,0.5918289561772103,1.6149117508748074,0.06546301295482261,0.6932644455885713,0.0
-0.19375043968257774,0.8541567687490352,0.5903749940468542,1.6139888139451737,0.0654496758700946,0.693163844753901,0.0
-0.1939274711811464,0.8529244682531645,0.5887736714150599,1.6129746096479651,0.06543510588208477,0.693064486159239,0.0
-0.19407113060215692,0.8517441336911696,0.5872186915250269,1.6120126247204152,0.06542107913387822,0.6929680374477775,0.0
-0.19418964226424743,0.8506540621745233,0.585769691670528,1.6111284642354575,0.0654080839449225,0.6928752936994613,0.0
-0.19435102648828148,0.8494220635174042,0.5841433793290757,1.61012252435885,0.06539357390636137,0.6927831719282507,0.0
-0.19448367712250866,0.84824511492827,0.5825712127757403,1.6091691578741705,0.06537965196325712,0.6926936439431195,0.0
-0.19461743135883625,0.8470590484711085,0.5809816757106685,1.608209156509422,0.06536565569432472,0.6926061508951787,0.0
-0.19476818012644082,0.8457938044554142,0.5792848856477553,1.6071842801986491,0.06535080600773932,0.6925204293188719,0.0
-0.1948837205240627,0.8446215241873548,0.5776925826305948,1.6062424130311317,0.06533696292186329,0.6924368074059127,0.0
-0.19502149253408824,0.8433716336499416,0.5759978643510206,1.6052349003638988,0.06532230237162258,0.6923548562379271,0.0
-0.19520013254961016,0.8419304401409182,0.5740476809102506,1.6040705311089773,0.06530554727432045,0.692276121801865,0.0
-0.19533973965225968,0.8405104982741263,0.572095516993494,1.602936314003194,0.06528891692982511,0.6921973966333848,0.0
-0.19542905527450594,0.8392646102025134,0.5703560253318005,1.6019500840552237,0.065274177309372,0.6921178085117107,0.0
-0.19561732447442012,0.8376817249160864,0.5681822681870251,1.6006780275767625,0.0652558335059481,0.6920440943416889,0.0
-0.1957944313879295,0.8361833973061825,0.5661128509960841,1.5994776243488245,0.0652371091764749,0.6919851334107379,0.0
-0.19591675057709634,0.8350252221955567,0.5644966259023123,1.5985554021303274,0.06522096077487506,0.6919407068948538,0.0
-0.19613527337116474,0.8335295669837997,0.5624348064138102,1.5973569859559023,0.0651996611076272,0.691931597307395,0.0
-0.19619109575461235,0.8321263111263361,0.5603959591547748,1.5962895423242014,0.06517917790841035,0.691938368424707,0.0
-0.19621436513630702,0.8305306676139891,0.5580410821447123,1.59509368788699,0.06515591859150636,0.6919608661238407,0.0
-0.19615981958811754,0.8290253996315265,0.5557615986054124,1.5939901147381184,0.06513365784579506,0.6919769179906967,0.0
-0.19611180235176404,0.8273883267062432,0.5532776243990897,1.592787612597954,0.06510952031261766,0.6920025998865118,0.0
-0.19602133812831374,0.8258589156927388,0.5509177582123277,1.5916770924606891,0.06508670210113664,0.6920196118257652,0.0
-0.1959478292236787,0.8242017030984273,0.5483634039196033,1.5904667400570338,0.0650620704332578,0.692045574905513,0.0
-0.1958380871865874,0.8226561857985187,0.545944101094843,1.589349012922329,0.06503883212110585,0.6920624063289273,0.0
-0.1957065548568817,0.8215031104110437,0.5441015581343875,1.588526130560923,0.06502111213325144,0.6920574947251863,0.0
-0.1956194135425215,0.8201549066934352,0.5419800205207842,1.587544637871627,0.06500069259235508,0.6920641827246337,0.0
-0.19556066881906536,0.8185117359871581,0.5394108283933883,1.5863374155165215,0.06497610306148911,0.6920912356542863,0.0
-0.19542582674171335,0.8171373978487246,0.537198601865835,1.5853512960784366,0.06495506636772375,0.6920993404539878,0.0
-0.1953166842946191,0.8155971272033556,0.5347334776582612,1.584234350052793,0.06493166292224477,0.6921180904961067,0.0
-0.19518123857673939,0.8141298211231521,0.5323541006288254,1.5831785897045705,0.06490916205299124,0.6921313602485348,0.0
-0.195065727871607,0.8127103279251945,0.5300498755826503,1.582153369600749,0.06488664796864685,0.6921506812031103,0.0
-0.19496478197974923,0.8116598348466243,0.5283266325521967,1.5813993592537239,0.06486854744694713,0.6921656089787587,0.0
-0.19493196800276083,0.8102612981003443,0.5260832837028793,1.5803727724927612,0.06484387141019059,0.6922210048202001,0.0
-0.1947861473601518,0.8092230175603814,0.524333794209691,1.5796493131191907,0.06482481760154671,0.6922631911876403,0.0
-0.19462260751048666,0.807844639605737,0.5220189958987048,1.5786854724797736,0.06479988259243806,0.6923427059190697,0.0
-0.19438135524984881,0.8063910149201579,0.5195229774824155,1.5776906839466884,0.06477340810934636,0.6924294453854116,0.0
-0.19408498467639104,0.8048733581941391,0.5168759194528701,1.5766652587782584,0.06474558214897072,0.6925214805634694,0.0
-0.19374658664033775,0.8032987240538256,0.5140955130647872,1.5756096602597354,0.06471651160514207,0.6926174507791523,0.0
-0.19339363767350654,0.8019336480136041,0.511635881516271,1.5747085719711187,0.06469082947715525,0.6926903515477348,0.0
-0.1930775400461677,0.8008225805066814,0.5096075819160176,1.5739802522938022,0.06466957806819548,0.6927406136860982,0.0
-0.19273976734582138,0.7992856381790892,0.5068502331884884,1.5729469071588102,0.06464071214314597,0.6928299951805141,0.0
-0.19236682049092424,0.7978256023269439,0.5041843394421455,1.5719780476477314,0.06461291556390308,0.6929093151682167,0.0
-0.19197227677108414,0.7962747465311181,0.5013380637674425,1.57094747421088,0.06458328726675765,0.6929955596034996,0.0
-0.19156710371454097,0.7948520117465734,0.49868580923572114,1.5700112428726458,0.06455570288148638,0.6930671037420677,0.0
-0.19115146983755793,0.7933426342341839,0.4958655051915227,1.5690128140222912,0.06452637056217517,0.6931450597562084,0.0
-0.19072951775516195,0.7919191104598928,0.4931723109607158,1.5680768341337057,0.06449837434167538,0.6932129340975814,0.0
-0.19028437384539815,0.790319973462901,0.49014728670485563,1.5670170383477926,0.06446696257532591,0.693295177543505,0.0
-0.18986034533471405,0.7889064706288924,0.4874369808145534,1.5660879972976893,0.06443780546700383,0.6933695163552263,0.0
-0.1894622144097231,0.7874230771211188,0.4846025425477053,1.565104055059825,0.06440564655598856,0.6934683677449792,0.0
-0.1890399172329995,0.7860202111747202,0.48187523660729703,1.564189144345368,0.06437383105584467,0.6935755225660211,0.0
-0.18854021810744315,0.7845924902964304,0.479038601267182,1.563279896659645,0.06434112076761517,0.6936971342711463,0.0
-0.18794065274350122,0.7830077075541533,0.47584313762555747,1.5622823802081847,0.06430467666559239,0.6938359770417889,0.0
-0.1872889488574674,0.7814959719274265,0.4727261750446417,1.5613489994214744,0.0642693534988597,0.6939623933504351,0.0
-0.1865849292110489,0.7798890432381855,0.4693847772164588,1.5603576140004323,0.0642315666494809,0.6940976913955035,0.0
-0.18588153014802397,0.7784146131396869,0.4662633406637921,1.5594587869903163,0.06419628268130984,0.6942139489529169,0.0
-0.18527519107838405,0.7772518879245863,0.46375582705279395,1.5587588087120245,0.06416782061131013,0.694294877102422,0.0
-0.1845526904919684,0.7756509204871358,0.4603531809874893,1.5577673923295625,0.06412918989732813,0.6944232674977097,0.0
-0.18379036598815918,0.7740893238337857,0.4569754637884889,1.5568114463707405,0.06409095729255666,0.6945430831341854,0.0
-0.1829745085326054,0.7724378978523488,0.453372148437634,1.5558000225512567,0.06405021233851263,0.6946696109589113,0.0
-0.18226509027474883,0.7711902229742202,0.4505737673391951,1.5550531996670203,0.06401849573747145,0.6947495431735512,0.0
-0.18132384182930333,0.7690857755699825,0.4459785799349141,1.5537357155108515,0.0639665361815097,0.6949250431590248,0.0
-0.18026596225733685,0.7672014584136863,0.4416909434810997,1.552601098319977,0.06391845191156392,0.6950616033878987,0.0
-0.1794932866728362,0.7660498228582366,0.4389720701754951,1.551929354410887,0.06388770301676086,0.6951201746039672,0.0
-0.1784654383757834,0.764068641006548,0.43444927411472817,1.550706293798119,0.0638364679833625,0.6952611929306726,0.0
-0.17745261018172928,0.7624487347683658,0.4306100968847148,1.5497389713056053,0.06379311489944745,0.6953549524112307,0.0
-0.17628594596448138,0.7603437582997529,0.42566926520603837,1.5484461410483967,0.063737301831927,0.6954961528872678,0.0
-0.17505555938090073,0.7584251558808386,0.4210142027423856,1.547297684588232,0.06368493167826267,0.6956060354598778,0.0
-0.17383717748165556,0.7565742838379137,0.4164588276432541,1.5461891465365667,0.0636335283850163,0.6957021223067891,0.0
-0.17259685730697952,0.7546978113275562,0.41179082320881416,1.5450598397775421,0.06358076467363132,0.6957944542606928,0.0
-0.17134951970864026,0.7528807971227932,0.40719546210530266,1.5439693784400064,0.06352880199642567,0.6958746439565539,0.0
-0.1700698330783107,0.7510352822356887,0.402471751695221,1.5428583017831836,0.06347538236479588,0.6959513870686693,0.0
-0.16834261496416206,0.7478450276721661,0.3945004106302316,1.5408441446095298,0.06338615753551931,0.6961676285292564,0.0
-0.1661343345523235,0.7453924001838531,0.38770921624158855,1.5394585892972343,0.06331169191097705,0.6962558923598758,0.0
-0.16478530196990024,0.743739153324453,0.38315049777012594,1.5384716575641804,0.06325942489409617,0.6962680877518338,0.0
-0.16349523746905995,0.7415047447087921,0.3772449945835947,1.5370288706934712,0.0631906928262689,0.6963193703484107,0.0
-0.1623328914251381,0.7400055603816984,0.3730447002430265,1.5361067709449026,0.06314187518766262,0.6963084110497777,0.0
-0.16106739860175642,0.7376275731668226,0.3666562371110681,1.5345391328136757,0.06306751990220973,0.6963539800920875,0.0
-0.15942605713171804,0.7353131897308202,0.36007518056833465,1.5330851521455442,0.06299248170227806,0.6963711308209906,0.0
-0.15769070540662236,0.7327293190436792,0.3526490290025625,1.5314356678471575,0.06290793780400816,0.6963885320518336,0.0
-0.1559600966205859,0.7307555342188612,0.34661341031196724,1.5302307771895356,0.06283946866353421,0.6963416807012761,0.0
-0.15441575094060447,0.7287075291975761,0.34039945321148074,1.5289256995639822,0.06276823676109711,0.6962876266414925,0.0
-0.15314624682316344,0.7273677045571658,0.33611087045324284,1.5281033297280193,0.06271906108726007,0.6962072319502931,0.0
-0.15179081011101792,0.7254246462343453,0.3301032946461132,1.526832551907827,0.0626501514837395,0.6961352751622918,0.0
-0.1505194080682504,0.7241369574044871,0.32582921966250866,1.5260422067815484,0.06260176418257979,0.6960455031555899,0.0
-0.14897303068892656,0.7216618237452258,0.3180301178475649,1.5243942412774931,0.0625141315515617,0.6959783175251777,0.0
-0.1470854789681273,0.720065312816806,0.3123385337672871,1.5234582468872442,0.06245210056903923,0.6958603631759337,0.0
-0.14549323154947566,0.7184230303293349,0.3065941240583621,1.522429724465584,0.06238842821503126,0.6957304025338332,0.0
-0.14404870203902434,0.7170077735336371,0.30151319273918703,1.521545396905249,0.06233222931030025,0.6955953118162457,0.0
-0.14268317888627272,0.7156476373577051,0.2965651212532723,1.5206867000646596,0.062277658599977755,0.6954556366946055,0.0
-0.14113648573146767,0.7139495406161469,0.2903735994829479,1.5195936421202727,0.06221017036411429,0.6952995405251847,0.0
-0.13964694158192528,0.7124891909690723,0.28482116841232685,1.5186851226480693,0.062141759331865866,0.6951959064880586,0.0
-0.138317768284052,0.7104332156887148,0.277200276673723,1.5173858480991933,0.062018698847735546,0.6953692958040518,0.0
-0.13681739660834336,0.7085366754130717,0.26968694256122067,1.5162985144177876,0.06188809437515134,0.6957537748354499,0.0
-0.1354503971157411,0.7072552794665453,0.264234561764716,1.5156069314553953,0.06179027621521757,0.6959854271838699,0.0
-0.13405903682930695,0.7058614766293686,0.2582273321928661,1.5148438586683217,0.06168244634247419,0.6962405249809926,0.0
-0.13256296648114668,0.7041307428230865,0.25069601365995414,1.5138732972267186,0.06154782714824855,0.696566196008061,0.0
-0.13119955517284743,0.7029660657746744,0.24523377175451874,1.5132609232154117,0.061447248130005266,0.6967576093425778,0.0
-0.12971901418047493,0.7014581537144068,0.23814120596829538,1.5124412890322065,0.061317870196733446,0.6970176991292312,0.0
-0.1282837944445074,0.700209231738455,0.23192842147110673,1.5117872247521609,0.06120262669632989,0.6972140438239384,0.0
-0.12687480917988755,0.699022346733512,0.22580810802511503,1.51117317556347,0.06108842512251923,0.6973925344468177,0.0
-0.12564997842021186,0.6981445944052813,0.22103524065444569,1.5107378135938236,0.060997945685641305,0.6975102378802805,0.0
-0.12450685815981492,0.6973400836837335,0.21654198811452155,1.5103420316390022,0.060912516960387686,0.69761419615508,0.0
-0.1231013518220681,0.6959354883809725,0.20880330546934944,1.5096074199010068,0.06076905378277897,0.6978204663120251,0.0
-0.1217929413373572,0.6950432522833625,0.2034046848147693,1.509182052720201,0.06066589871051548,0.6979209504503701,0.0
-0.12049953656705,0.6941590848297419,0.1978784130839613,1.5087645801565377,0.060560313065866796,0.6980153295009974,0.0
-0.11931722741878147,0.6934248590336141,0.19306967204199202,1.5084298349209198,0.06046773236037982,0.6980834378913688,0.0
-0.11800770688326125,0.6924938289522741,0.18686353211947004,1.507998601995578,0.06034963721715557,0.6981721836233324,0.0
-0.11674633268928723,0.691710043721157,0.18131085277728995,1.5076541874963933,0.06024300086888504,0.6982312078864364,0.0
-0.11541137809356856,0.6908384388205119,0.1748938964416724,1.5072767182090392,0.060120485540032235,0.6982904729285562,0.0
-0.11407268687128012,0.6900515616454866,0.16871120835493508,1.5069557224361736,0.0600018223906178,0.6983268925541088,0.0
-0.11278139022149203,0.6893794757585336,0.16306816867492857,1.5067001101334843,0.05989285041599622,0.6983418929919001,0.0
-0.11166682340085335,0.6888893390222914,0.158668162634695,1.5065291724018157,0.05980699304639518,0.6983393121450522,0.0
-0.1103363352307374,0.6881657914258605,0.1520171787022066,1.5062745063338743,0.059679991590145184,0.6983369356409271,0.0
-0.10943977471825478,0.6878547468028008,0.14882663636887705,1.5061854639840997,0.059617035428569734,0.6983178144880894,0.0
-0.1080446237238264,0.6870162096223054,0.14026197700087611,1.505925137379377,0.05945610149682343,0.6982864672597291,0.0
-0.10680347630230574,0.6866198167072628,0.13550719947104536,1.5058425821159815,0.059363159750153674,0.6982352721402926,0.0
-0.10536326819744322,0.686062663233146,0.12848732042395106,1.5057377816653525,0.05922924561363341,0.6981561336816253,0.0
-0.1039862978385699,0.6856471289396981,0.12257448805367491,1.5056924562991594,0.059115416355526404,0.6980678071227455,0.0
-0.10288922232698633,0.685389620389198,0.11851378139445304,1.5056821416839208,0.05903624256832022,0.6979959137932572,0.0
-0.10151176335498525,0.684992002897708,0.11179312395381928,1.505687837590129,0.058908955169701405,0.6978717798862435,0.0
-0.10014702271607638,0.6846798395649788,0.10564273178569819,1.5057336216067776,0.05879208129884873,0.6977384186816324,0.0
-0.09904397922036394,0.6844962533719706,0.10147486692852821,1.5057840140741785,0.05871178818119552,0.6976371429645227,0.0
-0.09804168201400958,0.6843457544559883,0.09768650128444262,1.5058417393449097,0.05863902777719867,0.6975398303286626,0.0
-0.09674172544154665,0.6841253861976728,0.09125416712172012,1.5059738566470542,0.0585190168586177,0.6973642962539256,0.0
-0.09641031415788166,0.6840955390369018,0.09026012164524573,1.5059946761607288,0.05849954425188145,0.6973353779198609,0.0
-0.09503723207883565,0.6838456045473174,0.07914249722788332,1.5063495667146576,0.05830029026050981,0.6969860125879427,0.0
-0.09348736804236561,0.6837857293826907,0.07350531746136349,1.5065655447110886,0.05819372791083593,0.6967813114694473,0.0
-0.09213100011831955,0.6837585718452422,0.06863289647478074,1.5067683353644648,0.05810206837840002,0.6965973130477703,0.0
-0.09064011060940545,0.6837681549815537,0.06225536771951717,1.507078016705378,0.05798497561175673,0.6963408299228306,0.0
-0.08925806748632979,0.6838114220862013,0.056713940220028625,1.5073702021667506,0.05788338953254625,0.6961068706429828,0.0
-0.08785370670684098,0.683900204788339,0.05073055043283382,1.507721926264099,0.05777518464494128,0.6958396802239113,0.0
-0.08656269865372179,0.6840061891801958,0.045578620587530864,1.508043488970242,0.05768219343588494,0.6956006142232332,0.0
-0.08533941732012397,0.6841332392850324,0.040717876921051166,1.5083671466672322,0.057595094733749304,0.6953663953899302,0.0
-0.08430255618349886,0.6842492371386322,0.0368566979543153,1.5086317262902045,0.057525947041405574,0.6951765192592192,0.0
-0.08334473510454786,0.6843714941927527,0.03327624360697845,1.508888171377365,0.057462252024673026,0.694995877455466,0.0
-0.08233740410520403,0.6845288911490609,0.029276333823296332,1.509194383850965,0.057391981746713484,0.6947864589142403,0.0
-0.08134357286148501,0.6847060408883909,0.025265977494140054,1.5095172997720336,0.057322136396324684,0.6945699878851004,0.0
-0.08032820669129768,0.68491472325689,0.021043847832522104,1.5098765554716185,0.05724936118279717,0.694334297346117,0.0
-0.07931782587422263,0.6851447496168221,0.016818573863496156,1.5102530306585453,0.057177152597712756,0.6940913743901184,0.0
-0.07835844913869157,0.6853750259466834,0.012897507713213152,1.5106139026899232,0.057110540617467266,0.6938609373175829,0.0
-0.07724692305772242,0.685709298109677,0.007836666913045773,1.5111184066792227,0.057026148175675535,0.6935484724163175,0.0
-0.0761855218488737,0.6860284244960579,0.0033117523547980367,1.5115804644808244,0.05695103282483291,0.6932638608562567,0.0
-0.07515160457816968,0.6863531325836579,-0.0010045315558596416,1.5120353681942909,0.056879944222382406,0.6929863292233176,0.0
-0.07418277896835945,0.6866625373601883,-0.004913544573513447,1.512456444054923,0.056815969790773684,0.6927310076335151,0.0
-0.07315626582663769,0.6870294187534179,-0.009233986966270254,1.512945082276752,0.056746208764913174,0.6924396081603885,0.0
-0.07215902687242799,0.6873967498953804,-0.013347617054774483,1.5134225591274746,0.0566803489870016,0.6921570206670357,0.0
-0.07121225031851852,0.687751651845884,-0.017157282608299972,1.5138739053321428,0.056619826575949356,0.6918914667385379,0.0
-0.07023675029161906,0.6881461672912906,-0.021172220781094958,1.5143675460306854,0.05655681317226228,0.6916044608339318,0.0
-0.0692945311845464,0.688535908319816,-0.02498406233571003,1.5148463176048355,0.05649751860594235,0.6913278245853518,0.0
-0.06832165239449782,0.6889668534851865,-0.02899945500239701,1.5153684119849502,0.05643583309972311,0.6910293694949069,0.0
-0.0673635916781851,0.6894032046992417,-0.03291139474227585,1.5158887249583102,0.05637635028750502,0.6907338866906669,0.0
-0.06635695597796316,0.689896451232824,-0.03712669784694518,1.516470011060198,0.05631314333379519,0.6904073296319402,0.0
-0.06537647599753428,0.6903810460569026,-0.04113310861143403,1.5170320733039728,0.05625367972309552,0.6900930646239112,0.0
-0.06439402070436516,0.6908832985171869,-0.04513703385388589,1.5176072854415308,0.05619496937349672,0.6897736456957123,0.0
-0.06340930919326711,0.6914030534712975,-0.04913825667212935,1.5181954404873401,0.05613702472523989,0.6894491837423202,0.0
-0.0622997957127237,0.6920640140588529,-0.05395285558682389,1.518939675776288,0.056068664318710625,0.6890444153236058,0.0
-0.06134806090264642,0.6925719805380588,-0.05763561301733596,1.5194980868472188,0.0560166261100353,0.6887390404506283,0.0
-0.059906682184194794,0.694148850100762,-0.06733190379570479,1.521288694277792,0.05588756517868319,0.6878086576793834,0.0
-0.05814849128249464,0.6954228121302951,-0.07515587351318798,1.5226660591603576,0.05578414794328517,0.6870828883541005,0.0
-0.05633483983767045,0.6966726043350087,-0.08258778041225646,1.5239847224393992,0.05568823823343105,0.6863898120977882,0.0
-0.05458328332012422,0.697799627406591,-0.08915366560695459,1.525144047816985,0.055605360949380386,0.6857806324261471,0.0
-0.05282701541829269,0.6989966000690009,-0.09582842132837618,1.5263631253023067,0.05552361273636294,0.6851462801438342,0.0
-0.05128853244794952,0.6999405949898233,-0.10108117717553182,1.5272978220816948,0.05546045690852141,0.6846580517988943,0.0
-0.04973234390615653,0.7009900867783715,-0.10666114279682451,1.528336397295447,0.05539535263929695,0.6841221405705651,0.0
-0.04820752594101932,0.7020559531026693,-0.1121517324695297,1.5293826533187442,0.055333050049925496,0.6835861303416618,0.0
-0.047084116628369796,0.7027280058684037,-0.11568750049200024,1.5300204186766526,0.05529340210183798,0.6832563694039625,0.0
-0.04553383037516285,0.7039862736688604,-0.12172569787882796,1.5312540294354495,0.05522851549019164,0.6826355264842492,0.0
-0.04401820712388261,0.7051744664666468,-0.12733550550883602,1.532400268759626,0.05516993405954083,0.6820599496040602,0.0
-0.042597203434344505,0.7062463145906377,-0.13233817389343255,1.5334176672966195,0.055119088157792824,0.681549851312826,0.0
-0.04099083951718788,0.7076526871492338,-0.13855592730248642,1.5347650186622828,0.05505839480143674,0.680883439750718,0.0
-0.04005298682719704,0.7082399864906967,-0.14133053345834234,1.5352937205383557,0.055031537235198456,0.6806166231127574,0.0
-0.03835945286171189,0.7099037026604655,-0.14827206886994057,1.5368835632919287,0.05496791491444937,0.6798405513024418,0.0
-0.03665272456199321,0.7114379729798308,-0.1546348625699903,1.5383166425209118,0.05491189114306503,0.6791411303203776,0.0
-0.03536784954363355,0.7123615301677986,-0.15861005908781067,1.539140532851645,0.05487776576604087,0.6787349862331371,0.0
-0.03351937737160463,0.7142959313955171,-0.16610597836975258,1.540950266233458,0.05481712127473859,0.6778652624488226,0.0
-0.03180782192516793,0.7157578165153746,-0.1718979407250394,1.5422637144349516,0.05477229065707492,0.6772306403589121,0.0
-0.030398006513853635,0.7168365458667025,-0.17622923757567713,1.5432048519065251,0.054740001524098476,0.6767747184281657,0.0
-0.028244926271254932,0.7197709338999222,-0.18642194651276728,1.5459571177320224,0.054670050996174155,0.6754817144890415,0.0
-0.026081953508422195,0.721633234618235,-0.19333366836536625,1.547573298269769,0.05462591970824232,0.6747126216449041,0.0
-0.02422660448129001,0.7230903750463041,-0.19879175789841388,1.548800232277699,0.054593207868632726,0.674128628397749,0.0
-0.022614382610716518,0.7243352245804761,-0.20342261215295385,1.549834149300554,0.05456698456035358,0.6736381269411855,0.0
-0.020928069484205444,0.7257699646543789,-0.20856080780506325,1.5510402636747664,0.0545396058168766,0.673071222217848,0.0
-0.019007721932065125,0.7276564231584964,-0.21498475774703907,1.5526553734554798,0.05450789434409484,0.6723202080369054,0.0
-0.017380221255141597,0.7290503550591853,-0.21983224516263833,1.5538050916480504,0.05448578559122582,0.6717847725659387,0.0
-0.015792614644103507,0.7304455380490107,-0.22459826677330597,1.5549524657402236,0.054465583423638934,0.6712531237044853,0.0
-0.014355821820296471,0.7316822806068128,-0.22880435976035132,1.5559566066385133,0.05444902668046918,0.6707891435970331,0.0
-0.012840026844698486,0.7330699951707019,-0.23340119563996026,1.5570903396139104,0.05443227419638788,0.6702684368249211,0.0
-0.011113887825010273,0.7348112174262624,-0.23896393623197232,1.558530182239565,0.05441384943706955,0.6696118757914625,0.0
-0.009555861001541686,0.7362633779844651,-0.24364387190343068,1.5597007709625816,0.054400032031334984,0.6690787928147705,0.0
-0.008044397333920787,0.7376701092077527,-0.24813521115405063,1.5608254369106742,0.054388170022764325,0.6685684612194235,0.0
-0.006333162353159387,0.7394015184753049,-0.2534882471600391,1.5622245269198862,0.05437572587322328,0.6679375397039652,0.0
-0.004755229644978322,0.7409036847346395,-0.25815734769785753,1.563411653665975,0.05436653852506875,0.6674033694396586,0.0
-0.003197403618045779,0.7423894743734107,-0.2627306007383669,1.564577098889433,0.05435897520682554,0.666880901904903,0.0
-0.0018358118107193223,0.7436244386743266,-0.2665534966203161,1.565526340707623,0.054353803619453064,0.6664562810558227,0.0
8.655019027763167e-05,0.7457613657152365,-0.2727633414756176,1.5672364775289553,0.054347085035295846,0.6656974556305639,0.0
0.001928884147004864,0.7476286875011874,-0.27825262016483787,1.5686861558907794,0.05434354152959791,0.6650558636377115,0.0
0.0035300995600836813,0.7491164277327829,-0.2826901698888828,1.5698054019825791,0.054342341219994615,0.6645617134128418,0.0
0.005395107273013731,0.7510168257898804,-0.2881671023817418,1.5712583808807752,0.05434246468818439,0.6639236838218068,0.0
0.007041554259941718,0.7525649250481614,-0.2926879131025637,1.5724062997091832,0.054344279555433715,0.6634211106547567,0.0
0.009317949999705193,0.7551930214163511,-0.2998805414143244,1.5744416858772627,0.054349225437027644,0.6625356588543087,0.0
0.01130305823136193,0.757092301984575,-0.30528205119435603,1.5758269765079544,0.05435584560443576,0.6619350574864363,0.0
0.013166610290053754,0.7588280556239961,-0.31021561579073825,1.5770705394203148,0.05436367583678204,0.6613982410403578,0.0
0.015400563904532157,0.7611523627332938,-0.3165597909577697,1.5787750222052175,0.054375659906087837,0.6606660106532024,0.0
0.017892709316044367,0.7638318060758346,-0.3237281244174054,1.5807357127984127,0.0543922633016103,0.6598279926611076,0.0
0.019529147140525803,0.7651850949239493,-0.32760846387290954,1.5816317505308033,0.05440344031567753,0.6594474692873646,0.0
0.02163108150980398,0.7671835376926962,-0.3330574040899741,1.5830132757351314,0.0544201740514722,0.6588625919993684,0.0
0.02343358789900845,0.7687909153439645,-0.33749465997687467,1.584088046638867,0.05443544569003965,0.6584100937191416,0.0
0.02556487577875094,0.7708706226288038,-0.34304055323323496,1.5855113990702383,0.05445587712221883,0.6578126966619416,0.0
0.028127472333168674,0.773598042203602,-0.3500693720247065,1.5874111184285324,0.05448406781078761,0.6570182358678209,0.0
0.030030842691542412,0.7752514664451979,-0.3545616385747072,1.5884664115744125,0.05450458346760214,0.6565814216371462,0.0
0.03244062207325511,0.7776195842452849,-0.3607088398999874,1.590037821144826,0.05453395033415535,0.6559318108080369,0.0
0.03454604277720467,0.7795216758554036,-0.36573801356411745,1.5912439600528108,0.05456013600380537,0.6554373314452203,0.0
0.03554190901833394,0.7802795172463365,-0.3678526086954694,1.5916814575711251,0.054571966373066376,0.6552603392493055,0.0
0.039011718337726216,0.7847344764375723,-0.37837885313229724,1.5948189013945737,0.05462926479967784,0.6539694992088182,0.0
0.04133357215273821,0.786542249382726,-0.3832876113129892,1.595839368950558,0.054661103439328444,0.6535621267685469,0.0
0.043304061124978276,0.7880764789967335,-0.38743339061924614,1.5966950803427438,0.05468902552488978,0.65322277580144,0.0
0.045279963211301275,0.7896828644070479,-0.3916881617751428,1.5976040969870775,0.05471844539677726,0.6528630262743496,0.0
0.04740624091514664,0.7915031963965564,-0.3964002829310678,1.5986525020098639,0.05475190114649063,0.6524486347429197,0.0
0.04907932970929645,0.7928659746931846,-0.39997233973978014,1.5994074414809425,0.05477828348183599,0.6521532626702604,0.0
0.05112064711025616,0.7946551150687797,-0.4045241567029844,1.6004303484733662,0.054812490861793794,0.651752206382654,0.0
0.05264174061672088,0.7959024087062297,-0.40775659553694765,1.6011097462283073,0.054837723875468404,0.6514890530493826,0.0
0.054909318394801926,0.7979946744189375,-0.4129416060663571,1.6023155364787274,0.054878589280514825,0.651018496451979,0.0
0.05730414085471001,0.8002031992085363,-0.4183821870186081,1.6035721492113186,0.05492302086587185,0.6505310149788148,0.0
0.05973462759506905,0.8024064443647584,-0.42380694443842604,1.6047978521242383,0.05496899529834895,0.6500593735333311,0.0
0.061887904901237564,0.8042573884757194,-0.4284211099470134,1.6057828859867553,0.055009613588324596,0.6496853133345823,0.0
0.06401460775097059,0.8060794429321493,-0.43294611300850805,1.6067388346605058,0.055050488305890856,0.6493247308046289,0.0
0.06741891606035995,0.8095088129302198,-0.44096798789303776,1.6086841103026353,0.05512364888476354,0.6485803347078615,0.0
0.06988089221018452,0.811511594226658,-0.44596391005834685,1.609662106147271,0.055172373539017903,0.648221162896156,0.0
0.07263312691241806,0.8138438663154767,-0.4516668835962847,1.6108176651834334,0.05522903132739835,0.6477967818462994,0.0
0.07469373582541207,0.8154588731008007,-0.45570883865812895,1.611559623048552,0.055270521959956964,0.6475314334159129,0.0
0.0774260689071638,0.8177808494233456,-0.461325841386224,1.6126806956303046,0.05532866205339236,0.6471257020409825,0.0
0.08132559978394813,0.8214677169189951,-0.46986654549474144,1.6145611263003883,0.05541832035391531,0.6464365432375748,0.0
0.08429279439047609,0.8238008272119614,-0.4755885188048997,1.6155709763788284,0.055481805074446236,0.6460873072194916,0.0
0.08741902728120511,0.8263106830304628,-0.4816627717843729,1.616656785709132,0.05555035843385885,0.6457135988684253,0.0
0.09033208383246073,0.8285981471106776,-0.48721355815586515,1.6176065440334004,0.05561438988996705,0.6453934299653276,0.0
0.09285084802362839,0.8305199271724443,-0.49190497999912236,1.618366782659363,0.05566956079258449,0.6451435323371577,0.0
0.09569607739369339,0.8327635620275298,-0.4972893001442768,1.6192690166745685,0.0557335064180409,0.6448459270046526,0.0
0.09785012762353769,0.8343739784108206,-0.5012155685780373,1.6198685270588113,0.05578106877210685,0.6446561188122675,0.0
0.1001724061610976,0.8361469814225184,-0.5054874899733531,1.6205341696693454,0.055833210057063196,0.6444451892234374,0.0
0.1027112197382296,0.8381188216217405,-0.5101883327597846,1.6212761936514206,0.05589109702346739,0.6442105583722527,0.0
0.10522262914615306,0.8400577066981512,-0.514801226497611,1.6219874803995766,0.05594858474962817,0.6439894129687247,0.0
0.10757653353551061,0.8418502894243554,-0.5190707849762323,1.622622442045368,0.0560024277609351,0.6437965122290267,0.0
0.11028482175238563,0.8439532041630929,-0.5240220913452363,1.6233714227468496,0.056065334854239965,0.6435689524603913,0.0
0.11208800228416352,0.8452712904597668,-0.5271862875241067,1.623796263092836,0.05610618616360322,0.6434482893285326,0.0
0.11482205091959137,0.8473846649088168,-0.5321342455854374,1.6245197148449035,0.05617010790489438,0.6432349577550668,0.0
0.11753882447329854,0.849457594921535,-0.5369898795160853,1.6252021228405729,0.05623353057300864,0.6430394776525684,0.0
0.12014506764579547,0.8514165294703672,-0.5415853051005963,1.6258195939601563,0.05629417143362969,0.6428685822754083,0.0
0.12360795410874077,0.8541114862794348,-0.5477951023176661,1.626691933631795,0.056376497935093,0.64262311033631,0.0
0.12672916998407088,0.856441007754355,-0.553220255269137,1.6273798807222402,0.05644948366808877,0.6424436065969517,0.0
0.12983314843668403,0.8587329750256156,-0.5585545633030364,1.6280265240296097,0.05652188128775753,0.6422822996053977,0.0
0.1343127230058842,0.8621991955329278,-0.566434872156648,1.6290509453207633,0.056629146698039604,0.6420165727294076,0.0
0.13723026894385548,0.8642442097908682,-0.5712367590455708,1.6295332814202999,0.05669583569158549,0.6419196525358114,0.0
0.14174960920134508,0.8676068223766038,-0.5789106654002533,1.6304010375303453,0.05680228070135624,0.6417247313595301,0.0
0.14477024903536295,0.8696952133768688,-0.5837870098183656,1.630838480779901,0.05687090784132294,0.6416536495415567,0.0
0.14754744525738064,0.8716141476696533,-0.5882502743807342,1.6312263201424853,0.056933894414419234,0.6415957235441276,0.0
0.1503284777115899,0.8735463366368015,-0.5927169739712006,1.6316098711848483,0.05699703516931704,0.6415412138516768,0.0
0.15429883376705505,0.8763992515641106,-0.5991958690916409,1.6322067522584651,0.057088540258118124,0.6414462114692655,0.0
0.15836453539481274,0.8792893597289165,-0.6057488072416146,1.6327663608562786,0.05718151926904417,0.6413723635856244,0.0
0.16141215969367145,0.8813877587611016,-0.610541101055832,1.6331162462214155,0.05724988762419255,0.6413466985597415,0.0
0.1655845875501521,0.8843340209109515,-0.6171718156126024,1.6336264180073237,0.05734434560939283,0.6413017420983576,0.0
0.16959542266941163,0.8871317474660123,-0.6234613841190437,1.6340640392146881,0.05743416680958314,0.6412822470404081,0.0
0.17440638089406532,0.8905161770226157,-0.6309998683739771,1.6345766655157115,0.057541782608243094,0.6412671059800605,0.0
0.17476457254674985,0.8910155110332535,-0.6318514472585975,1.634862114866232,0.057581363537343125,0.6415266424968598,0.0
0.17483341750566503,0.8915185902755031,-0.6325081288715187,1.6353165974858488,0.057635240123923855,0.6419425268126927,0.0
0.1747435012009494,0.8918897652432408,-0.6328942628122489,1.63575052359748,0.05768600430073917,0.6423825410725987,0.0
0.17465564283567597,0.8922370512661819,-0.6332526455235471,1.6361729632722253,0.05773634065228759,0.6428402142937294,0.0
0.17461752421699844,0.8924356534706576,-0.6334633404401332,1.6364246234377238,0.05776862468591676,0.64315427240802,0.0
0.17439059629013853,0.8930100492486678,-0.6340045343998145,1.6371728582396767,0.05785221118756078,0.6439485010314941,0.0
0.1744111246723929,0.8931053775799874,-0.6341290664583461,1.637290510619876,0.05787021574110913,0.6441457784361544,0.0
0.1744022990363971,0.8932886847479716,-0.6343362734818632,1.6375413297652923,0.05790567152666702,0.6445382028385922,0.0
0.17437126364904817,0.8934259475514705,-0.634472520533199,1.6377548624335465,0.057935733196291916,0.644886144712033,0.0
0.17431583451214594,0.8936016994756574,-0.6346359883553224,1.6380392167490236,0.05797462481541739,0.6453461175163226,0.0
0.17428371387647756,0.8937227461069697,-0.634750467656838,1.638243118869194,0.05800338225833501,0.6457008998454268,0.0
0.1741995133359017,0.8939538712991865,-0.634954570903477,1.6386402366963846,0.058056773439728586,0.6463703006707016,0.0
0.1741607096760063,0.8941330024395098,-0.6351250459452971,1.6389618319123906,0.05810245553426049,0.6469792231881074,0.0
0.1741253361966206,0.8942522366462629,-0.6352262972998977,1.6392098993441528,0.05813863199808752,0.6474914158435497,0.0
0.1740902333257637,0.8943557210259759,-0.635307595385201,1.6394454875555948,0.058173146232738,0.6480016820482842,0.0
0.17405891828285086,0.8944430260630131,-0.6353716211628851,1.639662048157031,0.05820501227818312,0.6484932120238697,0.0
0.1740289705853138,0.8945205827784058,-0.6354237400426489,1.6398719479159132,0.058235892278278495,0.6489892169548442,0.0
0.17399693817095618,0.8945973409025445,-0.6354699714074981,1.6400993339634915,0.05826921485528359,0.6495466702755234,0.0
0.17397141442651842,0.8946546850557784,-0.635499385844111,1.6402899318946635,0.058297059309538435,0.6500347789711124,0.0
0.17394379877008906,0.8947101928180321,-0.6355220189931302,1.6404949511109999,0.0583267090617702,0.6505761473398898,0.0
0.17391996714345526,0.8947531707856236,-0.63553409194594,1.6406735250741966,0.05835215716021265,0.6510624334764649,0.0
0.17389572816465101,0.8947925454236297,-0.6355401201091185,1.6408549841044606,0.05837755047246193,0.6515680593090808,0.0
0.17387055787045838,0.8948292895549348,-0.635540523096391,1.6410426287889162,0.05840320038588678,0.6521013904791532,0.0
0.1738486541741871,0.8948577977434412,-0.635536656642234,1.6412018505746786,0.0584242744142397,0.6525602138316491,0.0
0.1738212737551059,0.8948911648790866,-0.6355285047446805,1.641400828893369,0.05844982906999453,0.6531396019356925,0.0
0.17380172491662005,0.8949128047268795,-0.6355210087036146,1.6415354137473883,0.058466278842264394,0.6535323207306698,0.0
0.17375722796769685,0.8949615336576052,-0.6355029608742175,1.6418423958689057,0.058502538220850595,0.6544298317308453,0.0
0.1737307415913758,0.8949896915844276,-0.6354911370000332,1.642023706507789,0.058522209553035824,0.6549611111540563,0.0
0.17371012501387667,0.8950117601946397,-0.6354806445130162,1.6421718388667643,0.058537544034039,0.6553992147077752,0.0
0.17368612436190065,0.8950371311626688,-0.6354635198721021,1.6423655028591575,0.05855705478084694,0.6559858723617513,0.0
0.1736682193498373,0.8950525315008415,-0.6354469137298068,1.642503621721559,0.05857020919184009,0.6564102323985819,0.0
0.17365121389882915,0.8950657814347647,-0.6354244118654083,1.6426574090134678,0.05858449620125998,0.6568977263906304,0.0
0.17363669253110142,0.8950733599011524,-0.6353991069888089,1.6427918566021489,0.058596484199569296,0.6573351834065765,0.0
0.17362433304879718,0.895074027672273,-0.63535834069761,1.6429582419752522,0.05861117145086691,0.6579086673614983,0.0
0.17361349822873443,0.8950622526433051,-0.635300088859763,1.643126123246485,0.058625509517733085,0.6585232868045079,0.0
0.17360298956635495,0.8950445134826815,-0.6352398248774143,1.6432629629228692,0.058636439159368614,0.6590435026487352,0.0
0.17359544082242995,0.8950257923860103,-0.6351858374372265,1.6433707997067852,0.05864453135475066,0.6594673077339974,0.0
0.1735915163889345,0.8950024713108362,-0.6351291599957924,1.6434693402455698,0.05865168278247549,0.6598758778948985,0.0
0.17359156633390446,0.8949697158118479,-0.6350610726733081,1.6435677655192495,0.05865869599293458,0.6603155573794112,0.0
0.17359361888814928,0.8949285865105074,-0.6349832473266857,1.6436601002037567,0.05866504723516595,0.6607590941267837,0.0
0.17360235838042867,0.8948685358328206,-0.6348812114606066,1.6437551180188785,0.05867156063445915,0.6612734563446638,0.0
0.17360751406108105,0.8948062930814775,-0.6347770450601841,1.6438353386815037,0.05867657629166531,0.6617352920120558,0.0
0.17363010612659086,0.8947060989811767,-0.6346269502513555,1.6439191763242351,0.058682120079032396,0.6623391235479574,0.0
0.17364325848012016,0.8946016445565229,-0.634468173827154,1.6439892675260002,0.05868606665396259,0.6628906730354118,0.0
0.17365755908966576,0.8944975269884322,-0.6343130995952102,1.6440467425573988,0.058688784827706814,0.6633980086151448,0.0
0.17367945604637386,0.8943788145210638,-0.6341431448515231,1.6440943882564698,0.058690729918338486,0.6639212333577045,0.0
0.17370660125437687,0.8942429352292974,-0.6339533917820547,1.6441315066957458,0.05869184655610629,0.6644611393032095,0.0
0.17373701028090072,0.8940918797698448,-0.6337456748900714,1.6441576774098852,0.058692074441903656,0.6650077978716624,0.0
0.1737576427883085,0.8939594109142021,-0.6335607079895237,1.6441772644009243,0.058691517869977596,0.6654658205803452,0.0
0.17378894609660997,0.8938092311840259,-0.6333581836570326,1.6441862752254703,0.05869028533998549,0.6659501839819753,0.0
0.17382576713664968,0.8936419410242384,-0.6331360614306984,1.6441846722220264,0.05868832694926809,0.666451176221217,0.0
0.17387143412304032,0.8934466478581439,-0.6328810583633652,1.6441691540204577,0.05868548179211676,0.6669914402002307,0.0
0.17395956640330557,0.8931476705820526,-0.632508281357244,1.6441102964117673,0.05868067233596083,0.6677213546130416,0.0
0.17398169253312307,0.892940491744434,-0.6322245841754506,1.6440842619088138,0.05867638414023468,0.6682197062043056,0.0
0.17406762298654843,0.8926233458016491,-0.6318278644140548,1.6440048657173079,0.05866957674381588,0.6689215949594959,0.0
0.17413235330372376,0.8923048699482932,-0.631417389065739,1.6439232109518385,0.05866200452333051,0.669586300526153,0.0
0.17420393064376657,0.8919743817717225,-0.6309955989489264,1.6438287088176657,0.0586534356917567,0.6702479111812683,0.0
0.1742799127801617,0.8916305163046148,-0.6305590885111055,1.6437214590802212,0.058643924825859325,0.6709066946905317,0.0
0.1743631165338236,0.8912652886543053,-0.6300985458590799,1.6435977292962511,0.058633338119061656,0.6715751226470531,0.0
0.17444143974987866,0.8909026828429475,-0.6296394487558816,1.6434701807936896,0.05862228169056552,0.6722153012244603,0.0
0.1744687068724329,0.8906898951884797,-0.6293568266322109,1.6434062053657292,0.05861491135144832,0.672601100170951,0.0
0.17469346659343776,0.8900846836344075,-0.6286582634339799,1.6431202612828864,0.058597140619475116,0.6735525009946082,0.0
0.17471077134579618,0.8897408484090283,-0.6281885548565718,1.6430041077554942,0.05858577816406454,0.6740894858450983,0.0
0.17484414049877567,0.889218422297773,-0.6275463773495991,1.6427727369911125,0.058568747740225344,0.6748727692331207,0.0
0.1750551416364729,0.8884883851416355,-0.6266692145943706,1.6424154069202868,0.05854602764222761,0.6758832278445529,0.0
0.17513993693662275,0.8878945654457117,-0.6258982157624456,1.6421578556309893,0.05852611569812568,0.6766910002357576,0.0
0.17538800854639985,0.8870582727198199,-0.6248982451958547,1.6417257814547193,0.05849856988923775,0.677776019908161,0.0
0.17552934842698398,0.8862584325773171,-0.6238794622040893,1.64134186280302,0.05847151414459146,0.6787727168614002,0.0
0.17560302125709276,0.8857234740876705,-0.6231810336237779,1.641101484123174,0.058450704828773035,0.6794661977640332,0.0
0.17574865244594745,0.8851228444446156,-0.6224379090024313,1.6408008886370151,0.05842715229634898,0.6802298634036098,0.0
0.17583380498000428,0.8846618172030897,-0.6218493040693224,1.6405807649682502,0.05840820942824981,0.6808136621062569,0.0
0.17610118526628238,0.8838419761177675,-0.6208822021703226,1.6401199562885191,0.05837773712517457,0.681778196642216,0.0
0.17628613047249492,0.8829911004100697,-0.6198190556155798,1.6396667126742288,0.05834692114204684,0.6827292050797275,0.0
0.17644814660516425,0.8821971821458723,-0.6188182602587246,1.6392464485461042,0.05831698453561135,0.6836098314322483,0.0
0.17658735073241652,0.88149539235393,-0.6179290694348242,1.638876545436062,0.058289280928438075,0.6843876779859487,0.0
0.17687268616636265,0.880420249116963,-0.6166167762025397,1.6382586870975768,0.05825053902426801,0.6855037297322856,0.0
0.1769480902296071,0.8794453563662757,-0.6153070387766439,1.6377611778518137,0.05821620118485313,0.6864678998019439,0.0
0.17702534682830753,0.8786122707463391,-0.6141925828424561,1.637333517490063,0.05818478264407966,0.6873023182812935,0.0
0.17724804829754023,0.87746139878405,-0.6127283106262725,1.6366838819115481,0.05814326476336769,0.6884161825692356,0.0
0.17734885162666755,0.8763977232314919,-0.6113041632398305,1.636119261108668,0.058104749551578204,0.6894193376479572,0.0
0.17743941772430724,0.8754632169764768,-0.6100504202537532,1.6356236236947026,0.05806909116614998,0.6903056012412269,0.0
0.1775566500393163,0.8745292021013411,-0.6088122206906237,1.6351155254609597,0.0580328621941336,0.6911852838826702,0.0
0.17771511829569492,0.8734799146892928,-0.6074369202552353,1.6345277954782966,0.0579928762881017,0.6921522329632932,0.0
0.17778676722291056,0.8726340842997528,-0.6062888615161036,1.6340758071999248,0.057959530157064426,0.692928356654796,0.0
0.17794104602628527,0.8716196313448258,-0.6049546316821133,1.6335018833344586,0.057920203051090545,0.6938446095729114,0.0
0.17879180985225196,0.8690410379820515,-0.6018685460545836,1.6318025115435877,0.057839670469246304,0.6959744684814891,0.0
0.17842596765304825,0.8679688989102591,-0.6001082819105953,1.631375506871316,0.05780330284608225,0.6968282762920671,0.0
0.1784635843770545,0.8668492867546667,-0.5985318917778442,1.6307845979615323,0.057757364703846986,0.6978025487686746,0.0
0.17879420228673462,0.8652312368807719,-0.5964300428674315,1.6298121537847972,0.05769411586479985,0.6991801919877334,0.0
0.1788422054191949,0.8639475896079356,-0.5946174461952342,1.62911883829843,0.057643420985849646,0.7002498331396556,0.0
0.17960221153270428,0.8613138662468197,-0.5913249631173789,1.627408604645452,0.05755255079040047,0.7023467530548925,0.0
0.17928298291213288,0.8598653201893214,-0.5890224925974304,1.6267443788885876,0.057500414499424495,0.7034587545585126,0.0
0.17933433525959425,0.8587777567201277,-0.5874693476686201,1.626154665870482,0.05745088560652734,0.7043749949186112,0.0
0.1795889232900671,0.8573421210193232,-0.5855371757036831,1.6252973661286254,0.057388557786676266,0.705560895973421,0.0
0.1797521148607953,0.8556703080371617,-0.583197915846388,1.6243306426933715,0.05732306703111509,0.7068720355918533,0.0
0.17974919943360737,0.8540583909936266,-0.5808311164469875,1.623448630578731,0.05726244569719922,0.7080986061003239,0.0
0.17976008286651765,0.8524816483291209,-0.5785148861681914,1.622578433362903,0.05720227512501534,0.7092937705473398,0.0
0.17982528344035598,0.8507099659444374,-0.5759367821457406,1.6215748492693922,0.05713607040493553,0.7106189672510025,0.0
0.17976766945312933,0.8492167719635764,-0.5736802773947467,1.6207683742622099,0.05707902119570326,0.7117283829234506,0.0
0.17977289203716182,0.8477137807290914,-0.5714401802674127,1.6199327856634647,0.05702037585027931,0.7128471381056076,0.0
0.1800182863875425,0.8453783245105122,-0.5681028791145347,1.6185321601330396,0.05693743396117696,0.7145372708376758,0.0
0.1798051876305272,0.8435967541665205,-0.5652811215721754,1.6176018298422978,0.056874190594394344,0.7157965061170011,0.0
0.1797473061581254,0.841997168172838,-0.5628177699480934,1.6167247267298899,0.05681149348870498,0.7169572935284765,0.0
0.17967010039239015,0.8407750282912926,-0.5609044244917015,1.6160683385254697,0.056760522426490434,0.7178531142677995,0.0
0.1798170080798292,0.8388647709864769,-0.5580790009213177,1.6149389137088155,0.056686178715204864,0.7192309689855565,0.0
0.17972599648793616,0.8372008849582525,-0.5554633787910961,1.6140262477296463,0.05662286976875073,0.720406246442599,0.0
0.17971186514455784,0.8354284532760503,-0.5527161171878343,1.6130238090340119,0.056554557353240234,0.7216591818890353,0.0
0.1796560485031865,0.8337391630887732,-0.5500559263903406,1.612080816135588,0.05648896747879232,0.7228471020203598,0.0
0.17955001862074363,0.8319671637624692,-0.5472218316003054,1.6111018786472378,0.05642250928109034,0.7240739976142184,0.0
0.17932153236542528,0.8305091845041995,-0.5447866208217472,1.6103411173839832,0.0563679817713935,0.7250718742759089,0.0
0.17913795392462284,0.8290065846767029,-0.5422989997530139,1.6095378078132432,0.05631131825189345,0.7261005349215411,0.0
0.17899865770544987,0.8271044574307472,-0.5391967600442222,1.6084830594509467,0.056242944631148484,0.7273871108826382,0.0
0.17873825500695056,0.8252760169681157,-0.5361156383179108,1.607505910372399,0.05617882256782979,0.7286065411926685,0.0
0.17851395531378061,0.8231199561181546,-0.5325146192238946,1.6063208807399696,0.056104906477078546,0.7300353601445059,0.0
0.17815918901775718,0.8213412503242555,-0.5294123065539014,1.6053964351803767,0.05604253953128175,0.7312079089499252,0.0
0.17788222429849646,0.8194983916867464,-0.5262362899731453,1.6044083214026343,0.055975911638521315,0.7324300594528159,0.0
0.17760841598976637,0.8175237440122839,-0.5228268028370887,1.6033381760100778,0.05590525138634064,0.7337331614397937,0.0
0.1773018424563948,0.8154088746561587,-0.5191419351382596,1.6021912108268817,0.05583105427031596,0.7351179281101932,0.0
0.17692567481397167,0.8135269226557301,-0.5157708553937477,1.6012009554550208,0.05576366032467208,0.7363469407222293,0.0
0.17660953938672672,0.8114490237396008,-0.5120870303607421,1.6000736130315532,0.05568885461228057,0.7377050195676802,0.0
0.17629224380499478,0.8086967987223523,-0.5072384161194459,1.5985374535879637,0.055597515029430736,0.7394753697053481,0.0
0.17544325263818328,0.8065650182738834,-0.5030589310209972,1.5975204026993786,0.055532976256751194,0.7407991780293653,0.0
0.17483772194391803,0.8049078957755152,-0.4998155823381746,1.5967157745373135,0.0554747800756658,0.7418542439630558,0.0
0.17434356573676832,0.8033797824518928,-0.4968465811549222,1.5959541027490096,0.05541812150139096,0.7428370116363551,0.0
0.17388289032718268,0.8011449673861031,-0.4926503221904892,1.5947543233670975,0.05534070912611174,0.7442637214224823,0.0
0.17319536238966135,0.798254461056969,-0.48712075242044034,1.5932131479474432,0.05525362977102144,0.7460617595084532,0.0
0.17220061313962962,0.7958388584845754,-0.48217354841217075,1.5920389065863487,0.05518220357568589,0.7475431103719967,0.0
0.17153548313709385,0.7944823857247101,-0.4792950388663365,1.5914128443550835,0.055132737839718345,0.7483970717646807,0.0
0.17095538696262533,0.7923907205411047,-0.4751186044280898,1.5903173070336243,0.0550572979080957,0.7497245940714218,0.0
0.17023551095817566,0.7901280512662022,-0.4705034745335327,1.5891496569086114,0.05498120609848407,0.7511397284064748,0.0
0.16944288094485885,0.7881086250852918,-0.46624671667878437,1.5881445587149494,0.05491316346256174,0.7523963232203762,0.0
0.16867699376688564,0.7853572941999782,-0.46059739758963597,1.586680426302823,0.054824873382200275,0.7541046524084837,0.0
0.16778015939341015,0.7838140379429187,-0.45708637167511074,1.5859824240351967,0.05477315146700987,0.7550527661283362,0.0
0.16710012033908048,0.7802496827827513,-0.44981468500437977,1.5839857969664646,0.05466408372091368,0.7572576774414935,0.0
0.16556426839644012,0.7781325525572793,-0.44469160982282463,1.5830853373696376,0.05460708382011419,0.758513723807144,0.0
0.1646780249185888,0.7764565362763806,-0.44079603183917027,1.5822931643331193,0.05454311131053533,0.7595622738209359,0.0
0.1638928763279923,0.7739412941240725,-0.43525279960777924,1.5809582292092303,0.05445099979295844,0.7611409976124289,0.0
0.1628959827003029,0.7722709148970203,-0.4312187803510279,1.580186405245011,0.05439134082543221,0.7621715596705542,0.0
0.16201197247633664,0.7695635579427154,-0.4250917551774209,1.578746816749089,0.05429732487503242,0.7638554338186745,0.0
0.1605690810436991,0.7661365397659788,-0.41701593368401646,1.5769831733105653,0.05420234757086791,0.7659257657986972,0.0
0.1588021572441875,0.7635372259179749,-0.4103273871361498,1.5757977167306105,0.054127957512509504,0.7674853674034373,0.0
0.1574720108144811,0.7603106872165769,-0.4024372176798297,1.5741202845973976,0.054021525983051724,0.7694731128027207,0.0
0.1558932270889128,0.7584731376747337,-0.3973241051149226,1.573347244271618,0.05395951291302759,0.7705885174537989,0.0
0.1547238268407792,0.7556739366016438,-0.3902277074952434,1.5718898519925304,0.053853758157082675,0.7723388970210018,0.0
0.15335953731554458,0.7541384098439126,-0.3858004438866835,1.571244745383188,0.05379670069964917,0.7732809188681989,0.0
0.15232073333045976,0.7524900998814497,-0.3812653112049876,1.5704611155900552,0.05372422899817227,0.7743221572140595,0.0
0.15125212757495018,0.7504267216211336,-0.37567369977854725,1.5694243698020955,0.05363926447280163,0.775620219498878,0.0
0.15001175875901943,0.748626263473947,-0.37052658222911566,1.568578525580484,0.0535702810377657,0.7767376972855933,0.0
0.14881303469113627,0.7467708003638523,-0.3651990898098635,1.567686869982746,0.0534980085896977,0.7778937049051289,0.0
0.14763108547530376,0.7451364189097119,-0.3603571676188908,1.566923729318019,0.053433906770161764,0.7789109192293753,0.0
0.14629784659760373,0.7425275995484635,-0.35287898567771553,1.5655856793721976,0.053343901533562665,0.7805266956968354,0.0
0.1445788958935499,0.7408004367934905,-0.34728487265680846,1.5648559232109203,0.0532912785177299,0.7815720857833895,0.0
0.14316242154238457,0.7389867395785716,-0.34155910942522233,1.5640152381206576,0.05322274915779501,0.7826995381989069,0.0
0.14116680447669414,0.7371250811244254,-0.3352625917953342,1.5632372375391,0.053176999214568935,0.7838117302898105,0.0
0.13897305381788325,0.7354888406163788,-0.32936461648909954,1.5626248272997907,0.05316542138378405,0.7847833641363657,0.0
0.13669819575934783,0.7337001077215154,-0.3228905254072356,1.5619309039936664,0.05317270677409037,0.7858778145764946,0.0
0.1346916854684026,0.7321502727540491,-0.3171463346047559,1.5613412805386913,0.05320847463902072,0.7868781010856446,0.0
0.13247227493501496,0.7302208789902535,-0.3100441678456133,1.5605642546547565,0.05329150664521537,0.7881770728629128,0.0
0.13066469952104434,0.7287086002572477,-0.30428196491060744,1.559989254946201,0.05342142211681486,0.7892999169341638,0.0
0.1284995912155741,0.7260548910591408,-0.29459998749752886,1.558830041009935,0.05373375444286882,0.7913617826108181,0.0
0.12719221663949698,0.7249266091336306,-0.2901393791021954,1.558337625011275,0.054043670883402374,0.7920363025195695,0.0
0.12582219997960553,0.7235765717223568,-0.28492293927629664,1.557653389343887,0.0544207503633493,0.7926329477696636,0.0
0.12423243845834314,0.7215397841632324,-0.2772060989912292,1.5565514382889711,0.054969298401951756,0.7935540271662548,0.0
0.12251652519551784,0.7193554045514525,-0.2686496241185285,1.5553744141555896,0.05558094055819048,0.7945463788490484,0.0
0.12065390822900225,0.7170266445605219,-0.2591509765554418,1.5541297191193404,0.05626438413850813,0.7956090886334095,0.0
0.11885613289852776,0.7155269489597258,-0.2523890102207787,1.5534088547443696,0.056768920313069585,0.7962802322835607,0.0
0.11696610979697485,0.7135687925735618,-0.24359869142021728,1.5524111559960327,0.05741548790918051,0.7971761074230793,0.0
0.11508990364758359,0.7119546795085708,-0.23584391722001266,1.5516316144119986,0.057996354874499056,0.7979118333977334,0.0
0.11333783829294364,0.7106120184282503,-0.22904194755972976,1.5510072992930777,0.0585122012466641,0.7985243916962771,0.0
0.11155042110155601,0.7090935225897345,-0.22121474309601094,1.5502831251723708,0.05910198320066858,0.799227445757088,0.0
0.10975808568558769,0.7076483134567902,-0.2133901209281222,1.5496104381082672,0.05969521376773229,0.7999003012107562,0.0
0.10788939052977087,0.7060119690324911,-0.20421930971781158,1.5488432795231055,0.06038730526274928,0.8006720131353716,0.0
0.10589570273539783,0.704205497301584,-0.19350461172010228,1.5480114216688934,0.06119522614587382,0.8015329465102825,0.0
0.10433130434253905,0.7035423366732753,-0.18878164543352832,1.5477885395379574,0.06157538918605848,0.8018399839205265,0.0
0.10276262955436578,0.7027799501905259,-0.18335931487695098,1.5475137768481235,0.062005850124254525,0.8022002904935237,0.0
0.10130705011546516,0.7020584657649948,-0.17808170603212897,1.5472543346285996,0.06242385981572816,0.8025456053196767,0.0
0.09963742526411272,0.7009578399745808,-0.1700422291882271,1.5468247946097085,0.06304510523978818,0.8030843135332753,0.0
0.09822101575180142,0.7003243181258486,-0.1648531579913552,1.5466216181094028,0.06345872663308735,0.8033939819846672,0.0
0.09666748511657158,0.6995039933692868,-0.15801437918558733,1.5463479350421236,0.06399524246311654,0.8038022154496297,0.0
0.09499156813954743,0.6984933399270219,-0.14916090726021883,1.5460178784085847,0.06468141772625163,0.8043137748452865,0.0
0.09318000307226965,0.69756736934758,-0.1400681093259668,1.545769862096628,0.06539213516317098,0.8047889375600492,0.0
0.0917614605574155,0.6971624686935266,-0.13535956317069817,1.545711584397633,0.06577732253717265,0.8049995303023716,0.0
0.09036531856193852,0.6967418032355244,-0.13028134878435377,1.5456548801242234,0.06618914280366224,0.8052226194382541,0.0
0.0890903706298875,0.6963748759017965,-0.12557504084637824,1.5456174135518586,0.06657092340086085,0.8054211430218852,0.0
0.0878112982590633,0.6960023918362748,-0.12052082150296213,1.5455903207629937,0.06697868163178963,0.8056267655001124,0.0
0.08633904510102103,0.6955001039503791,-0.11327617421237635,1.545568883996633,0.06755234451042984,0.8059100499456268,0.0
0.08484156255448959,0.6950888708260684,-0.1064082169035751,1.5456004130317527,0.06810090848695954,0.8061507644214676,0.0
0.08322666267208181,0.6946531909905053,-0.09799437606780974,1.5456904501512343,0.06876715898811267,0.8064167057458556,0.0
0.08162584532594302,0.6943769875650915,-0.09121931265170823,1.5458221320760621,0.0693149154045809,0.8065998668079115,0.0
0.08001236383307082,0.6941415593432834,-0.0841054442379983,1.546001473685246,0.06988882151621961,0.806770020290851,0.0
0.07826702191819784,0.6939029612876103,-0.07416691365237926,1.5463266682353276,0.07067505932376247,0.8069662258276356,0.0
0.0764495194429161,0.6938141894236501,-0.06676296374078486,1.546633525515945,0.07127918577361132,0.8070789347562588,0.0
0.0747380099128767,0.6937850153225211,-0.05997912225653209,1.5469516572408188,0.07183491491128828,0.8071630851366904,0.0
0.07359686972287381,0.6937862439272331,-0.05635938640939941,1.5471268342230085,0.07213928388928162,0.8072059446164963,0.0
0.07200334677833425,0.6938388803058385,-0.04924732293980234,1.5475263278732871,0.07271606097713579,0.8072601202671764,0.0
0.07084476882253292,0.6938875891317908,-0.04529355649726573,1.547753952075408,0.07304599543310429,0.8072881385644161,0.0
0.06960454127316477,0.6939704410763857,-0.04058861276904325,1.5480475579096247,0.07343416641349863,0.8073096807700062,0.0
0.06855500320176877,0.6940533871053121,-0.03678051120010773,1.5482947103227611,0.07374997260143322,0.8073225635097301,0.0
0.06751568532093569,0.6941568658197438,-0.032847745476271985,1.5485646651240246,0.07407472354623583,0.8073283897502128,0.0
0.06646409226871235,0.6942864092258316,-0.028692122247628026,1.5488668390211198,0.07441640884618508,0.8073259042129974,0.0
0.06538030598244864,0.6944497749072628,-0.024213419609165426,1.5492126092489604,0.07478308518518743,0.8073129242321431,0.0
0.06440329297576637,0.694607022344875,-0.020349334896487704,1.5495210671660322,0.0751008626933769,0.8072968087820444,0.0
0.06351062506218008,0.6947612731566145,-0.016883928397395765,1.5498065977476077,0.0753864099880248,0.8072780200769386,0.0
0.06246639241502846,0.6949883853152282,-0.012376146668965915,1.5502043620122037,0.07575400652743952,0.8072398901685993,0.0
0.061420369911341574,0.6952387745922789,-0.007871461373585676,1.550619728277189,0.07612141350304558,0.8071928008506857,0.0
0.06038750596278768,0.6955050963140007,-0.0034742948318336967,1.551041269703935,0.07648039451861006,0.8071388279524526,0.0
0.0593699711157968,0.6957858077510654,0.0008172952026837066,1.5514679496969572,0.07683100188436812,0.8070785945631692,0.0
0.05841843644980678,0.6960552095148034,0.004695245541161918,1.551863282625512,0.07714878706762099,0.8070195102655139,0.0
0.057336256167895484,0.6964212796848911,0.009514198701200072,1.5523852811840064,0.07754031572229991,0.8069303110566192,0.0
0.05633156356641968,0.6967556373019809,0.013695459912901213,1.5528463847399177,0.07788202987885569,0.8068492337934842,0.0
0.0551625359870968,0.6972324749998271,0.01913887169809493,1.5534889084061287,0.07832221060187193,0.8067219726602644,0.0
0.054380209976352525,0.6974804284682218,0.021985969865426818,1.5538104663306729,0.07855781296989338,0.8066636887156438,0.0
0.053139148170660774,0.69807990022471,0.02806560560524258,1.554585110829628,0.0790468965027618,0.8064931020039424,0.0
0.05195409026484996,0.6986001714080787,0.033139823402262215,1.5552352041641209,0.07945952648587129,0.8063498885622531,0.0
0.05091888584098108,0.6990245536360847,0.03717178563916665,1.5557515815446383,0.0797901249448769,0.8062370316483818,0.0
0.04976713573998366,0.6995709950610848,0.042037411338944036,1.556409266707222,0.08018569557149778,0.8060834002995717,0.0
0.048490927298824926,0.7002696105865581,0.04784555524663387,1.5572389453729711,0.08065432602028892,0.8058775580072379,0.0
0.047840074226884036,0.7005145945215678,0.0499817997572763,1.5575169259652462,0.08083221692891163,0.8058168059537033,0.0
0.04653799974947456,0.7012960434006363,0.055997713583208666,1.558422346040248,0.08131621418477274,0.8055814202505951,0.0
0.0454236007122975,0.7018589499853694,0.06030663910370242,1.559054495558866,0.0816680969969275,0.8054226470601606,0.0
0.04420822890669826,0.7025540928429418,0.06534418140083262,1.5598303290827358,0.08207631983868527,0.8052186835974913,0.0
0.0431150647600828,0.70314568551179,0.06955202008215425,1.5604775284240986,0.08241928879619939,0.8050498674038372,0.0
0.04191754163120872,0.703875547752443,0.07448520796572122,1.5612726268129673,0.08281832147735024,0.8048338691502707,0.0
0.04061479184544968,0.7047562074582034,0.08014219623265728,1.5622253169216738,0.0832730832739735,0.8045660069079006,0.0
0.039257512433578105,0.7057022760775012,0.08598414998107372,1.5632352968848002,0.08374227025596583,0.8042773174151938,0.0
0.037940734650301525,0.7065794309421505,0.09127802751512769,1.5641542522568932,0.08416928467515326,0.8040154775626017,0.0
0.03657388138693266,0.7075446550976767,0.09687665875639312,1.565156859079006,0.08461930541720397,0.803724080159617,0.0
0.03520599683045872,0.708518007310135,0.10235703165128944,1.5661549288456094,0.08505985612578909,0.8034319215968578,0.0
0.033957558080651234,0.7093544871931947,0.10700819573791648,1.5669967920338177,0.0854356195963971,0.8031883795924006,0.0
0.03254776055326368,0.7104534748390714,0.1127982569421605,1.5681069182303446,0.08589829933705258,0.8028541492220947,0.0
0.03154716747527487,0.7110716653888923,0.11614682974546658,1.5687083671620026,0.08617073663409495,0.8026836808395051,0.0
0.030056022911708724,0.7123964548673465,0.12267613429256395,1.5700363738145857,0.08668776756612823,0.8022706339339007,0.0
0.02877733837609963,0.7133209990113836,0.12729900969543118,1.5709323277790375,0.08705930721295142,0.80200373617885,0.0
0.02752787899622917,0.7142489719992298,0.13182938798052463,1.5718256675912563,0.08742260116773806,0.8017356862372329,0.0
0.026442582562186286,0.7150198056170438,0.13556916028305124,1.5725568389195508,0.08772346078245338,0.8015190939972977,0.0
0.02518335396857774,0.7160443622778726,0.14032074414016021,1.5735370868161531,0.0881016766082191,0.8012181456480332,0.0
0.023973566772773996,0.7170176468988234,0.14476586767378025,1.5744585393708386,0.08845563431422705,0.8009359388876127,0.0
0.022921397023846032,0.717819395885036,0.14841584887249415,1.575206010732866,0.08874733730497783,0.8007104226720316,0.0
0.021381976386691284,0.7194818067140947,0.1553559062696402,1.5768054734974164,0.08928808777345403,0.8001889580755026,0.0
0.01977366171291574,0.7210640336334474,0.16189512764751832,1.578296250520729,0.08980016247882766,0.7997097562089698,0.0
0.01815188724904316,0.7225795432680908,0.16807844302767774,1.5797000395782816,0.09028548485474405,0.799263059133052,0.0
0.01642938824055888,0.7242673375732218,0.17475485841244465,1.5812558072724563,0.09080701505525299,0.7987629734676785,0.0
0.015032853981752907,0.7253823668143676,0.17928039071399096,1.5822436687175099,0.09116539449967132,0.7984621923409451,0.0
0.013700583748335129,0.7264736436351195,0.183626993537017,1.583206474666102,0.09150854826728937,0.7981677692536111,0.0
0.01244966651849362,0.7275096523650162,0.18769351453637506,1.5841150526892875,0.0918289670013548,0.7978898988268783,0.0
0.011110743002184956,0.7287099223475383,0.19226366458791921,1.585173143860985,0.09218651823531036,0.7975597192444169,0.0
0.009836278153108587,0.7298461816929552,0.19654074146411082,1.5861662259946994,0.09252084487604631,0.797251115412003,0.0
0.008788938272941197,0.7307213709166451,0.1998503226532489,1.586917522101638,0.09278050785635429,0.7970229096732966,0.0
0.007597475964895415,0.7318121672942719,0.20384868186198632,1.587862726642426,0.09309173265434778,0.7967284998313469,0.0
0.006387817506491908,0.7329495741498472,0.20794734151096292,1.5888459302528501,0.09340972929363435,0.7964207210409856,0.0
0.005038468822430307,0.7343172970042281,0.2127377723971472,1.5900339258380785,0.09377886447848553,0.7960421842689619,0.0
0.003772571242943349,0.7355435781009186,0.21702206807903016,1.5910836004946334,0.09410952360662785,0.7957125663371227,0.0
0.002482409393534957,0.7368167717375628,0.22140213773241904,1.5921691760775392,0.09444659702523535,0.7953708540073376,0.0
0.001125272539876275,0.7382004205217582,0.2260734125737112,1.5933468746929391,0.09480464741522057,0.7949978484174136,0.0
-0.00016227595348813776,0.7394698855130859,0.23034244569612072,1.5944135222629587,0.09513206728900796,0.7946642169273183,0.0
-0.0013882087400684006,0.7406593919807519,0.23431700828864624,1.5954033970599086,0.0954367512900967,0.7943571284773026,0.0
