fotiskoutsikos/xarm7_motion_planning/scripts/logs/2025-04-25_11-20-14/joint_angles.csv
j1,j2,j3,j4,j5,j6,j7
-0.21355376577526997,0.7000358607215498,0.6158098574394071,1.570771793067001,0.20010463932970257,0.8708075820981769,-1.3958546075443223e-05
-0.16645387508880738,0.7000357204605709,0.5687101196011675,1.570771303111778,0.1530051678527915,0.870808646163792,-1.3079442397589958e-05
-0.0007141425138783575,0.7001487211733135,0.3803109810471579,1.5710218528086246,0.0008005274026601228,0.8707521903708422,-9.437373501341995e-06
-0.0014955968330276903,0.7002448249893751,0.12911285788231375,1.571170554086181,0.0012815131973109573,0.8707156294516754,-8.366991302466431e-06
-0.002404620639380184,0.7003789194085615,0.016494037741423995,1.571351746188058,0.0018688975013780862,0.8706683479094259,-8.601354426041041e-06
-0.00351844722272876,0.7006376150881293,0.024759337395284575,1.5716551350054928,0.002796952281572729,0.8705793357891052,-8.577426603650906e-06
-0.004901300726174007,0.7010059842790266,0.03373995749506076,1.572029137721895,0.0038130189379614876,0.8704530781986755,-8.55434570112834e-06
-0.006370735207686273,0.701325615030302,0.04017102996677213,1.5723198948669257,0.004562971984666042,0.8703496364681129,-8.464653435069636e-06
-0.007529605768706205,0.7015541690207723,0.044386751829701865,1.5725146411707822,0.005063460777096296,0.8702800105590685,-8.455852060329505e-06
-0.009076372027749358,0.7020877792100606,0.05298819310317526,1.5729803441369175,0.00604549457761383,0.8700956532976338,-8.43984255460839e-06
-0.01058331734036333,0.7025170294668515,0.05914838506748321,1.5733337637249694,0.006766596767475264,0.8699533529746768,-8.365758883854824e-06
-0.011940061063202556,0.7029086170839829,0.06437348862016368,1.5736483503884902,0.007381702171984195,0.8698253501407756,-8.358215299431038e-06
-0.013573460472823484,0.7037194958529955,0.07383662537134317,1.5743275921640647,0.008456400407977682,0.8695292893943352,-8.483337112785705e-06
-0.014199576424741345,0.7038638672973292,0.07555089905538637,1.5744323676177876,0.008666300077665667,0.8694875091287635,-8.410903199695952e-06
-0.015877924299456225,0.7052149311901479,0.0886133782922105,1.5755801874864321,0.010119789706261706,0.8689590231845985,-8.473135451048108e-06
-0.017797045629589725,0.7058630117539453,0.09465954347944994,1.5760689517713455,0.010843860340699507,0.8687427196168178,-8.470837624230398e-06
-0.019438363439602035,0.7064629708899464,0.09999575800242155,1.5765192570315296,0.011479626741585314,0.868542652500107,-8.46984675018092e-06
-0.021035380223406897,0.7071476035444935,0.1057198965454873,1.5770403218802835,0.012153244862167512,0.8683075520620429,-8.47012337157338e-06
-0.02250527258954005,0.7078200259045282,0.11107887406598405,1.577550752350274,0.012781865432565986,0.8680759970781091,-8.471459485015487e-06
-0.02403931762208522,0.7086558026837535,0.11732199864744874,1.5781957162000628,0.013505065625635915,0.8677786468801232,-8.474684380033182e-06
-0.025414064581405604,0.7093761181713862,0.12252318559806596,1.5787418893600957,0.01411097217224988,0.8675276325569161,-8.478339840856108e-06
-0.026691708425771843,0.7100681347700819,0.1273345927117333,1.57926387491022,0.014670722743610476,0.867286993497923,-8.351135079465166e-06
-0.028231936624823817,0.7112226384981613,0.13473960245538397,1.5801696662724858,0.015512130799030466,0.8668589911765743,-8.360429024634186e-06
-0.029089417220046876,0.7116280501929442,0.13743532863474517,1.5804611064486123,0.0158310579959009,0.8667268099883882,-8.364095257284987e-06
-0.030626017002274963,0.7128466793586901,0.14472355193066466,1.5814120152475564,0.016657862056481676,0.8662754945050004,-8.506728438106848e-06
-0.03195577937812999,0.7136886220880063,0.1497241466233259,1.5820413790887065,0.01723589336478959,0.8659813799950333,-8.515414805287946e-06
-0.03360660707176688,0.7152979474871364,0.1584337190337557,1.5833088797685395,0.01821154910582301,0.8653717355957014,-8.534407984761572e-06
-0.034990890448538536,0.7161751458657264,0.16327232781465728,1.583950785130054,0.018772153692487414,0.8650717270904584,-8.4084060887335e-06
-0.03650363102320142,0.7173251902097615,0.16929029408128393,1.5848138374005378,0.01945967864305409,0.8646635705587196,-8.5039321779945e-06
-0.037705831467702566,0.718123800137989,0.17345880181596218,1.5853936673704778,0.019941155398203847,0.8643927901121637,-8.562077994156425e-06
-0.03885604337631321,0.7189290414026335,0.17755201244772323,1.5859802048763134,0.02041201865828768,0.8641183856252779,-8.572995143119044e-06
-0.03998099847188907,0.7197600663349055,0.18166519228210287,1.5865878340610715,0.02088310604887056,0.863833335597489,-8.585183966403065e-06
-0.04120715382432927,0.7207778710943247,0.1865121932317999,1.5873424605336037,0.021432873736446645,0.8634762575176529,-8.475818888520337e-06
-0.04253230201819935,0.721993829541824,0.19209479740809776,1.5882538216741926,0.022061570126219898,0.8630427544900661,-8.619528932385379e-06
-0.04381566417591731,0.7231380634674895,0.19724446448894017,1.5891010864127768,0.02264231900725644,0.8626408249510753,-8.514455250185904e-06
-0.04527185967923142,0.7246552964667297,0.20376767935800721,1.590245424066402,0.02336970434334873,0.8620931447261109,-8.663160478761256e-06
-0.046599471974698936,0.7258487438451668,0.20888177846023392,1.5911179033814333,0.023945662129511547,0.8616803736763714,-8.561579825538956e-06
-0.04808914124986252,0.7274036930382843,0.21526076163325492,1.5922761248468298,0.024656153243504342,0.8611278538877452,-8.669419016449353e-06
-0.04931662043724394,0.7284614659347319,0.21964124188668688,1.5930325380293224,0.02515074072177903,0.860773211426161,-8.688926945943365e-06
-0.05048684681372162,0.7294934208865866,0.22383463823027494,1.5937695233114368,0.025622913379040213,0.8604276837923619,-8.748201977049064e-06
-0.051748183542159154,0.730716693262762,0.228652089705216,1.5946537728572556,0.026161068151991707,0.8600107192649462,-8.770952725889458e-06
-0.05302374363307916,0.7319944139347063,0.2335741762278074,1.5955772365272018,0.02670909787455855,0.859575064254976,-8.794870083761452e-06
-0.05447649854761494,0.7336629811950486,0.23974706363507714,1.5968033840505242,0.02738863148788262,0.8589913429448517,-8.709326738021161e-06
-0.05573551361388773,0.7348937282761296,0.24433510372411682,1.5976770222001946,0.02789936058316833,0.8585821380573382,-8.734086221373616e-06
-0.05702064729080458,0.7362101588001568,0.24913448874141242,1.5986148065316108,0.028431338478383417,0.8581423289750365,-8.876602273666379e-06
-0.058402286354101385,0.7377412220010546,0.2545525405321065,1.599713859467803,0.029027228995490262,0.8576241420607165,-8.79204751758067e-06
-0.05987430538411065,0.7394593313911981,0.26047883266995164,1.6009510705712042,0.029675864661401263,0.8570399393908206,-8.827387743437498e-06
-0.06146004159816432,0.7414047041111695,0.26701046419940155,1.602354457545995,0.03038704734960529,0.8563762494343079,-8.882445888147572e-06
-0.06280016254307252,0.7427676312966449,0.2716543723041003,1.6032963542841907,0.03089891223748875,0.8559399465183599,-8.911827026558683e-06
-0.06440458932249626,0.7447381644909594,0.2780567596727721,1.604700504947525,0.03159366511043782,0.8552794290981574,-8.952826851427176e-06
-0.0659434177184135,0.74648310277429,0.28370381303691694,1.6059165103998403,0.03220881185421298,0.8547134618639802,-8.986693965873371e-06
-0.0675532681915012,0.748399420131312,0.2897581422211948,1.6072553739272388,0.032864723186454725,0.8540894050247898,-9.020278462834597e-06
-0.0688684780162605,0.7497486524083943,0.29407869876362636,1.6081615877692963,0.03333721010379165,0.8536755865757932,-9.046331151729703e-06
-0.070671347088191,0.7523067581388769,0.3017111803161088,1.6099835295283,0.03415100759376344,0.8528180608412752,-9.129176589794952e-06
-0.07210098020630795,0.7537848029994425,0.3062947015375359,1.610961903013683,0.03464979425681047,0.8523745322103728,-9.161983305361332e-06
-0.07362669671368938,0.7555105927878429,0.31149656304356466,1.6121218798315446,0.03521116318114448,0.8518447505361193,-9.266225642790005e-06
-0.07528829661220193,0.7575686040974778,0.3175161032197389,1.6135227624354407,0.03585484701596009,0.8512002812423454,-9.32389750918361e-06
-0.07716693885815129,0.7601706855807064,0.32486588249690485,1.6153203719934393,0.036632661089977425,0.8503665865254488,-9.371173478101014e-06
-0.07859220732270611,0.7616566068803712,0.32922918103468124,1.6162733059782441,0.037102989315898505,0.8499423416945717,-9.320731986228736e-06
-0.08062758063740905,0.7647044759977595,0.3374945480360765,1.61838064327942,0.037968796984084285,0.8489643369138742,-9.445453997614095e-06
-0.08267197406121873,0.767306627409214,0.34461769696858724,1.6201045993314764,0.038720567041623966,0.8481817319856528,-9.510513486965522e-06
-0.08444889398192679,0.769287231391937,0.35010899329950984,1.6213612349746018,0.03930406842003897,0.8476252923873284,-9.486718832718566e-06
-0.08611464352302622,0.7711524499166469,0.35522381731303465,1.6225369858193197,0.039845843489197286,0.8471069833017397,-9.615459688028238e-06
-0.08784304876841631,0.7732158216995746,0.3607512074825001,1.6238501753651056,0.040427319990715915,0.8465250130308188,-9.634830584026588e-06
-0.08939362949979657,0.7749874083555506,0.3654931990656989,1.624954995405135,0.04092664405296098,0.8460415348961607,-9.677986342992995e-06
-0.09121683730703367,0.7773709765368011,0.37163925044850554,1.626485220015172,0.041565884305742706,0.8453599062712494,-9.730778031347143e-06
-0.09307024708416645,0.7797719812543233,0.3777671227941193,1.6280101923388575,0.04220162467655708,0.8446846719403318,-9.809014540174132e-06
-0.09516235684796648,0.7827270460150197,0.3850944422670981,1.6299108752204612,0.04295506679630812,0.8438364581222144,-9.877618293074875e-06
-0.09730382438215557,0.7855889254513464,0.39216604194044447,1.6317079349981478,0.04368200273228684,0.8430452099001347,-9.838444866794305e-06
-0.09960173479779844,0.7887407852333732,0.39981506648942133,1.633680773889516,0.04446424961158879,0.8421781442165042,-9.915473389909835e-06
-0.1014637738668398,0.7908304009804983,0.4050465233460372,1.6348980799151365,0.04500511793969064,0.8416680974734065,-1.0028212899193534e-05
-0.10343697108050787,0.7932243508524177,0.4108838616129882,1.6363164151237966,0.04560342979504739,0.8410665018352788,-1.0111498327525226e-05
-0.10561902888402663,0.7961058969619694,0.4177151942756714,1.6380526819261414,0.04629711504690981,0.8403212611664852,-1.0152456459522341e-05
-0.10792228430121575,0.7991893523494866,0.4249221059012509,1.6398980283788562,0.047025791381997806,0.8395322970420445,-1.0251608768996334e-05
-0.10982286665113783,0.8013707579563727,0.43014182403234,1.6411238988208243,0.04755709962249455,0.8390307063396643,-1.0272242088049666e-05
-0.111801270696259,0.8037686520349228,0.43576385557914676,1.642485724123632,0.04812569726911953,0.8384690538873452,-1.0331074186353817e-05
-0.11332610154778155,0.8054487847341472,0.43976333059003725,1.6433965109237887,0.04853181449654187,0.8381065690647311,-1.0369830230061439e-05
-0.11529776668201297,0.80796049089387,0.4455056209554149,1.644824359695387,0.04910771330661756,0.8375169207510069,-1.0428011227858747e-05
-0.11706119476242449,0.810076694138762,0.45037094958980184,1.6459896309735784,0.049596287192321675,0.8370468954814347,-1.0510266598373619e-05
-0.11918742992085196,0.8129160361878105,0.45669512436064874,1.6476006561085557,0.050224893745393295,0.8363815135512702,-1.0544109556143155e-05
-0.12124150563202374,0.8155191595194129,0.4625083277157307,1.6490344610639678,0.050802826605647056,0.8358018036275228,-1.0606470389085132e-05
-0.12326543214553354,0.8180427841405855,0.46811979529229486,1.6504013770748562,0.05135957557214432,0.8352558061536746,-1.0667345224923963e-05
-0.12522453138686807,0.8204436001353805,0.4734382584163228,1.6516790353244488,0.05188604632307747,0.8347517811100529,-1.067357372264155e-05
-0.12702592584520112,0.8225841743767441,0.47818416656775664,1.6527923479490507,0.05235574139432231,0.8343209196168004,-1.0725948882850389e-05
-0.1289081544184132,0.8248849295363563,0.48321918891961424,1.653992366161174,0.0528518629094572,0.8338549345948216,-1.0807606467544417e-05
-0.13074190224586335,0.8271081344840372,0.4880625785358461,1.6551363494160638,0.053328102988327686,0.8334152853433663,-1.0832107843583572e-05
-0.1327195931643832,0.8295833106745736,0.49338136114544895,1.6564151747635636,0.05384905638301696,0.8329218159900078,-1.087989362869024e-05
-0.13445920744031703,0.8316451493077466,0.4978398721101662,1.6574436870017806,0.054285374520543606,0.8325359739977287,-1.0943649131789357e-05
-0.1365391275106047,0.8342947816925488,0.5034388462239434,1.6587966446436804,0.05482993792786761,0.8320173662843651,-1.1032992406789788e-05
-0.13867876300173076,0.8369954638638966,0.5091190112799238,1.660154679822,0.055381331886050766,0.8315031552013217,-1.110391794600929e-05
-0.1410136076095334,0.8399969329588117,0.5153579646565465,1.66165817302445,0.055984171739377864,0.8309341396737269,-1.1177839136067291e-05
-0.1434533110827294,0.8430940768757349,0.5217650736610722,1.6631805058653324,0.056601689051952064,0.8303663078545895,-1.1278246921264667e-05
-0.14594296356124836,0.8461890023863479,0.528150014241966,1.6646653425217517,0.057215579270688544,0.82982324571599,-1.1338202198452052e-05
-0.1478594069006327,0.8483206940544781,0.5326439409796224,1.6656137528263981,0.057649551488608175,0.8295019789601286,-1.1328888283479444e-05
-0.14979839023677677,0.850522469830163,0.5372386457293308,1.6665947453807624,0.058092122410165814,0.829168888090611,-1.1387328013867659e-05
-0.1513634263837078,0.8522299624412293,0.5408224142891731,1.6673285612495166,0.05843716799697063,0.8289292300975957,-1.1418130048568287e-05
-0.15366231694047183,0.8550585888085314,0.5465516833080333,1.6686225543790982,0.05898357074324778,0.8284747444914622,-1.1566029579412884e-05
-0.15571451135100745,0.8574461677386154,0.551425371324175,1.6696653184288044,0.05944880879350567,0.8281254602819486,-1.1550144895622338e-05
-0.1577431358607262,0.8597970802518304,0.5562045890111929,1.6706771965799696,0.059904051563067995,0.8277912867529684,-1.1595113705631377e-05
-0.1604342574176174,0.8632104806113707,0.5629490992625286,1.6722081014523544,0.0605413494214746,0.8272597579056074,-1.1718755249745527e-05
-0.16276435983735027,0.8658985573476903,0.568350406478193,1.6733264132376355,0.06105326227996333,0.8269020647806249,-1.1747617638668828e-05
-0.1644048480541711,0.8676409376236975,0.571912940968379,1.6739996585260846,0.061391755701164286,0.8267066411758215,-1.1778376348026143e-05
-0.16709285237535987,0.8709179381568815,0.5783439359490945,1.6753802419360113,0.0619966424776468,0.8262552104655363,-1.1938842262360083e-05
-0.1683072464331694,0.8728101057129516,0.5819210378793116,1.6760721349098313,0.062416794996641656,0.8252502820395531,-1.1923759032583803e-05
-0.16900041592793436,0.874406042731553,0.5847945334129863,1.6766215211621995,0.06281453199913933,0.8238646446381974,-1.1997706153010768e-05
-0.1692797754056956,0.8750606297544241,0.586028815668528,1.6767257825165824,0.06301304521502082,0.8228828362070821,-1.2062062000772755e-05
-0.16952966596279762,0.8756747511074101,0.5871970970817912,1.6767910319412058,0.06319753518364735,0.8218365012982138,-1.2015912831842002e-05
-0.1699120630600266,0.8767667531473355,0.5892101335872661,1.6769747851308647,0.06347779000049592,0.8201191425256225,-1.2121327099379187e-05
-0.17022817346544894,0.877362370258937,0.5903732316527757,1.6770398183517035,0.06361516774467724,0.8192113130546774,-1.2094804558770988e-05
-0.17054813139947012,0.877909120363074,0.5914529013615937,1.677100222083614,0.06372461543031616,0.8184197480942048,-1.2146329907203324e-05
-0.17110856115322015,0.878946370468471,0.5934499998661016,1.6772652047963383,0.06389628320557694,0.8170318513381805,-1.2186840154804202e-05
-0.17172331998028678,0.8798987004216903,0.5953333713428384,1.6774044758178137,0.06401593854586096,0.8158570300337802,-1.221987412325376e-05
-0.17243902057052019,0.880909489248964,0.5973526701360994,1.677555164164401,0.06410296797774784,0.8147137842272274,-1.2259268384440247e-05
-0.1728096669031638,0.8816360717085345,0.5987248222746535,1.6776874170035398,0.06415859639913268,0.8137822735284477,-1.2240782892192215e-05
-0.173022165879944,0.8823672975392878,0.600012412839634,1.6778568249932908,0.06421090821062769,0.812747585981878,-1.230679209740515e-05
-0.17311326017123818,0.8831655062863009,0.6013326483388379,1.6780761028712305,0.06426490816017605,0.8115443529155675,-1.2342535144149736e-05
-0.17314871957929512,0.88376970191716,0.6023173322485222,1.6782387613628291,0.06430548861531271,0.8105759469279556,-1.2366622326176469e-05
-0.17313074157213215,0.8845128670074249,0.6034892979358943,1.678460363250382,0.0643540936975402,0.8093721349185268,-1.239050375456685e-05
-0.17297886051114553,0.8857487204951564,0.6053439300690222,1.678895484964567,0.06443028117733984,0.8074276566515248,-1.2437720782187967e-05
-0.17287071777784302,0.8872776893199195,0.6076739217868639,1.6794167545438219,0.06452429107315893,0.8050734546456457,-1.2475260597888393e-05
-0.17293511367750725,0.888412510751289,0.609502597865557,1.679714334988497,0.06459656703495575,0.8032254639101177,-1.2557434131643674e-05
-0.1729095382434318,0.8894514727152307,0.6111339029837515,1.679988468905516,0.06466179160033292,0.8014215769686102,-1.2541945793032028e-05
-0.17295832358382945,0.889967288921814,0.6119920589691388,1.6800749466298095,0.06469514907539953,0.8004424498182301,-1.2617712238593981e-05
-0.17297005979601554,0.8904187111228206,0.6127285364501507,1.6801533188283795,0.06472458521807045,0.7995523237708904,-1.2662514806471847e-05
-0.1729691452852169,0.8908209890565333,0.6133758918033019,1.6802241046983086,0.06474976099987284,0.7987452178718639,-1.2614129036414568e-05
-0.172969196352871,0.8911346113609868,0.6138844873034728,1.6802743572739294,0.06477019247849825,0.7981015759991577,-1.2627049042812644e-05
-0.17293829885361767,0.8915876014287569,0.6145946230987542,1.680366338726043,0.06479794183456455,0.7971910397888822,-1.2661086745247019e-05
-0.17292262007344394,0.8919834306338981,0.615221526178483,1.6804398871841384,0.06482251642790438,0.7963911415583826,-1.2642866280998533e-05
-0.1728956210428212,0.892433073071019,0.6159269628433357,1.680529600325439,0.0648497549120437,0.7954871425259737,-1.271125040602783e-05
-0.17288509976206612,0.8928105400934001,0.6165259558271758,1.6805967836799152,0.0648725547681428,0.7947196637436731,-1.272418338693626e-05
-0.17286349942581047,0.8932380551112482,0.6171996375662898,1.680677437225544,0.06489870012006804,0.7938509954624955,-1.2722654511243547e-05
-0.172847780090442,0.8936488377922052,0.6178476145557328,1.6807513394581646,0.06492315067189747,0.7930123677791601,-1.2761975519026691e-05
-0.1728290052916206,0.8940804197320453,0.6185285792952104,1.680828626321059,0.06494943533040942,0.7921272543877587,-1.2727147316482501e-05
-0.17281631641306827,0.8944923035578478,0.6191819076450757,1.6808981584362863,0.06497397045356301,0.7912731060916425,-1.2776665854197233e-05
-0.17280674646356786,0.8948849917529706,0.6198052735479358,1.6809601940903702,0.06499712286762982,0.7904499271261782,-1.281604627312305e-05
-0.17277908681913345,0.8953747979333571,0.6205735989473782,1.68104573255924,0.06502617394584309,0.789427114653976,-1.2817124406261371e-05
-0.17277263195293902,0.8958040398328357,0.6212574213979636,1.681108197292012,0.06505129901856588,0.7885148459501776,-1.2857366321838981e-05
-0.1727817327865413,0.8960866911112202,0.6217211105099922,1.6811353662839483,0.0650688782180806,0.7878864167766588,-1.2816765299739075e-05
-0.17276743993090005,0.8964959161439783,0.6223706134196112,1.6811899377698296,0.06509248217235264,0.7869862455382801,-1.2890202577331422e-05
-0.1727568334687266,0.8969076670823695,0.6230287530750491,1.6812393895924505,0.06511711362048267,0.7860694596386129,-1.2855094159824887e-05
-0.17275747671164599,0.8972624418016864,0.6236039629931964,1.681272373114349,0.06513802821039594,0.7852583026112576,-1.2903191963786753e-05
-0.17274605046309688,0.8976778043731564,0.6242673699537775,1.6813146868772897,0.06516196238775951,0.7843059397856296,-1.2945176576018014e-05
-0.1727399377848977,0.8980919873403685,0.6249356207671815,1.6813494517426086,0.0651866417864353,0.7833390729565011,-1.291109509615751e-05
-0.17274058538770198,0.8984820662494126,0.6255709901522151,1.6813734035251162,0.0652094601305464,0.7824050843404917,-1.2961895190066741e-05
-0.17274257288152572,0.8988590364480098,0.6261876336026697,1.6813890004236516,0.0652316667134194,0.781480146729292,-1.2980079302060687e-05
-0.17274713091168348,0.8992133723945344,0.6267701794686547,1.6813954533511248,0.06525229669846944,0.7805870659536138,-1.3020546092867846e-05
-0.17271744287195823,0.8997396577464292,0.6276107186993558,1.6814255609993927,0.06528281246447865,0.7792775626939195,-1.2993444511444352e-05
-0.17274667968359925,0.9000856877298373,0.6282009958824029,1.6814081849761253,0.06530368772696526,0.7783601875305726,-1.301110656282134e-05
-0.17276143924522458,0.9004303533974589,0.6287843542497171,1.6813859901026529,0.0653242526733484,0.7774067157738038,-1.30615622051522e-05
-0.172754188030809,0.900877090980365,0.6295211164347458,1.6813665606665058,0.06535009379585777,0.7761664704833109,-1.3107650213228794e-05
-0.17278428457854567,0.9011726563156417,0.6300404384561533,1.681319571424913,0.065368788816909,0.7752810273040263,-1.3070424926375779e-05
-0.1728057287189495,0.9014287509361107,0.6304923076677262,1.6812686382206854,0.06538462005208334,0.7744691394156114,-1.3116786421463189e-05
-0.1728245578150318,0.9016313146010431,0.630854158580644,1.6812170211016646,0.06539757828723669,0.7737936273887671,-1.309781350489203e-05
-0.1728351082189974,0.9018747888353422,0.6312825507648556,1.681157889007907,0.06541277658126621,0.7729716613730018,-1.3112196582731883e-05
-0.17285217706657718,0.9020561501860298,0.6316119520889556,1.6811007056517928,0.06542429913225423,0.7723262064681409,-1.3155538276521384e-05
-0.17285049199614377,0.9023652247413629,0.6321468118502933,1.6810249447852552,0.06544295034435343,0.7712582042835683,-1.319718086101318e-05
-0.17286937582224304,0.9026666344115579,0.6326873586477131,1.6809319728148786,0.06546232622698422,0.7701821107807305,-1.3162260712462626e-05
-0.17290099160629424,0.9028573518155083,0.6330504719255794,1.6808450140872377,0.06547491172932851,0.7694312587349588,-1.3206849832414491e-05
-0.17292577145212018,0.9030269036436591,0.6333739513693502,1.6807579183227785,0.06548604560513471,0.7687269331415916,-1.3240855714968802e-05
-0.17294755390785088,0.9031716310235431,0.6336565951070359,1.680672577980875,0.06549649366343413,0.7680893609382142,-1.3197764906713871e-05
-0.17296604545930627,0.9033505675916391,0.6339995110420675,1.6805690926139407,0.06550825624331047,0.7672927711221185,-1.326546883184676e-05
-0.17298830305307966,0.9035151881973249,0.6343241449351673,1.6804604991521144,0.06552021296718369,0.7665237067342794,-1.3224376087528356e-05
-0.17301234075445926,0.9036710887276094,0.6346372629125661,1.680346895203579,0.06553121025577191,0.7657598269438655,-1.3268754327278032e-05
-0.17303740730410322,0.9038106111320303,0.6349224312783797,1.680232895790736,0.06554109644292616,0.7650409294410485,-1.3302128151870818e-05
-0.17307076899223972,0.9039337341262064,0.6351855633122723,1.6801212302370967,0.06555081670208818,0.7643858432731339,-1.3258920704473098e-05
-0.17311334463449413,0.9040779552822293,0.6354955216587559,1.6799891995987606,0.06556154319511176,0.76361659694326,-1.3303338959325117e-05
-0.17316185974722487,0.904209463840707,0.6357856815193852,1.67985702777285,0.0655713777032707,0.7628910674377058,-1.3337335996510546e-05
-0.17322143605450346,0.9043741906164122,0.6361530044370465,1.6796854086782247,0.06558459506095371,0.7619598918208208,-1.3298378465975702e-05
-0.1732791897547541,0.904485216540257,0.6364198376267645,1.6795434493579195,0.06559373391575551,0.7612656075583306,-1.3341409039746566e-05
-0.17333889664796498,0.9045988008390244,0.6366958760770371,1.6793868839099977,0.06560310259641522,0.7605192163732353,-1.3375034025209231e-05
-0.17339857458327756,0.9046996683817792,0.6369540690352382,1.6792279348662271,0.06561259906419803,0.7597981585376328,-1.3332178471436862e-05
-0.17345426901615113,0.9047821153878459,0.637175671401021,1.6790803454633307,0.06562028440563417,0.7591555826652838,-1.337417110480743e-05
-0.17351447459480696,0.9048689160897627,0.6374133776319129,1.678913051406587,0.06562886528784606,0.7584434896302028,-1.3352714661074572e-05
-0.17357494011314767,0.9049458635194156,0.6376359100769919,1.6787453572102091,0.06563680525990101,0.7577543941110587,-1.336340309698869e-05
-0.1736296531339745,0.9050054480512992,0.6378209440633071,1.678595056329554,0.06564330839752319,0.7571603335597441,-1.3404449622278491e-05
-0.17370933009043998,0.9051003344846436,0.638109566872517,1.6783561490582661,0.06565343465971907,0.7562075050044994,-1.3440454689650494e-05
-0.17377598851741283,0.9051560082427725,0.6383063309262917,1.6781739943138154,0.06566056852629032,0.7555329320868083,-1.3450381130653e-05
-0.17385058964890376,0.9052131641559997,0.6385230594702183,1.6779598171610122,0.06566894094459741,0.754756641275911,-1.3407714080315714e-05
-0.1739352813888866,0.9052697900788891,0.6387572039785754,1.6777124601124944,0.06567746970723398,0.7538793222423266,-1.3452517509726647e-05
-0.17400854797114906,0.9053064453028288,0.6389377481955067,1.6775022070151877,0.06568424038515719,0.7531666876337475,-1.3462678553288754e-05
-0.17410188735096188,0.905348447815248,0.6391635039946824,1.6772230299187054,0.06569253079504112,0.7522321837960613,-1.3497514705917979e-05
-0.1741855108965602,0.9053725783716926,0.6393440143213285,1.6769768894063413,0.06569991733503677,0.7514443548185721,-1.3453819107667186e-05
-0.1742708593973683,0.9053896790812219,0.639517092931249,1.6767214577437706,0.0657067098518489,0.7506440240775962,-1.3465614120633518e-05
-0.17435676176546622,0.9053991933690142,0.6396799356812579,1.6764616163126043,0.06571321320298917,0.7498488517192632,-1.3476462134676126e-05
-0.17446423733362781,0.9054029032203044,0.6398729786418951,1.676131504715622,0.06572091354347354,0.7488561272230259,-1.3522047123792902e-05
-0.17454675501308525,0.9053981715869872,0.6400064839329955,1.6758798382059705,0.06572617607199138,0.7481214464613721,-1.3553304722080384e-05
-0.17462719536996563,0.9053871059512835,0.6401297059882074,1.675630401156467,0.06573182684509682,0.7474082536604216,-1.3509035336589648e-05
-0.17471312480294188,0.9053709684337363,0.6402545600515124,1.6753616020935311,0.06573721905175312,0.7466482091268469,-1.351899597334949e-05
-0.17479937851218974,0.9053497902891952,0.6403729109335368,1.6750904084702052,0.06574228510531377,0.7458917102506293,-1.356105113270445e-05
-0.17488744012124613,0.9053248355335395,0.640487424436313,1.6748112020150376,0.06574713561075285,0.7451219476421613,-1.3592272372520142e-05
-0.17496627871898784,0.9052978289925493,0.640584954907454,1.6745591424671789,0.06575201405676001,0.744438146459804,-1.354749560000812e-05
-0.17505269371534382,0.905265345475943,0.6406872127657248,1.674282276799146,0.06575661413605882,0.7436911659736785,-1.358923281191693e-05
-0.17513686674356954,0.9052317327922141,0.6407826728093973,1.6740103444742722,0.06576082968817154,0.7429628103831458,-1.3619657640795424e-05
-0.17519646759378027,0.9052057256598856,0.6408481408804203,1.673816228511587,0.06576395572278404,0.7424468982872936,-1.3626176430747705e-05
-0.17527862167661912,0.90516770116409,0.6409361628701484,1.6735483372588051,0.06576847468298919,0.7417396892485764,-1.3613862420491785e-05
-0.17536773239278158,0.9051252537506906,0.6410289723955351,1.673255972718927,0.06577298756391325,0.7409699077220315,-1.362360046908151e-05
-0.1754375061357658,0.9050914315499394,0.641100216842327,1.6730249227428446,0.0657761959758032,0.7403616647750342,-1.3652193505464538e-05
-0.1755254691018342,0.9050465623697219,0.6411890850858866,1.6727322682926173,0.06578098575323121,0.7395961891615199,-1.3608392841923944e-05
-0.175610691112988,0.9050027553848343,0.6412745950927956,1.672446865423069,0.06578518806443423,0.7388477062661885,-1.3617876791549577e-05
-0.17568987365709443,0.9049615500502117,0.6413540593014169,1.6721806615684693,0.0657889345560605,0.7381482268558406,-1.3658872926036736e-05
-0.17577245430552946,0.9049194350136611,0.641436390448872,1.6719029148364646,0.06579266046087895,0.737418118881771,-1.368875183160867e-05
-0.17584088032686296,0.9048832697033706,0.6415040665847176,1.671672896711879,0.06579636691954427,0.7368174115843482,-1.3643167362964448e-05
-0.17591706896521853,0.9048434468784192,0.6415776344953725,1.671419299226054,0.06579951013087104,0.7361537223741825,-1.3704403809988719e-05
-0.17600906265267025,0.9047929170276969,0.6416635274081592,1.6711153600649347,0.06580397993844755,0.735367262814469,-1.3693468734032876e-05
-0.17616189494018197,0.9047059940797793,0.6417935957604612,1.67062317126652,0.06581059953540525,0.7341150488147976,-1.3676582439003937e-05
-0.17631723272698085,0.9046064184487204,0.6419096112643725,1.6701191735606526,0.06581676728579033,0.7328563486250204,-1.3691894093170731e-05
-0.17644310500144034,0.9045181305496035,0.641993320113392,1.669705486078822,0.065821517028672,0.7318373247171968,-1.3704169652406506e-05
-0.17652409252334067,0.9044584472440231,0.6420438913464572,1.6694356385032814,0.06582450059123168,0.7311761270787356,-1.3712091305961849e-05
-0.1767015291093177,0.9043247537244268,0.6421280535018452,1.668900000501556,0.0658298964199977,0.7299287504414576,-1.3726807799763208e-05
-0.1768065536529173,0.9042267172215448,0.6421638029128438,1.6685420848808503,0.06583311924995083,0.7290967309416247,-1.3736442754819223e-05
-0.17696746359438453,0.9040810403928408,0.6422030041855988,1.6680495775124804,0.06583675425573166,0.7280037076387238,-1.3800930373619735e-05
-0.1770602292927439,0.9039817891255923,0.6422147836574048,1.6677338177159458,0.06583954876561648,0.7273037281597672,-1.3756545297560763e-05
-0.17714071786181496,0.9038971936582962,0.6422229727615543,1.667469507886274,0.06584146293682203,0.7267250445352484,-1.3763267733502005e-05
-0.17722536000011146,0.9038080064074148,0.6422267894734572,1.6672011252495373,0.06584285819938618,0.7261492683488076,-1.3821496111177112e-05
-0.17732081873789962,0.90370363546372,0.6422238645829204,1.666905040062293,0.06584511467578835,0.7255350494615831,-1.3776082957051017e-05
-0.17740432404956064,0.9036070293229068,0.6422138915135482,1.6666419779800394,0.06584659521797764,0.7249963135621309,-1.37821323029641e-05
-0.17750153668299973,0.9034917699742628,0.642195138569865,1.6663440962554166,0.06584795702183222,0.7244038796563244,-1.3820683636645015e-05
-0.17760280250379346,0.9033663867617223,0.6421655318279091,1.6660333934724871,0.0658490313089386,0.7238012752565988,-1.3846558998054093e-05
-0.17772113776657328,0.9032129462051568,0.6421198888653876,1.665675787784128,0.0658507712354579,0.7231346150936071,-1.3801307580330047e-05
-0.1778209390627623,0.9030724459687525,0.6420686153943933,1.66536194421161,0.06585159571916499,0.7225556933390953,-1.3839286948424956e-05
-0.1779237526529407,0.9029254157596132,0.642008849469156,1.6650424810997109,0.06585213394229772,0.721980788385518,-1.3864227396354067e-05
-0.17803586076234534,0.9027602721361996,0.641936036859021,1.6646991265038427,0.06585326462099594,0.7213843203611292,-1.3818245707675203e-05
-0.17813312528353187,0.9026085933964332,0.6418625183702673,1.6643936553739591,0.06585360882428049,0.7208594434987976,-1.385524116770398e-05
-0.17824025983938885,0.9024413106342637,0.6417762928409356,1.6640650347713741,0.06585369398714391,0.7203114712995689,-1.3879577027253731e-05
-0.17834254178319942,0.9022741539347585,0.641685363439203,1.6637476716736366,0.06585434202648255,0.7197955985819737,-1.383269182575475e-05
-0.17845480825760784,0.9020888335391497,0.6415796093652606,1.663406718105465,0.06585428659507109,0.719256865122448,-1.3869472533123428e-05
-0.17856476457835946,0.9019008720476487,0.6414654523897036,1.6630691549976353,0.06585392474505891,0.718735370551979,-1.389287980924081e-05
-0.17867707292429014,0.9017030069275584,0.6413412976396122,1.6627246156667255,0.06585413666345108,0.718219407487835,-1.3845705364445848e-05
-0.17878407806909546,0.9015083211968458,0.6412140960367552,1.6623939905019682,0.06585366617691601,0.7177326419052354,-1.3881623381450936e-05
-0.17891793740086204,0.9012688624798262,0.6410529925454167,1.6619971628053767,0.06585280663180981,0.7171741978377435,-1.3904570201894728e-05
-0.17902305764610915,0.901062350346173,0.6409071388064396,1.6616640962391411,0.06585261804168852,0.7167093702893528,-1.385675438125844e-05
-0.17917089751928472,0.9007866921050613,0.6407113188379583,1.6612309895335624,0.06585152056226917,0.7161371421458727,-1.389252669081742e-05
-0.17932125426794165,0.9004907267946081,0.6404900146291341,1.660779283458532,0.06584998549222121,0.7155585525877477,-1.3914712943652319e-05
-0.17943254236745165,0.9002484661639611,0.6403016687255771,1.6604173504110218,0.06584929359835279,0.7150947543959223,-1.386686421067651e-05
-0.17956361021017742,0.8999757576720944,0.6400899687822781,1.6600157483560931,0.06584784390838472,0.7145987005942427,-1.3901667278659602e-05
-0.17969279178915976,0.8997016420107267,0.6398717762266779,1.6596180403059648,0.06584613868269518,0.7141190403502451,-1.3922083772044402e-05
-0.1798253181785041,0.8994162133368162,0.639642265038038,1.6592120244736268,0.06584501259144293,0.7136453240719334,-1.3874540631952925e-05
-0.17995596732884778,0.8991290682981559,0.6394071071924055,1.658810871946697,0.06584323231362443,0.7131872005788082,-1.3908666004702752e-05
-0.18010450129438027,0.8988061479715315,0.639138956203352,1.6583662891294653,0.06584100334395337,0.7126995375865901,-1.3928182087674656e-05
-0.18029196088374722,0.8984024793299179,0.6388012486722285,1.6578244312124184,0.065838870398653,0.7121414939772093,-1.387988644285798e-05
-0.18042120112946858,0.8980800602843617,0.6385174908838733,1.6574020609313687,0.06583655036131475,0.7116981623398075,-1.3913480030325331e-05
-0.18055305857107218,0.8977601769329127,0.6382353316463174,1.656984203227771,0.06583408365060084,0.7112699547619439,-1.393241209246554e-05
-0.18069060199305387,0.8974298799857747,0.6379444792003008,1.6565576257861983,0.06583223802469806,0.7108474149071755,-1.388336768926024e-05
-0.18085445047626436,0.8970475190754765,0.6376070096256363,1.6560707975751807,0.06582942051065288,0.7103865143069257,-1.3916007564951371e-05
-0.18099010019593997,0.8967069879407505,0.6372973179839745,1.6556431615159708,0.0658266552886726,0.709982944679644,-1.3934036908302971e-05
-0.18114214337504464,0.8963339297243769,0.6369594909921501,1.6551797653671736,0.06582434917363411,0.709564187999578,-1.3884265245067695e-05
-0.1812907985639134,0.8959610842040986,0.6366175694871448,1.6547229555395573,0.06582143175195743,0.7091597286242495,-1.3916182753703765e-05
-0.1814792112701369,0.8955070549404001,0.636200524805778,1.6541722127681604,0.0658177058885121,0.7086999895191983,-1.3933384752640166e-05
-0.1816393404523149,0.8950853645268255,0.6358039638889847,1.6536712050887274,0.06581470561529468,0.7082859734696854,-1.3914178797591603e-05
-0.18179749692400193,0.8946667561775277,0.6354060325497795,1.6531770257760074,0.06581111987039634,0.7078855750409039,-1.3931272790479454e-05
-0.1819663450597231,0.8942233014620502,0.6349847371390425,1.6526586100766298,0.06580803652040146,0.7074815023714249,-1.3881326776932212e-05
-0.18212502440791933,0.8937942882404357,0.6345723510146417,1.6521628027124278,0.06580447023070413,0.7071005220078082,-1.3912505110624807e-05
-0.1823074956332098,0.8933151140779074,0.634110901152221,1.6516122144565308,0.06580033268045771,0.706696078655316,-1.3928630413495569e-05
-0.18247038377812697,0.8928630626989404,0.6336698063913921,1.6510997375038112,0.06579707539594626,0.7063252321846223,-1.3878331173167169e-05
-0.1826446252566516,0.8923864724581829,0.6332039386337547,1.6505635401405074,0.06579305274070979,0.70594921645813,-1.3908581849797486e-05
-0.1828280320898612,0.8918844632362832,0.6327094337594152,1.650002754346926,0.06578864100036341,0.7055688625483265,-1.3923727576248268e-05
-0.18299898912354795,0.8913984283280669,0.6322264930559118,1.6494658040112764,0.06578504029781129,0.7052119187544132,-1.3873114380835716e-05
-0.18318834029022746,0.8908711891960435,0.6317023822651002,1.6488874263582431,0.06578053931669281,0.7048417026654601,-1.390281278457195e-05
-0.18335703251642865,0.8903783884480667,0.6312051639927514,1.648351371714746,0.0657765529051062,0.7045019369563139,-1.3867324461180885e-05
-0.1835603956787173,0.8898110332322426,0.630636484889397,1.6477378457531158,0.06577169638556501,0.7041332498693018,-1.3896443083361021e-05
-0.18374713194312253,0.8892634278340461,0.630078408388627,1.6471515512363037,0.06576679746276604,0.7037853709674424,-1.3910237729675146e-05
-0.18391537642829903,0.8887527308362664,0.629554633370419,1.6466090390144394,0.06576290973936505,0.7034673300477543,-1.3859755561895781e-05
-0.18411229017249564,0.8881821774576277,0.6289723763919639,1.6460049078970407,0.06575798934774468,0.7031289614067671,-1.3888388183502798e-05
-0.1843255491708362,0.8875649190211039,0.62833849096618,1.6453555280181398,0.06575250753197714,0.7027796999891125,-1.3900421471646496e-05
-0.18452936511910778,0.8869502953367263,0.6277015446378407,1.6447159097096105,0.0657477214776776,0.702443843655149,-1.3855265837747766e-05
-0.18473547201271234,0.886323517959327,0.6270485496101026,1.6440682918447305,0.06574227185298742,0.7021118552609344,-1.3881117912006857e-05
-0.18494372567756567,0.8856854487815466,0.626379248358699,1.6434121330093445,0.06573656798378025,0.7017841471781283,-1.3888061114464278e-05
-0.18514625499088666,0.885052695331713,0.6257128376472565,1.6427659762957196,0.0657316209118477,0.7014692443223005,-1.384852721120211e-05
-0.18536962736557516,0.8843699581911704,0.6249939148992212,1.6420719057489723,0.06572570379181641,0.7011441747588849,-1.3867349212048907e-05
-0.18555905065735345,0.8837527554273858,0.6243334358571415,1.6414494458844668,0.06572015637012996,0.7008509066521373,-1.3891413791711216e-05
-0.18579902998279252,0.8830248053075476,0.623563540822623,1.6407154009246625,0.0657144511793657,0.700529524467024,-1.3833875333268963e-05
-0.18601730551393114,0.8823227284684974,0.6228103975129251,1.640015450124233,0.065708349402958,0.7002250417391709,-1.38516494487817e-05
-0.1862386627676491,0.8816096057201497,0.6220415227985887,1.6393067367888001,0.06570201832965594,0.6999246904149272,-1.3873967388278174e-05
-0.18648124676791422,0.8808404356282358,0.6212135328298736,1.6385455841448868,0.06569594533207646,0.6996175343864461,-1.3816542522526731e-05
-0.18670402408841102,0.880100553760558,0.6204079322214664,1.6378198821972845,0.06568954419581718,0.6993262376224338,-1.388279294456396e-05
-0.18692193042356742,0.8793714478213088,0.6196099774064256,1.6371067787712743,0.06568307839635246,0.6990451145565739,-1.387321006429687e-05
-0.1872570075872959,0.8783788174908516,0.6185435275869127,1.6361334424358391,0.0656752414877495,0.6987086922146863,-1.3794879194506393e-05
-0.1874400315686966,0.8776640603640287,0.6177381404181403,1.6354519043855262,0.06566895539576922,0.6984472100856527,-1.3860160674283861e-05
-0.1876686832397887,0.8768757234769815,0.6168637762157188,1.6346925117362368,0.0656624378211319,0.69817276479837,-1.377966974480671e-05
-0.18788434561091094,0.8761217815028761,0.6160241275521345,1.6339693548069656,0.06565596688282671,0.697913370482957,-1.3844542896102041e-05
-0.18807922088465645,0.8754270589517672,0.6152455281307398,1.6333043884730483,0.06564984383117078,0.6976748606668863,-1.3837333850297284e-05
-0.18831107865956298,0.8746517983947841,0.6143845457219044,1.6325611093792727,0.06564383432109899,0.6974248970460257,-1.3761310508897395e-05
-0.1885531473580988,0.8738394185914187,0.6134786525507954,1.6317865134956246,0.06563696542125541,0.6971733246291025,-1.3800229542226816e-05
-0.18879375914078977,0.8730146315747929,0.6125514788579078,1.6310040204855172,0.06562982649993199,0.6969255523898932,-1.3817102863633579e-05
-0.18903464905284473,0.8721760675158086,0.6116054947151479,1.6302126670876032,0.0656232869311344,0.6966828539753358,-1.3754647782526774e-05
-0.18929717060642837,0.8712747569207053,0.6105871388105859,1.6293650129937145,0.06561570578168308,0.696433838133486,-1.3805479929018816e-05
-0.18957756507943202,0.8703075418160093,0.60948926644922,1.6284592529705346,0.06560784268079711,0.6961803065029333,-1.3727215259606851e-05
-0.1898410347127495,0.8693521118429999,0.6083936348283858,1.6275723934806319,0.06559978052427429,0.6959342940858013,-1.3751827087737922e-05
-0.18998315006712296,0.8687217410686969,0.6076494161075505,1.6269942480078,0.06559418237282966,0.6957530808569734,-1.3712782460650885e-05
-0.19024991867220287,0.8678025577423369,0.6065994511009656,1.6261376484243995,0.0655870986897753,0.6955240151072521,-1.3711615491907025e-05
-0.19048903416322727,0.8669228453206523,0.6055811611592548,1.6253256872894744,0.06557973854260712,0.695306398218368,-1.3759390431467011e-05
-0.1907628882632011,0.8659505400014256,0.6044567471728399,1.6244282154628245,0.06557151218384583,0.6950800112983293,-1.3745005821519385e-05
-0.19105335424533365,0.8649065186745961,0.6032450429862894,1.6234702532227239,0.06556335350823073,0.6948506300875117,-1.3753513833592024e-05
-0.1912061298062646,0.8642093658405194,0.6024073550807572,1.6228412533981604,0.06555716855884786,0.6946767651800707,-1.3664868950158393e-05
-0.19148993032420503,0.8632035424909263,0.6012362016033519,1.6219188985778503,0.06554945085137565,0.6944617962949398,-1.3664762833265343e-05
-0.19164309038624783,0.8625181633096553,0.6004120021386603,1.621302023833536,0.06554365897619352,0.6942980131999956,-1.3712677954913488e-05
-0.19196534287570088,0.8614714559107268,0.5992014609441734,1.6203373243921506,0.06553464209301385,0.6940912816784692,-1.3695855557216419e-05
-0.19224443679378922,0.8605705483277166,0.5981591167345242,1.6195085571518115,0.06552644661299034,0.693919631539405,-1.370724658222855e-05
-0.19259262154707457,0.8595548303528409,0.5969976133138815,1.6185699047890525,0.06551582103128872,0.6937536832901277,-1.3656706731701718e-05
-0.1929181668980906,0.8585569572520422,0.5958397011980061,1.6176597476195793,0.06550412877836376,0.6936098302500113,-1.3643917632144564e-05
-0.19315860883723257,0.8575770136811265,0.5946492251473652,1.61680316020868,0.06549304487364793,0.6934909152600186,-1.3679023457946471e-05
-0.1933977479139024,0.856478390636199,0.5932875548178274,1.6158617886438318,0.06548009229554541,0.6933808773571553,-1.3625026365815529e-05
-0.193599074850626,0.8553157112540992,0.591807414553414,1.6148881284786665,0.0654660820064441,0.693275109435362,-1.3625664017524741e-05
-0.19375458801252332,0.8541949434044609,0.5903535703269345,1.6139647423805865,0.06545316263978496,0.6931751065507514,-1.3562290081203798e-05
-0.19393166737497136,0.852962554052171,0.5887523571672615,1.6129507793616664,0.06543846668854236,0.6930755288045125,-1.361561826040969e-05
-0.19407523780191482,0.851782719203312,0.5871972035860402,1.6119889679819845,0.06542417499202013,0.6929787362992013,-1.3582201989770226e-05
-0.19419378523202457,0.8506922120106859,0.5857482908633465,1.6111043241765692,0.06541159472133362,0.6928866093943133,-1.3510860182641693e-05
-0.19435520328627476,0.8494601139135511,0.5841221178398595,1.6100986589772628,0.0653969632910858,0.6927942502765738,-1.357560778370015e-05
-0.19448776069824536,0.8482836716209698,0.5825497756831588,1.6091454631457989,0.06538277606315734,0.6927043806084656,-1.3536051977958152e-05
-0.19462154860852543,0.8470971658813529,0.5809603269171442,1.608184981744727,0.0653691937038019,0.6926175021183107,-1.346309825844827e-05
-0.19477233179673714,0.8458318260944768,0.5792636758857848,1.6071603801560963,0.06535422224633258,0.6925315414284983,-1.3529961159441939e-05
-0.19488777964958892,0.8446600510685496,0.5776711990073222,1.6062186808973067,0.06534011589257371,0.6924475821519245,-1.3491338989091162e-05
-0.1950255848090201,0.8434097182021922,0.5759765692473469,1.6052106899433918,0.0653258687601852,0.6923662446306516,-1.3423116406841018e-05
-0.19520425726942126,0.841968431792175,0.5740265264434914,1.604046594596146,0.06530899234595822,0.6922872706104215,-1.3488005775386114e-05
-0.19534377080583454,0.8405489916610822,0.572074193872127,1.6029125399502222,0.06529210271227637,0.6922082147386597,-1.3437857120379704e-05
-0.19543307774057617,0.8393030935621839,0.5703347215423795,1.601926297475055,0.06527737333635031,0.6921286399896376,-1.342176496166303e-05
-0.1956213776664164,0.837719759213277,0.5681610569198279,1.6006537634457185,0.06525944393824101,0.6920555402177095,-1.335029913462904e-05
-0.19579851562698192,0.8362213443819266,0.5660917804504635,1.5994536350858315,0.06524059753329237,0.6919963373820437,-1.3413353711300147e-05
-0.19592074356545286,0.835063671150464,0.564475385236646,1.598531574355869,0.06522419055430095,0.6919515824277749,-1.3359680103519622e-05
-0.19613929553441345,0.8335675629080868,0.5624136572453038,1.5973326828109382,0.06520330473057712,0.6919430868573846,-1.3287843956710788e-05
-0.196195149715086,0.8321642312126514,0.5603749459097527,1.5962655173841735,0.06518269338875182,0.691949608475598,-1.3343623916917124e-05
-0.19621840868313623,0.8305685761859039,0.5580200924181424,1.5950696485208482,0.06515944649609029,0.6919721222256552,-1.3322814320204657e-05
-0.1961637717154492,0.8290638038661333,0.5557404491898836,1.5939662271251969,0.06513693756435579,0.6919878597117552,-1.3273642301747657e-05
-0.19611578381737527,0.827426274737479,0.5532565681983241,1.5927632514267094,0.06511321420399874,0.6920141553682937,-1.3200603400598254e-05
-0.1960253505645957,0.8258967948336462,0.5508968386157589,1.5916530091970316,0.06509026792708816,0.6920309170266457,-1.3254251298278064e-05
-0.1959517490848457,0.8242400759775768,0.5483423304135506,1.5904428036738345,0.06506539217750973,0.6920565720884273,-1.319993132575803e-05
-0.1958420376827652,0.8226940978809365,0.5459231198547867,1.5893246096976528,0.06504256515996687,0.6920740121613376,-1.313580893036459e-05
-0.1957105694070158,0.8215407723069896,0.5440806704734928,1.5885018736328647,0.0650247195460203,0.6920689639052444,-1.3169373083599112e-05
-0.1956233096735387,0.820193307595523,0.541959004243755,1.587520687092609,0.06500404459920528,0.6920751836676056,-1.3095355003933662e-05
-0.19556446788530923,0.8185492847025868,0.5393899618878901,1.586312943595522,0.06497982180159223,0.6921028958715087,-1.3169890791253636e-05
-0.19542978793621213,0.8171752010566218,0.5371778028213177,1.5853271036865655,0.06495870607207799,0.6921107611893316,-1.3143522259895235e-05
-0.1953205480413338,0.8156354432275936,0.5347125399645751,1.584210331579289,0.06493505886116768,0.6921291848767499,-1.3090987311059621e-05
-0.19518501837107216,0.8141673193823058,0.5323332841182733,1.5831540396722232,0.06491292469461918,0.6921431102600932,-1.3103331389707762e-05
-0.19506968190519736,0.8127479409269238,0.5300291252138729,1.5821290381837478,0.06489032672408612,0.6921622400898588,-1.3048151100036876e-05
-0.19496853481869625,0.811697338290986,0.528305876914076,1.5813748258865923,0.06487232547502852,0.6921773462039233,-1.3070352911981331e-05
-0.19493588154109442,0.8102990597261401,0.5260625919046698,1.580348520825555,0.06484756783234147,0.6922324970921849,-1.3048574909468869e-05
-0.19478996768915025,0.8092612929794347,0.5243129590190012,1.5796252349915747,0.0648282696695821,0.6922743587441849,-1.299771208529421e-05
-0.19462634506875798,0.8078821017258742,0.5219982786656567,1.5786608692718005,0.06480369710438794,0.6923545220457399,-1.3010762675236265e-05
-0.19438526585392246,0.8064285971324017,0.5195023263464114,1.57766629994373,0.0647771389767362,0.6924410699503403,-1.295330250350446e-05
-0.1940886915368738,0.804910818853589,0.5168552756370541,1.5766406662760293,0.06474942009592954,0.6925332955095795,-1.296551798990464e-05
-0.19375044262656083,0.8033364637822196,0.5140749536976372,1.5755853814993293,0.06472026635351913,0.6926289961283141,-1.2933542746118576e-05
-0.19339741645341757,0.8019719330777937,0.5116151522555734,1.5746844383439313,0.06469434071188207,0.6927015711353111,-1.2848915084795465e-05
-0.1930813506919078,0.8008603581612874,0.5095869442194676,1.573955651102528,0.0646734980200705,0.6927524628843198,-1.2841470616642425e-05
-0.19274359789625173,0.7993233575754513,0.5068297379763482,1.572922594082069,0.06464450199425098,0.6928415851880745,-1.2874317567579396e-05
-0.19237060858264243,0.7978633615473303,0.5041637578123019,1.5719534221252243,0.0646168638208291,0.6929211995092421,-1.2788920075834653e-05
-0.19197611779293577,0.7963122821400272,0.5013175828931891,1.5709230039289892,0.0645871094348145,0.6930072990933382,-1.280485756716132e-05
-0.1915708364198636,0.794890265459995,0.49866520063616004,1.5699870435069352,0.0645592815527749,0.6930784105181775,-1.2744749749771245e-05
-0.19115510462911622,0.7933800275903984,0.4958450535643566,1.5689881245094854,0.0645303132042061,0.6931570093022925,-1.279707575196909e-05
-0.1907332973444209,0.7919567918529529,0.4931519430056506,1.5680524620022984,0.06450223052323611,0.6932246066444954,-1.2762839574520513e-05
-0.19028807659317248,0.790358199246513,0.49012675880179923,1.5669928011538499,0.06447058387458426,0.6933065389776978,-1.2690567752215998e-05
-0.1898639620681184,0.788943831854942,0.4874165817264915,1.5660632297974306,0.06444179541073769,0.6933815593052932,-1.2751821325096557e-05
-0.18946589450751716,0.7874612882640246,0.4845820722884655,1.5650797940785175,0.06440929706433707,0.693479765632059,-1.264051553473422e-05
-0.18904351311041356,0.7860575606883016,0.4818548900653026,1.5641643545069268,0.0643778478084327,0.6935875982540134,-1.2701775553125572e-05
-0.188543818258899,0.7846298118404551,0.479018265058504,1.563255117558045,0.06434513627925753,0.6937092056645664,-1.2798746461761823e-05
-0.18794437893245508,0.7830453327006213,0.475822909214104,1.562257906518222,0.0643086164058344,0.693847776253957,-1.2653226825420916e-05
-0.1872925928133906,0.7815341574105048,0.4727058082205735,1.5613246890655619,0.06427305979084963,0.6939738664408228,-1.2548470858853022e-05
-0.18658863245329904,0.7799266528789142,0.4693646140380663,1.560333120531423,0.0642355370305463,0.6941095262755237,-1.2607360440064497e-05
-0.1858851512730002,0.7784527858888524,0.4662430386287424,1.559434452397988,0.06420002168084604,0.6942254623047663,-1.2494338038848696e-05
-0.1852787323674141,0.7772891974222729,0.4637356460455244,1.55873396334729,0.06417191734782879,0.6943070491170129,-1.2558197211021138e-05
-0.18455636823652544,0.7756885197722809,0.46033308851851107,1.5577428609855781,0.06413320165024672,0.6944351552830277,-1.2529793673721201e-05
-0.1837939622487692,0.7741274824097806,0.456955237311905,1.5567870738261451,0.0640947396582563,0.6945546524213952,-1.2423315232545917e-05
-0.18297801640229228,0.7724751943081722,0.45335205781870247,1.5557751446616503,0.06405435651811953,0.6946818325253492,-1.246639307339592e-05
-0.1822685903579533,0.7712275146846439,0.4505537014164105,1.555028312560129,0.06402265286676911,0.6947617806503423,-1.244714671244651e-05
-0.18132740167332884,0.7691239140834831,0.4459584558493903,1.5537113024220712,0.0639703727988925,0.6949366802355161,-1.233033518932558e-05
-0.18026943592082212,0.767238735024808,0.4416709539697603,1.5525761820400632,0.06392264953135207,0.6950738908906899,-1.2380591966731913e-05
-0.17949675345656146,0.7660870954379391,0.4389521044889131,1.5519044299642184,0.06389191297508123,0.6951324770525904,-1.2362983280667095e-05
-0.17846903774072853,0.7641062044928306,0.4344294023229649,1.5506816807625627,0.06384059148982058,0.6952732164406186,-1.2331990772551649e-05
-0.1774561301174824,0.762486851701472,0.4305900989407139,1.5497145052665129,0.06379702078830629,0.6953666763710906,-1.2226062917619629e-05
-0.17628945066585544,0.7603818674769158,0.4256493115803863,1.5484216599176905,0.06374123040886115,0.695507904501973,-1.2192238944663814e-05
-0.17505897534684323,0.758462400529007,0.4209943908790681,1.5472727079330486,0.06368922142496469,0.6956184348026877,-1.2239068583497215e-05
-0.17384072513339266,0.7566118245743256,0.41643910843063203,1.54616448271413,0.06363772973616477,0.6957142383295354,-1.2210321933991963e-05
-0.17260039133953953,0.754735346312752,0.41177114514029967,1.5450351643238438,0.06358498614757924,0.6958065936744351,-1.2180754874080435e-05
-0.17135304085774195,0.7529183269344166,0.4071758230251312,1.5439446914463515,0.06353304293749495,0.6958868061287138,-1.2151436619589617e-05
-0.1700733410242945,0.7510728062599297,0.40245215241288257,1.5428336035024275,0.06347964303187315,0.6959635721965469,-1.2122466033659407e-05
-0.16834609685895252,0.7478825396709592,0.3944808798356787,1.5408194286761239,0.0633904511914345,0.696179851767238,-1.2072206338586966e-05
-0.1661377998236313,0.7454299072443673,0.3876897430805819,1.5394338582301828,0.06331601393050956,0.6962681482124786,-1.2031743701790276e-05
-0.16478875517964386,0.7437766559271886,0.38313106294770627,1.5384469170458903,0.06326376550900203,0.6962803648186693,-1.2005792697777906e-05
-0.1634986063923325,0.741542793121134,0.3772254577127523,1.53700426317819,0.06319483286682637,0.6963313754446476,-1.1887482209260725e-05
-0.16233631334474818,0.7400430500667792,0.3730253519880744,1.5360820116809721,0.06314625642055383,0.6963207338884914,-1.1948642169912205e-05
-0.1610707982323767,0.7376650530703905,0.36663694444414574,1.5345143631584222,0.06307192641201986,0.6963663310564909,-1.1913125581131112e-05
-0.15942943657681585,0.7353506616977876,0.3600559440646105,1.533060371842108,0.06299691410312747,0.6963835105813416,-1.1878014697153105e-05
-0.15769406085026194,0.7327667817771255,0.35262985665956315,1.531410876625472,0.06291239920662406,0.6964009437417804,-1.1838942554298626e-05
-0.1559634353014001,0.7307929910278679,0.3465942889453588,1.5302059772308008,0.06284395338693649,0.6963541180067052,-1.1809316026401007e-05
-0.1544190095058351,0.7287455440097599,0.34038023851515575,1.5289010383130366,0.06277252386377974,0.6962997920237628,-1.1699273601450955e-05
-0.15314949394424815,0.7274057152198132,0.3360916924906663,1.5280786620719011,0.06272336521963595,0.6962194164496012,-1.1679208246739847e-05
-0.15179403757150833,0.725462648503604,0.33008416935375084,1.5268078761424642,0.06265447940735935,0.6961474862616726,-1.165069497854887e-05
-0.1505226241574853,0.7241749556448829,0.32581013088296373,1.5260175252269228,0.06260610883306761,0.6960577328760849,-1.1631582609084035e-05
-0.14897614501891088,0.7216989565224967,0.3180111848796576,1.5243690920923898,0.06251883435539973,0.6959911813723272,-1.1666660225451153e-05
-0.1470885792029355,0.7201024417277919,0.31231965040174625,1.5234330924020982,0.062456825165015495,0.6958732503600933,-1.1642233847197758e-05
-0.14549642318301448,0.7184603758808299,0.30657535196494834,1.5224048517058915,0.06239307627300761,0.695743034534912,-1.164120402474822e-05
-0.14405187896715876,0.7170451141109515,0.30149446469598473,1.5215205201654696,0.06233689618566984,0.6956079634609393,-1.1621261259087134e-05
-0.14268634112367984,0.7156849730257981,0.296546436180984,1.520661819781143,0.06228234367835572,0.6954683072396106,-1.1602214803119182e-05
-0.14113952278696562,0.7139866464202074,0.2903549049716778,1.5195684722335194,0.062214975749714796,0.6953125131817091,-1.1555703535393036e-05
-0.1396499623627836,0.712526291249338,0.28480252196602684,1.518659949857974,0.062146584834461116,0.6952089001571178,-1.1534476599628363e-05
-0.13832076126891835,0.7104703058882373,0.27718169674175286,1.517360672636106,0.062023551455863135,0.6953823177768603,-1.1501801981061988e-05
-0.13682043488083373,0.7085746089456952,0.26966834385629124,1.5162737822981045,0.061892651586274994,0.6957662355735286,-1.1395742695263777e-05
-0.1354534182746283,0.7072932083267949,0.26421601037276776,1.5155821961058482,0.061794853345583434,0.6959979092750173,-1.1371961875283887e-05
-0.13406203804908046,0.7058993997827772,0.2582088334486583,1.5148191203416017,0.06168704531320124,0.696253030308867,-1.1346445099924551e-05
-0.13256597213861898,0.7041680319318635,0.2506777273008698,1.513848398340091,0.06155267497986827,0.6965790333845359,-1.1412180357162072e-05
-0.1312025433051378,0.703003350836906,0.24521553298507381,1.513236023365864,0.06145211484106472,0.6967704656146765,-1.1391083734046958e-05
-0.1297219771176792,0.701495432683438,0.23812302953495124,1.5124163887489868,0.06132276117701707,0.697030579435272,-1.1364390020141002e-05
-0.12828673652933364,0.7002465060057759,0.23191029941252417,1.511762324253369,0.06120753878135954,0.6972269449059372,-1.1342096287947356e-05
-0.12687769998699405,0.6990602400951316,0.225789894338555,1.511148427340805,0.06109313930428417,0.6974051599619946,-1.1222382176434564e-05
-0.1256528839363611,0.6981818614852706,0.22101721431150878,1.510712913316227,0.06100289458073327,0.6975231748656476,-1.130553622807895e-05
-0.12450974480846533,0.6973773357702218,0.21652400203962952,1.510317127038861,0.060917486944386035,0.6976271556703777,-1.1292613119273653e-05
-0.12310418585248062,0.6959733666568262,0.20878524102233254,1.5095826714766512,0.06077382535848752,0.6978331497355974,-1.1168506711456416e-05
-0.12179575708502988,0.695081126784129,0.203386669489106,1.509157304387477,0.06067068924954366,0.6979336527838287,-1.1151987346913472e-05
-0.12050233364404761,0.694196955214248,0.19786044724019014,1.5087398319203986,0.06056512271177272,0.6980280508920664,-1.1135949807616896e-05
-0.11932000875934001,0.6934627260512203,0.19305174921278923,1.5084050869343901,0.06047255851701472,0.6980961756466915,-1.1122619892667274e-05
-0.1180104660590855,0.6925316910142794,0.18684566523466994,1.5079738547279913,0.060354484621655935,0.6981849423311948,-1.110614945876165e-05
-0.1167489512648352,0.6917471145237979,0.1812931142464791,1.5076290181702268,0.06024817840545893,0.6982445452629182,-1.1151296072320349e-05
-0.1154140822173435,0.6908756297283274,0.17487626325751027,1.507251818175476,0.06012553475527227,0.698303521956479,-1.1146640883197279e-05
-0.11407538181761101,0.6900894111420097,0.1686935010515258,1.5069309689472492,0.06000673409409707,0.698339719420705,-1.1072767443387477e-05
-0.11278405940261482,0.6894173509465222,0.16305052061905023,1.5066753714280106,0.05989778878086849,0.6983547321324721,-1.1067522789787176e-05
-0.11166937181260739,0.6889263525261651,0.15865063593155782,1.5065040161291563,0.0598122407137307,0.6983527210992841,-1.1123810146784763e-05
-0.11033898570304856,0.6882029833567316,0.1519997733989289,1.5062496201349038,0.05968516975718252,0.6983500940919471,-1.1141354277377502e-05
-0.10944241579630098,0.6878919382741762,0.1488092600188473,1.506160580185238,0.05962222319225141,0.698330981098402,-1.1136064325789619e-05
-0.10804723118352566,0.687053400391596,0.1402446792658445,1.505900261498443,0.059461314417263544,0.6982996546240869,-1.112311744488892e-05
-0.10680606897905776,0.6866570071042366,0.13548994540590265,1.5058177103679382,0.05936838678006051,0.6982484711935788,-1.1116626473572921e-05
-0.1053658357659506,0.6860998534657581,0.12847013125177664,1.5057129166504133,0.05923449320374985,0.6981693494565553,-1.1108059878139898e-05
-0.10398883380599777,0.6856849588916356,0.12255721218588267,1.5056677423549827,0.05912047214520921,0.6980807557604622,-1.0994568277133965e-05
-0.10289174568272408,0.6854274485660854,0.11849654390184394,1.5056574303525245,0.05904131145390856,0.6980088740969492,-1.0990149724499076e-05
-0.10151414166350303,0.6850290431770549,0.11177602486101001,1.5056627153168076,0.058914354808435654,0.6978853130912599,-1.1037545015746275e-05
-0.10014948689852332,0.6847170035500687,0.10562573390944507,1.505708762344275,0.058797352622351085,0.697751666258057,-1.1052802094013714e-05
-0.09904644646122485,0.6845340834947304,0.10145778886896295,1.5057593179358557,0.05871690824292575,0.697650145073804,-1.0988693225577606e-05
-0.09804412415370667,0.684382873863159,0.0976695989763412,1.5058168503641394,0.05864439312531289,0.6975531789190725,-1.1095977733965867e-05
-0.09674414883081184,0.6841624984581287,0.09123733501465559,1.5059489967456168,0.058524392397035996,0.6973776403777867,-1.1091180305733417e-05
-0.0964127351870312,0.6841326511399695,0.0902432989079287,1.5059698172840648,0.05850492268776808,0.6973487243183492,-1.1090760388299259e-05
-0.09503961567370833,0.6838834324041168,0.07912563771404724,1.5063249000205818,0.05830547634680272,0.6969990635831413,-1.097856635823291e-05
-0.09348972567642821,0.6838228436203915,0.073488656030964,1.5065407062137668,0.05819915454454794,0.6967946941264707,-1.1090165801697083e-05
-0.09213334342629498,0.683795686104693,0.06861628255643026,1.5067435028883427,0.05810750910352258,0.696610706214555,-1.1090575339878228e-05
-0.09064243290983764,0.6838052699009474,0.06223881618628724,1.5070531923779011,0.057990434636182364,0.696354236540472,-1.109226621043291e-05
-0.08926038066740727,0.6838492422244791,0.056697300679653395,1.5073455572321288,0.05788864478252442,0.6961199784687322,-1.0982178697105383e-05
-0.08785599976303438,0.6839380233926748,0.05071397090584462,1.5076972877301857,0.05778045837653334,0.695852802876499,-1.0984858575646683e-05
-0.08656486212547243,0.6840431837898127,0.04556217127421558,1.5080184502284402,0.05768778729648005,0.6956143000204928,-1.1046634952549539e-05
-0.08534167111783209,0.6841703563767512,0.040701538429505746,1.5083423511788983,0.05760061509549441,0.6953798460502902,-1.110399609061119e-05
-0.08430480574877386,0.6842870520598483,0.03684025762429499,1.5086071029496706,0.05753126309628076,0.6951896753766258,-1.0993556801786042e-05
-0.08334686098007893,0.6844084847948242,0.03325991887717361,1.5088631485954727,0.057467883034277634,0.6950095911456717,-1.105574796245179e-05
-0.08233962301001707,0.6845660095215047,0.029260111221382168,1.5091696050397223,0.057397534593187416,0.6947999320782152,-1.111373392870263e-05
-0.08134578551586724,0.6847438534736465,0.025249656532619902,1.5094926905600712,0.05732748788636055,0.6945831712139254,-1.1003694729616598e-05
-0.08033040581844908,0.6849525344418153,0.02102756990891752,1.509851951368141,0.05725472532234832,0.6943474903405642,-1.1008521615174516e-05
-0.0793198994151183,0.6851817357594587,0.016802417960030347,1.5102280305165063,0.05718283304453031,0.6941051242355547,-1.1073576431819276e-05
-0.07836061587995768,0.6854121473158452,0.01288145292253784,1.5105891490238648,0.05711613953283923,0.6938744414089539,-1.1133165953580715e-05
-0.07724907303326223,0.6857464207677237,0.007820664514767373,1.5110936612250514,0.057031761210875054,0.6935619856932309,-1.114073113139824e-05
-0.07618766244890107,0.6860662327292824,0.003295663090008283,1.5115558830117592,0.05695645050451681,0.6932770939086694,-1.1032318711912126e-05
-0.07515362042553608,0.6863901151944871,-0.0010204857363014241,1.512010393759546,0.05688567778524245,0.6930001167789044,-1.1099727868391085e-05
-0.07418488828910608,0.6866996634329015,-0.004929413018619044,1.5124317192104657,0.0568216184273016,0.6927445439066995,-1.1161089332745178e-05
-0.07315836584541557,0.6870672256471133,-0.009249951189080008,1.5129205181066006,0.05675166419845823,0.6924528685632083,-1.1052806955014205e-05
-0.07216100351663002,0.6874337306697926,-0.01336345360598834,1.5133976038788663,0.056686119245955346,0.6921708333642949,-1.1121417749393459e-05
-0.07121432080215495,0.6877887817137065,-0.017173020929798,1.5138492016300145,0.0566255093939656,0.6919050243172631,-1.1183823354521394e-05
-0.07023881209717064,0.688183972861931,-0.02118805561781123,1.5143429994968214,0.056562304347910874,0.6916177463834892,-1.1075358113288303e-05
-0.06929647119155824,0.6885728877054555,-0.024999773223213673,1.5148213815937552,0.056503323382866455,0.6913416602129239,-1.114472374741382e-05
-0.06832358036637753,0.6890038318352287,-0.029015123136791665,1.5153434823411729,0.056441649570711405,0.6910432129011523,-1.1153464493318666e-05
-0.06736561355538928,0.6894403390435597,-0.032926963750755434,1.515864049345982,0.056382076627860656,0.6907474705844221,-1.1217607414515385e-05
-0.066358967336698,0.6899342551566647,-0.037142359375085476,1.5164454889463892,0.05631868185738309,0.6904206476722399,-1.1110161232785742e-05
-0.06537836626811444,0.6904180232524544,-0.04114864440211541,1.5170071641045464,0.0562595318330219,0.6901069310953671,-1.1181805762205954e-05
-0.06439599357145642,0.6909204604396368,-0.04515249455779902,1.517582637140844,0.05620068199137851,0.689787207366015,-1.1202863662518325e-05
-0.06341126769227312,0.6914402115189766,-0.049153678595516226,1.5181707799076243,0.056142756566909036,0.689462772613739,-1.1221262525396014e-05
-0.062301638098004375,0.6921010366504259,-0.05396825538283334,1.5189147850961486,0.05607455656120308,0.6890583031265267,-1.1204077292603642e-05
-0.06134996156988404,0.6926090083269871,-0.05765090939463846,1.5194733993395948,0.05602244039888582,0.6887527302016387,-1.1297539566079706e-05
-0.05990859410704896,0.6941866764071483,-0.06734722132149606,1.5212642492679977,0.0558931843609054,0.6878220047832801,-1.1208089511605124e-05
-0.05815032804127629,0.6954598494536866,-0.07517097373402848,1.5226414003149413,0.055790014393098275,0.6870966110008627,-1.1352603558556495e-05
-0.056336654014431,0.6967096430157671,-0.08260279525138614,1.5239600782087672,0.05569412610251767,0.6864035469616141,-1.1376703909604657e-05
-0.054585078794732844,0.697836666556487,-0.08916860420578399,1.5251194170597486,0.05561126763798807,0.6857943777383007,-1.1398322788735982e-05
-0.05282879184830591,0.6990336399171406,-0.09584328190943214,1.5263385084625432,0.05552953854049747,0.6851600358945751,-1.1421224759722293e-05
-0.05129029522664119,0.699977634454986,-0.10109597599222919,1.5272732165455158,0.0554663976187042,0.6846718155046201,-1.1439220996223298e-05
-0.04973414138713217,0.7010279160896955,-0.10667600342114714,1.528312030511512,0.05540108469159133,0.6841355525600337,-1.1337956228096857e-05
-0.048209308221119684,0.7020937825299516,-0.11216652673729222,1.5293582989705916,0.05533879781543849,0.6835995505883679,-1.13579554792409e-05
-0.04708589047363887,0.7027658345738335,-0.1157022520566171,1.5299960724830965,0.055299159847992385,0.6832697947852227,-1.1370543925970367e-05
-0.0455355868695424,0.7040241031672769,-0.12174037647977176,1.531229696779552,0.05523429045439787,0.6826489608029567,-1.1394140769560579e-05
-0.04401994821713817,0.7052122963254748,-0.12735011585390055,1.53237594903369,0.055175724946312954,0.6820733919836783,-1.1416354530169315e-05
-0.04259893142020843,0.7062841443981531,-0.1323527229178385,1.5333933594456504,0.05512489318414815,0.6815633006674728,-1.1436345836557393e-05
-0.04099255081096409,0.7076905157988724,-0.1385704012745137,1.5347407250583558,0.05506421705948661,0.6808968979503689,-1.1462496969372182e-05
-0.04005469208172219,0.7082778140790165,-0.14134497287433678,1.535269433890491,0.05503736732251063,0.680630085041317,-1.1473306333442679e-05
-0.038360972225232715,0.7099407590363835,-0.14828634246596373,1.5368589076913661,0.05497405879964212,0.6798545466126553,-1.1541562418670992e-05
-0.036654391998822256,0.7114758023161718,-0.1546491357041555,1.5382923880066652,0.0549177595345105,0.6791546107889763,-1.1531998146629974e-05
-0.0353695079939671,0.7123993583509467,-0.1586242817739283,1.5391162888115746,0.05488364536014867,0.6787484717110317,-1.1548916963199929e-05
-0.03352101422510945,0.714333761132445,-0.16612010583936776,1.540926041147574,0.054823022421208734,0.6778787578126986,-1.1584269145714643e-05
-0.03180927836795178,0.7157948686691853,-0.17191191260991534,1.5422391204798966,0.054778503144822466,0.6772446666062253,-1.1650485507885833e-05
-0.03039945323925508,0.7168735960035235,-0.17624315308722593,1.543180270269536,0.05474622632450643,0.6767887496944631,-1.1670452622958294e-05
-0.028246507553953748,0.7198087667230304,-0.18643581157763478,1.5459329471369934,0.05467601014866652,0.6754952346730771,-1.1684028715208683e-05
-0.026083352536650395,0.7216702849197096,-0.19334736058187474,1.5475487637954126,0.05463219407859654,0.6747266733522785,-1.175897028193873e-05
-0.02422799209537363,0.7231274224763844,-0.1988053766248532,1.5487757150770403,0.05459949763245753,0.674142685490434,-1.1785816435683216e-05
-0.022615761044644245,0.7243722691528758,-0.2034361686387678,1.5498096468022338,0.05457328725141153,0.6736521884501201,-1.1808732929274868e-05
-0.020929437043681,0.7258070066077789,-0.20857429526461413,1.5510157773764304,0.05454592286507953,0.6730852886057734,-1.1835049479103077e-05
-0.019009074311619578,0.7276934634298371,-0.21499815793841037,1.5526309077023255,0.054514229594678554,0.672334280496905,-1.1869707915224126e-05
-0.017381685529024082,0.7290874230234525,-0.21984554165142445,1.5537808169501517,0.05449205003244728,0.6717986613580731,-1.1977508944660542e-05
-0.015794069596530846,0.7304826060721199,-0.22461149795703683,1.5549282081596116,0.05447186027999518,0.671267015153048,-1.2003057717535626e-05
-0.0143572689384861,0.7317193482550168,-0.2288175331400497,1.5559323643495881,0.05445531443795737,0.6708030372711979,-1.2025735404819216e-05
-0.01284151056020022,0.7331078117481571,-0.23341442692254244,1.5570663194474186,0.054438362904043025,0.6702819997813938,-1.192549603246107e-05
-0.01111535948797382,0.7348490327847328,-0.2389770900936048,1.5585061815302659,0.05441995343598549,0.6696254429053559,-1.1957013356322932e-05
-0.00955732348225169,0.7363011914569029,-0.24365696019700067,1.5596767871553245,0.05440614875519323,0.6690923631131609,-1.1983378381152932e-05
-0.008045682332220139,0.7377071319703532,-0.2481481518489641,1.5608010864972632,0.0543945969399271,0.6685825590198391,-1.2053031404946069e-05
-0.006334436126339327,0.7394385389593161,-0.2535011116971875,1.5622001965624452,0.0543821675698517,0.6679516408658817,-1.208465032753736e-05
-0.004756494435441461,0.7409407024804953,-0.25817014567862717,1.5633873411195571,0.05437299294617759,0.6674174732760791,-1.2112108850104164e-05
-0.0031986597047755083,0.7424264892935959,-0.26274333326455945,1.5645528040633359,0.054365442033012634,0.6668950081856835,-1.2139252893561547e-05
-0.001837188998146111,0.743661504272656,-0.26656614153051716,1.565502243520287,0.054360188302740475,0.6664701898559997,-1.224367350172173e-05
8.520383007670773e-05,0.7457984323472902,-0.2727758975361496,1.5672124056542973,0.05435348561490638,0.6657113660955671,-1.2282381068651205e-05
0.0019275304308266072,0.7476657536040907,-0.2782650966536142,1.568662107406868,0.05434995604203863,0.6650697751498749,-1.2316430907155507e-05
0.0035287523502214313,0.7491534920143179,-0.2827025818902742,1.5697813726948562,0.054348766882638344,0.6645756256337796,-1.2343595495067916e-05
0.00539389710127125,0.751053825150934,-0.28817946529875105,1.5712341896772761,0.05434899993748754,0.66393780077511,-1.2296547590828766e-05
0.007040351328313044,0.7526019205414842,-0.2927002091558917,1.572382128248016,0.054350826694646415,0.6634352287562386,-1.2324808509767138e-05
0.00931663159265117,0.7552300825817371,-0.2998927017646418,1.5744177325159603,0.05435569423333231,0.6625495727060962,-1.2454040896336949e-05
0.011301877492584822,0.7571292894957846,-0.305294159914161,1.5758028606350685,0.05436242606946795,0.6619491784298503,-1.2407250957302551e-05
0.013165265264366788,0.7588658326181603,-0.3102277378039977,1.5770468285291663,0.05436996879285605,0.661411837630185,-1.2392118559745313e-05
0.015399228769024553,0.7611901352620203,-0.3165718173384908,1.5787513409714444,0.05438196916537752,0.6606796077316819,-1.2434275827644115e-05
0.017891557172825756,0.7638687782353619,-0.3237399546348758,1.5807116834606871,0.05439889148473398,0.6598421147943831,-1.2529989236398364e-05
0.019527999031152987,0.7652220615129384,-0.3276202340936587,1.5816077411545129,0.05441007815384591,0.6594615907968393,-1.2554928678909505e-05
0.021629767907741737,0.76722129391782,-0.3330691788917619,1.5829896756122013,0.054426524766753914,0.6588761881141512,-1.2544096188449316e-05
0.023432278943894325,0.7688286657657901,-0.3375063662133284,1.584064469529558,0.054441807295796174,0.6584236889413804,-1.2573523106240714e-05
0.02556357350029792,0.7709083669619838,-0.3430521735685339,1.585487850813661,0.05446225242384717,0.6578262907121699,-1.2611481448487893e-05
0.02812617939940676,0.7736357801526408,-0.3500808832236455,1.5873876069479307,0.05449046053317019,0.6570318282842935,-1.2661155101234556e-05
0.03002955356560122,0.7752891974261988,-0.3545730791847408,1.5884429249465573,0.054510986921771476,0.6565950123115067,-1.2691520022478642e-05
0.03243933956654832,0.7776573076994815,-0.3607201838122869,1.5900143684380552,0.05454036864294487,0.6559453991252875,-1.2734897908650566e-05
0.034544803349104924,0.7795586833478492,-0.36574916460691664,1.5912203471036737,0.05456676332226529,0.6554512276070694,-1.2899560121404363e-05
0.035540670481136516,0.7803165204355844,-0.367863726028987,1.5916578571778013,0.05457859848622526,0.6552742341049562,-1.2913665570657429e-05
0.03901045644134715,0.7847721806115002,-0.37838991767005403,1.5947955484631784,0.05463572550989593,0.6539830792596142,-1.2864854210370424e-05
0.04133234829716059,0.7865792359010673,-0.38329848376245934,1.59581586574033,0.054667767674450474,0.6535760054292927,-1.3017124413039483e-05
0.043302840949648314,0.7881134547978164,-0.3874441900657306,1.59667160972979,0.05469569833316967,0.6532366481777645,-1.3044671162809607e-05
0.04527870627562436,0.7897205343090752,-0.3916990041313788,1.5975808416232269,0.054724931408483,0.6528765860600352,-1.294380219718505e-05
0.047405162329174466,0.7915400609019692,-0.3964109579754913,1.5986288956513084,0.05475869956559176,0.6524627143941961,-1.3024792235860616e-05
0.04907811472289492,0.7929029241766177,-0.39998293421905196,1.5993840532133623,0.05478498323458503,0.6521671226871817,-1.3132812422433915e-05
0.05111943427998966,0.794692055924644,-0.40453467650777064,1.6004069903195015,0.054819200461730944,0.6517660618443859,-1.3164878475357966e-05
0.052640528717490476,0.7959393422331935,-0.40776706193069234,1.6010864101069835,0.05484444029162727,0.6515029049325003,-1.318777044101438e-05
0.054908247909589925,0.7980315043616635,-0.41295200760605155,1.602292041542695,0.054885423414319234,0.6510325582958032,-1.3143312198593549e-05
0.057302934248506965,0.8002401126745111,-0.41839247781441635,1.6035488857830655,0.054929759789185795,0.650544854768861,-1.3266338632966779e-05
0.059733423248034434,0.8024433468851679,-0.42381714472635146,1.6047746269784815,0.05497574554355289,0.6500732065988934,-1.3306840800808573e-05
0.0618868413696676,0.804294185631532,-0.4284312527352263,1.605759499943204,0.05501648032871831,0.6496993559501139,-1.3257867398586143e-05
0.06401354538601645,0.8061162293099864,-0.43295617960797816,1.6067154815464155,0.055057364261050346,0.6493387671670723,-1.3291224717271177e-05
0.06741767935152332,0.8095463775874405,-0.4409780105485259,1.6086611974641754,0.05513023903725145,0.6485938363683745,-1.3307085334979263e-05
0.06987983469665959,0.8115483520533671,-0.44597375626696234,1.6096388495392198,0.05517927599924555,0.6482351803775588,-1.3390867121820804e-05
0.07263192914376582,0.8138807043746175,-0.4516766134169732,1.6107946464813443,0.055235837755740924,0.6478105753508103,-1.3517748927327489e-05
0.07469253741809823,0.8154956989190847,-0.4557184990231429,1.6115366361806407,0.0552773361317902,0.647545220300505,-1.3547836107186129e-05
0.07742501188613193,0.8178175660889693,-0.4613354234469691,1.6126575598887607,0.05533559400007526,0.6471396935260705,-1.3507008212343408e-05
0.08132454481074003,0.8215044137195733,-0.4698759802179744,1.6145380588397638,0.055425268768494185,0.6464505196858603,-1.3575179389491154e-05
0.08429155625643059,0.8238382960011208,-0.4755979458528419,1.615548338914186,0.05548846112373429,0.6461007494854307,-1.3572928080129998e-05
0.08741778718460491,0.8263481324027362,-0.48167209256965826,1.6166341998639178,0.05555702530000328,0.6457270289644823,-1.3619967160316548e-05
0.09033084137921055,0.8286355779204788,-0.48722278139773056,1.6175840062336926,0.055621066422943066,0.6454068484679238,-1.366314683082237e-05
0.09284978594593252,0.8305565537067894,-0.49191402823844754,1.6183439037424074,0.0556765477755059,0.6451574631244892,-1.3744100952450822e-05
0.09569501328362229,0.8328001710843322,-0.4972982528336294,1.619246185742802,0.055740502496786526,0.6448598456647545,-1.3786404819526865e-05
0.09784891817875607,0.8344106607158164,-0.5012244345506218,1.6198459225461894,0.055787965839614095,0.6446698185915203,-1.3901921574799303e-05
0.1001711944348731,0.8361836481162763,-0.505496279642168,1.6205116038354204,0.05584011443029446,0.644458879538691,-1.3935581375967843e-05
0.1027100054243526,0.8381554708806016,-0.5101970384449404,1.6212536707973575,0.055898009287404626,0.6442242379746324,-1.3973052371163419e-05
0.10522141200966217,0.8400943383630555,-0.5148098494587758,1.6219650003722164,0.05595550460775378,0.6440030817069013,-1.4009895975775066e-05
0.10757527139828582,0.8418876038982548,-0.51907944079686,1.6226001955231046,0.05600915633668979,0.6438098559345562,-1.3914587487562358e-05
0.11028355609889573,0.8439905000333097,-0.5240306578189733,1.6233492237631735,0.05607207111419932,0.6435822833863485,-1.3954933299586969e-05
0.1120867337534035,0.8453085732729582,-0.527194796645329,1.6237740950690709,0.05611292712543836,0.6434616117504186,-1.3980247556055758e-05
0.11482096485839488,0.8474211476405635,-0.5321425723252844,1.6244972122619297,0.056177158227077584,0.643248787945141,-1.406272977977352e-05
0.11753754779175463,0.8494948388634418,-0.5369982107254581,1.6251800516033272,0.05624028605994624,0.6430527732815658,-1.4060539860416554e-05
0.12014378666404824,0.851453754408368,-0.5415935524138975,1.6257975691088093,0.05630093349574583,0.6428818648150703,-1.409826542797532e-05
0.12360666764437855,0.8541486861501175,-0.5478032360735892,1.626669972069351,0.056383268820330734,0.642636374877636,-1.4150079976182894e-05
0.12672806610262288,0.8564774078101545,-0.5532281964635075,1.6273575920101884,0.056456563448762154,0.642457375072178,-1.4235616836444365e-05
0.12983185035220846,0.858770128080776,-0.5585624990505229,1.6280046749793353,0.056528666645938586,0.6422955313955416,-1.4239573784990966e-05
0.1343114624692383,0.8622356094073735,-0.5664425525656256,1.6290289804666935,0.056636144292466106,0.642030101682856,-1.4434254125283985e-05
0.137229002449053,0.8642805997550065,-0.5712443498357702,1.6295113683891271,0.056702839654834136,0.6419331665401247,-1.4473963663164113e-05
0.14174833398632458,0.867643175944778,-0.578918113018025,1.630379208006766,0.05680929477445762,0.6417382210507618,-1.4539162123128335e-05
0.14476896716384147,0.8697315415167717,-0.5837943657125226,1.6308167055325846,0.05687792801822589,0.6416671232062123,-1.457983517649808e-05
0.14754615710404373,0.8716504523133484,-0.588257546029725,1.6312045951902165,0.0569409200615798,0.6416091822298036,-1.461719684847651e-05
0.15032732673548388,0.8735825614621451,-0.5927241783696422,1.631588017171885,0.05700416182341428,0.6415548482676359,-1.4565488900331047e-05
0.1542976738167976,0.8764354459291983,-0.5992029510055561,1.6321849736681644,0.05709567365132262,0.6414598216769711,-1.4620919264629606e-05
0.15836317267468392,0.8793262859586717,-0.6057558579868427,1.632745044281413,0.05718835936276356,0.6413854312185006,-1.4641748638410945e-05
0.16141078887121818,0.8814246595117528,-0.6105480603710189,1.6330949874606366,0.05725673238804152,0.6413597475343975,-1.4683197973042184e-05
0.16558340001161298,0.8843701266788093,-0.6171785550345472,1.6336048553459719,0.05735149600401357,0.6413152814916732,-1.477550687223328e-05
0.16959422475335462,0.8871678212675045,-0.6234680028277015,1.6340425543615797,0.05744132262953361,0.6412957604441951,-1.4830222226258627e-05
0.1744051701952838,0.8905522125288243,-0.6310063426003616,1.6345552744758702,0.05754894470220773,0.6412805878573931,-1.489641486873694e-05
0.17476336175138663,0.8910515451636094,-0.6318579052957585,1.6348407345712355,0.057588526393812955,0.6415401199282993,-1.4903292147927516e-05
0.1748320121502127,0.8915553826638156,-0.6325146689729131,1.635295608987998,0.05764210519792634,0.6419554851994871,-1.4875928759927604e-05
0.17474229308320943,0.891925805618027,-0.6329007036704519,1.6357291534311829,0.05769316870407959,0.642396012786179,-1.4910937427004e-05
0.1746544361282032,0.8922730953525706,-0.6332590809295269,1.6361515960576432,0.057743505688637065,0.6428536838361438,-1.4913078903333599e-05
0.17461617529702522,0.8924717368299468,-0.6334697547716015,1.6364034312807325,0.05777570030127954,0.6431675603042422,-1.5005366969411682e-05
0.17438919740539482,0.8930468583998454,-0.6340110522749418,1.6371518817247441,0.05785907875677232,0.6439614501780637,-1.4884760699551691e-05
0.17440972586965486,0.8931421873710068,-0.6341355824324317,1.6372695351233784,0.05787708344918041,0.6441587267648714,-1.4884794237168819e-05
0.17440090070377767,0.8933254963801733,-0.6343427863974425,1.6375203558852913,0.05791253948819808,0.6445511496451726,-1.488507988955945e-05
0.1743700614811896,0.8934620050654356,-0.6344789381039364,1.6377335045207868,0.057942900233495465,0.6448996059036203,-1.4917546781845203e-05
0.17431448970970465,0.8936377977755736,-0.6346423861954005,1.6380180334471985,0.057981701990251544,0.645359396553081,-1.5008458366772004e-05
0.17428236944232545,0.8937588462299173,-0.6347568640778523,1.6382219362116448,0.05801045955886153,0.6457141777484559,-1.5007977538950001e-05
0.17419831310717537,0.8939899366053741,-0.6349609825113731,1.6386188812177949,0.05806394120964775,0.6463837573051254,-1.4915771923362797e-05
0.1741595099502078,0.8941690703975693,-0.6351314554879792,1.6389404772435636,0.05810962350923621,0.6469926780110651,-1.4914559658407711e-05
0.1741241367977171,0.8942883067165797,-0.6352327058470193,1.6391885448929786,0.05814580007773351,0.6475048693006391,-1.4913041350261835e-05
0.174089034198313,0.894391793126811,-0.6353140032809961,1.6394241331106985,0.058180314382847875,0.6480151342134182,-1.491129418251802e-05
0.1740577193601105,0.8944791000310159,-0.6353780286721875,1.6396406935729733,0.058212180467723584,0.6485066629907985,-1.4909427043185985e-05
0.17402777182454088,0.8945566585613935,-0.6354301473734099,1.639850593063736,0.05824306048341832,0.6490026667526108,-1.4907386561624492e-05
0.17399554376656923,0.8946341746310624,-0.6354764724727762,1.6400783634784224,0.05827608392200112,0.6495596033307169,-1.4872155202461101e-05
0.17397002008267126,0.8946915204403547,-0.6355058871180539,1.6402689609123184,0.058303928329897836,0.6500477109542615,-1.4869866221012273e-05
0.17394240446083664,0.8947470299928231,-0.6355285206697348,1.6404739794719472,0.0583335780129115,0.6505890781656669,-1.4867208060209691e-05
0.17391857283562295,0.8947900095249519,-0.6355405941242935,1.6406525527597564,0.058359026034009,0.6510753632875623,-1.4864720927931785e-05
0.17389452966422425,0.8948286297751311,-0.6355465291349613,1.6408336262647971,0.058384718459213225,0.6515815035109558,-1.4894858475500428e-05
0.1738691635011449,0.8948661315463236,-0.6355470266784611,1.6410216548281609,0.05841006905965074,0.6521143181777731,-1.4859183237625473e-05
0.17384745561280468,0.8948938851577086,-0.6355430671461404,1.6411804910839782,0.058431442226297925,0.6525736560184265,-1.4889477744972623e-05
0.17381993146684582,0.8949272929020573,-0.6355348987370322,1.641379642470909,0.058456906366577854,0.6531528620309954,-1.4977723252762587e-05
0.17380038258471409,0.8949489339396033,-0.6355274033906078,1.6415142266062102,0.058473356060260606,0.6535455800476457,-1.4975548507045744e-05
0.17375588553821775,0.8949976655754117,-0.6355093571506227,1.6418212070985474,0.058509615253406366,0.6544430892518376,-1.497058265087503e-05
0.17372939909032947,0.8950258251202952,-0.6354975342612743,1.642002516721706,0.05852928648121747,0.6549743676254396,-1.4967639417662326e-05
0.17370878244989196,0.8950478950335254,-0.6354870425821879,1.6421506482610697,0.05854462086943446,0.6554124702985948,-1.4965208228190363e-05
0.1736847816806426,0.8950732676796198,-0.635469919066872,1.6423443111265126,0.0585641314852019,0.6559991267835512,-1.4961902622623313e-05
0.1736668243664914,0.895089386547121,-0.6354534252258617,1.6424826396598329,0.058577076822014185,0.6564231515222856,-1.4835088071762925e-05
0.17364981876687136,0.8951026378388907,-0.635430924453412,1.6426364259160886,0.058591363686351094,0.656910644563804,-1.4832218584004409e-05
0.17363529724981674,0.8951102174864864,-0.6354056206349599,1.6427708725366346,0.05860335154231411,0.6573481007343327,-1.4829584092268533e-05
0.17362298974556367,0.8951101692148633,-0.6353647443675108,1.6429370460626886,0.05861824763423762,0.6579219180971227,-1.4950433345539693e-05
0.17361210235146984,0.8950991131206933,-0.6353066058393146,1.6431051362839968,0.05863237640596175,0.6585362019285075,-1.4821998209235687e-05
0.17360178939204918,0.8950806192076257,-0.6352462496794091,1.6432415898461645,0.058643605266010645,0.6590569321295625,-1.4851255044412426e-05
0.17359424038514248,0.8950618990463068,-0.6351922637563012,1.643349425399233,0.058651697272626535,0.6594807364751922,-1.4848297180236614e-05
0.17359017193916948,0.8950386170029097,-0.6351355702205064,1.6434481388193216,0.05865875822112887,0.6598891252872257,-1.4937106810997136e-05
0.17359022153178838,0.8950058622399517,-0.635067484641004,1.6435465626780115,0.058665771234879927,0.6603288040937567,-1.4933879805667516e-05
0.17359222133855123,0.8949654515971996,-0.6349897727985949,1.6436391064255167,0.05867191301768937,0.6607720055370443,-1.4806000853795354e-05
0.17360096026502791,0.8949054016723075,-0.6348877393574002,1.6437341223946822,0.058678426094999736,0.6612863669963449,-1.4801885389381653e-05
0.17360611542980386,0.8948431596000459,-0.6347835753464439,1.643814341269044,0.05868344144674964,0.6617482020265273,-1.4798060020915216e-05
0.17362870666612285,0.8947429661083639,-0.634633483858325,1.643898176467653,0.05868898479095108,0.662352032773315,-1.4792797740525998e-05
0.17364185825710265,0.8946385122676865,-0.6344747108627278,1.64396826518397,0.05869293093471217,0.6629035816243816,-1.4787758976453347e-05
0.17365635430797166,0.8945336393221996,-0.6343195459522102,1.644025353264773,0.05869594820548851,0.6634114317695996,-1.481568800976163e-05
0.173678250440795,0.89441492722466,-0.6341495947741453,1.6440729964276013,0.05869789284607041,0.6639346559575454,-1.481059980878996e-05
0.1737052512093049,0.8942790848531077,-0.6339598276633689,1.6441102858805214,0.058698919133268745,0.6644743813936609,-1.489713474711607e-05
0.17373565928883483,0.8941280292839577,-0.6337521149511796,1.6441364535766905,0.05869914655920638,0.6650210396010294,-1.489143205990473e-05
0.1737562381809088,0.8939962800055525,-0.633567263708696,1.6441562488873664,0.05869837978814285,0.6654787267463274,-1.4761913567973295e-05
0.17378754049818568,0.8938461002773161,-0.6333647434245737,1.6441652569108474,0.05869714674778059,0.6659630898078861,-1.4756592217501918e-05
0.1738243604539358,0.8936788100138262,-0.6331426255759682,1.6441636509069841,0.0586951878014732,0.666464081733027,-1.4750911996763705e-05
0.17387002618578062,0.8934835165973789,-0.6328876274777837,1.644148129324809,0.058692342011630316,0.6670043454280243,-1.4744560692392383e-05
0.1739583529016322,0.8931837829043578,-0.6325147636520523,1.644088882393544,0.05868783112943454,0.6677347745443969,-1.4767945059723786e-05
0.17398047790333404,0.8929766039524827,-0.6322310719841306,1.6440628441826748,0.058683542289514,0.668233126061275,-1.4761542777463887e-05
0.1740664063933064,0.8926594571257844,-0.6318343597511724,1.6439834429923952,0.05867673391441919,0.6689350146558581,-1.475226125702278e-05
0.1741311348732557,0.8923409805455291,-0.6314238921875326,1.6439017830729856,0.05866916073094686,0.6695997202150465,-1.4743116897975028e-05
0.17420271029708978,0.8920104915038154,-0.6310021100233145,1.643807275700964,0.05866059090670106,0.6702613309014627,-1.4733811822154053e-05
0.1742786904490865,0.8916666250606742,-0.6305656077732609,1.6437000205966505,0.05865107901632527,0.6709201144965737,-1.4724307092706113e-05
0.17436169539118218,0.8913021511281789,-0.6301051676085851,1.6435766698348662,0.05864019169110524,0.6715880275995163,-1.468195865061972e-05
0.17444007068355383,0.8909388208173281,-0.6296459661397167,1.643448903501504,0.05862934542618081,0.6722285436212401,-1.4797390216259032e-05
0.1744673367498626,0.8907260324496038,-0.6293633492731976,1.6433849245165044,0.05862197455170559,0.6726143428490232,-1.4791613059728093e-05
0.17469209278729814,0.8901208166919874,-0.6286647985456995,1.643098972066336,0.0586042023546236,0.6735657443959084,-1.477647672487592e-05
0.1747093960119077,0.8897769804876337,-0.6281950986535136,1.6429828127399944,0.05859283905381574,0.6741027299451705,-1.476758043938986e-05
0.1748429043830848,0.8892545224603845,-0.6275529522723318,1.642751262613304,0.058575894917824556,0.6748861908718684,-1.4661584403441452e-05
0.17505370431611933,0.8885252367389755,-0.6266758989599657,1.6423943071111164,0.05855287342800786,0.6758961355193245,-1.4612071582043029e-05
0.1751384965156806,0.8879314151241173,-0.6259049142539856,1.642136746811814,0.058532959843413224,0.676703908906255,-1.45975180272373e-05
0.17538656309883915,0.8870951180826996,-0.624904961640107,1.6417046613678608,0.05850541170962664,0.6777889296731212,-1.4577705393925555e-05
0.17552809580603057,0.8862945203060804,-0.623886103729852,1.6413203464750428,0.05847865296247612,0.6787861427654214,-1.4590145897663831e-05
0.17560176589729348,0.8857595601252726,-0.6231876879738145,1.6410799597242134,0.05845784213663485,0.6794796246060786,-1.4577102150248322e-05
0.17574739368735948,0.8851589278722178,-0.6224445768300075,1.6407793558426205,0.058434287894379544,0.6802432911229612,-1.4562725447753166e-05
0.17583254374880397,0.8846978989298968,-0.6218559826191186,1.6405592254884667,0.05841534371927182,0.6808270905781271,-1.4551640470372718e-05
0.1760999190694701,0.8838780533404185,-0.6208888979363518,1.640098406296481,0.0583848690745592,0.68179162622073,-1.4532681908541178e-05
0.17628485960821472,0.8830271739265401,-0.6198257706080623,1.639645150827021,0.05835405070487898,0.6827426362744182,-1.451296970689242e-05
0.17644687144301052,0.8822332523259035,-0.6188249933071912,1.6392248756304495,0.058324111864251904,0.6836232641396514,-1.4494587591507013e-05
0.17658587425492112,0.8815322134784944,-0.6179359114757652,1.6388553474079997,0.05829610737096225,0.6844005974627345,-1.4447621609292582e-05
0.17687140098873577,0.8804563111498283,-0.616623548749712,1.6382370901078556,0.05825766138639654,0.6855171658579069,-1.445402567412657e-05
0.17694660281194619,0.8794821688868222,-0.615313927873788,1.637739951168932,0.058223022014448844,0.6864808238215181,-1.4401292924404174e-05
0.17702385531462017,0.8786490805863068,-0.6141994920954721,1.637312278526708,0.05819160119159417,0.6873152443648163,-1.4382292250481044e-05
0.17724674832589926,0.8774974502971036,-0.6127351533856311,1.6366622425377093,0.05815037881852625,0.6884296256911853,-1.4386816348910259e-05
0.177347546461311,0.8764337712556509,-0.611311031825319,1.6360976062132195,0.058111860614727284,0.6894327834961471,-1.4362703028680812e-05
0.17743810796033,0.8754992619898943,-0.6100573115633239,1.635601955186651,0.05807619959135035,0.6903190494527163,-1.4341461070266348e-05
0.17755533552845026,0.8745652438325644,-0.6088191343722418,1.6350938436368274,0.05803996796662414,0.69119873437094,-1.4320313750815217e-05
0.17771379831666856,0.8735159524474403,-0.6074438586142623,1.6345060991034757,0.05799997907266974,0.6921656859328147,-1.4296805650459987e-05
0.1777853058223453,0.8726701260294369,-0.6062957963680509,1.634054263517747,0.0579665499375448,0.6929416448663845,-1.437315329866351e-05
0.17793951844281253,0.8716564152573705,-0.604961706860311,1.6334805453880907,0.05792700220443603,0.693857552801421,-1.422555337704523e-05
0.17879026616531224,0.8690778060109103,-0.6018756752715255,1.6317811427848792,0.05784646235369628,0.6959874170198876,-1.4170494127441202e-05
0.17842448350668416,0.8680049169210395,-0.6001153263614798,1.6313538969188084,0.05781031117531299,0.6968415792845946,-1.4270740846811236e-05
0.17846209519527267,0.8668853006870796,-0.5985389645404542,1.6307629709887514,0.05776437019519243,0.6978158554398393,-1.4245514592836628e-05
0.1787926411207037,0.8652679964246328,-0.5964372705029604,1.6297907276207555,0.057700896949902436,0.6991931517725218,-1.4084786411849848e-05
0.17884063802901196,0.8639843457963119,-0.5946247065407588,1.629097393298725,0.05765019838020269,0.7002627965515247,-1.4056013572627535e-05
0.17960062786409647,0.8613506079858659,-0.5913322813908053,1.6273871275099436,0.057559320535324865,0.7023597221423499,-1.3999397534547597e-05
0.17928139416110955,0.8599020622625639,-0.5890298529737388,1.6267228774402724,0.05750718006040767,0.7034717289561119,-1.396620416738159e-05
0.1793327410276877,0.8588144960379358,-0.5874767360378481,1.6261331486371189,0.05745764794373809,0.7043879722280577,-1.394163281620564e-05
0.17958732083292084,0.8573788546147698,-0.5855445984633487,1.6252758298956573,0.05739531584270807,0.7055738766094253,-1.3909863081806861e-05
0.17975057022980678,0.8557062701072615,-0.5832052608981684,1.6243088565270414,0.05733004378635975,0.7068853776815907,-1.3997988212111068e-05
0.17974764750745376,0.8540943479093333,-0.5808385038805195,1.6234268201205984,0.057269418142723794,0.7081119538173901,-1.3961942870288624e-05
0.179758523724332,0.8525176000896169,-0.5785223149795176,1.6225565993570044,0.05720924332601296,0.7093071237031863,-1.3926659077512227e-05
0.17982364764885972,0.8507466832589063,-0.5759443771092547,1.6215532181643884,0.057142808534868195,0.7106319666782799,-1.3762010125262236e-05
0.1797660952681781,0.8492527133056029,-0.5736877925040718,1.6207464916005847,0.05708598049921498,0.7117417473707679,-1.3853580512090957e-05
0.17977131075602415,0.8477497173532118,-0.5714477353760294,1.6199108806298028,0.05702733100241275,0.712860507715976,-1.3819895521294256e-05
0.1800166929070901,0.8454142509491209,-0.5681104931555554,1.6185102226278518,0.05694438269737301,0.7145506479993706,-1.376831824728697e-05
0.1798035867693022,0.8436326775236012,-0.5652887863057057,1.6175798642557835,0.05688113426186092,0.7158098899767733,-1.3727847032463103e-05
0.17974569789677997,0.8420330873751434,-0.5628254786301827,1.6167027370599705,0.056818432589898826,0.7169706829678564,-1.3691647196445444e-05
0.17966841522788002,0.840811727962504,-0.5609122892494556,1.616046562920407,0.05676722944876822,0.717866142825188,-1.3538410857272254e-05
0.17981538426000032,0.8389006800947465,-0.5580867936869423,1.6149168785118526,0.0566931088310163,0.7192443688673436,-1.3621024089971456e-05
0.17972429226757924,0.8372375775558858,-0.5554713407788796,1.6140044216262117,0.05662956518490336,0.7204192848960149,-1.3457825850160532e-05
0.17971015154761982,0.8354651429498574,-0.5527241282991149,1.6130019575946255,0.05656124694014775,0.7216722253416314,-1.3417623671685419e-05
0.17965452565765183,0.8337751037024956,-0.5500638966747013,1.61205855557093,0.05649594712088124,0.7228606637875625,-1.3403491284869062e-05
0.17954848678914548,0.8320031025702921,-0.5472298527753123,1.6110795923113361,0.05642948277949955,0.7240875644170872,-1.3362914325298902e-05
0.17931999375103125,0.8305451234881627,-0.5447946859137112,1.6103188085863511,0.056374950232644494,0.7250854456947611,-1.3329008869078507e-05
0.1791362836384831,0.8290424734079522,-0.54230707305459,1.6095156237881598,0.056318218813245835,0.726113969422844,-1.3396124241893403e-05
0.17899710199288243,0.8271403949910123,-0.5392049252465885,1.6084607004128593,0.05624990117085993,0.727400692314859,-1.3250340183290632e-05
0.17873656719621156,0.8253118998679829,-0.5361238212807073,1.6074836695625763,0.056185711485492895,0.7286199889839473,-1.3310438959024395e-05
0.17851225707279816,0.8231558356354913,-0.5325228659021723,1.6062986073305066,0.05611178855478194,0.7300488155599778,-1.326077841490303e-05
0.1781574782722215,0.8213771419630422,-0.5294206093068423,1.6053741388443736,0.05604941081246917,0.7312213626440842,-1.3222938648915772e-05
0.17788050449420556,0.8195342830134233,-0.5262446491712618,1.6043859971685084,0.05598277639675331,0.7324435189223664,-1.3179925163697703e-05
0.17760668635067134,0.8175596348730156,-0.5228352224200412,1.6033158222486827,0.05591210907626998,0.7337466269528585,-1.3133796613828963e-05
0.1773001022073286,0.8154447652589463,-0.5191504198677155,1.6021688254617308,0.05583790430200164,0.7351314000744962,-1.3084282704411976e-05
0.17692392547596913,0.8135628141926752,-0.5157793997610973,1.601178541239789,0.0557705034305096,0.7363604185917909,-1.3039828379746154e-05
0.17660777935123306,0.8114849155210795,-0.5120956395052971,1.6000511679277407,0.055695690014965216,0.737718503614639,-1.2991001188566997e-05
0.17629046883779864,0.8087326897141471,-0.5072471104899661,1.5985149682793196,0.05560434011781101,0.739488861779523,-1.2926329635121192e-05
0.1754413961977077,0.8066017123776268,-0.5030678217203253,1.5974981179198444,0.055539563999188246,0.74081230899428,-1.2745017095028288e-05
0.1754413961977077,0.8066017123776268,-0.5030678217203253,1.5974981179198444,0.055539563999188246,0.74081230899428,-1.2745017095028288e-05
0.1743417677248722,0.8034156859258328,-0.49685545886717275,1.5959315304924662,0.05542492575380642,0.7428505216876946,-1.2797464466807185e-05
0.17388108044468797,0.8011808728490895,-0.49265927314974345,1.5947317174335813,0.05534750452284776,0.7442772380441172,-1.2743892400024492e-05
0.173193463667614,0.798291170132897,-0.4871299229616035,1.5931907328257378,0.05526018483791528,0.7460749166561476,-1.2543232628559053e-05
0.1721987035403041,0.7958755753138753,-0.4821828050351833,1.592016452178803,0.055188748650888186,0.7475562753835421,-1.2484327876371992e-05
0.17153364148370187,0.794518307013659,-0.4793042229221749,1.5913901317934087,0.05513950577044113,0.7484106096922982,-1.2581189798410719e-05
0.1709534601085574,0.7924274468448225,-0.47512798349444285,1.5902947977130433,0.05506382833539192,0.7497377694371847,-1.239938811359309e-05
0.17023364613224246,0.7901639816064776,-0.4705128105968024,1.5891268767834763,0.05498795546159396,0.7511532790762541,-1.2474177609078652e-05
0.16944100593990452,0.788144561573433,-0.46625612623902946,1.5881217460804198,0.0549199039550512,0.7524098800620447,-1.2423908676062467e-05
0.16867510297791455,0.7853932363360192,-0.4606069039648837,1.58665757175208,0.05483160175366297,0.7541182169216682,-1.235612371086603e-05
0.16777832609090826,0.783850028433192,-0.45709601219475093,1.5859593186931509,0.054779964029529005,0.7550665438182156,-1.2267720412850736e-05
0.16709815922678928,0.7802858319393113,-0.44982444271479327,1.5839628599936857,0.054670735960969274,0.7572711948453259,-1.2234202761085555e-05
0.16556229868308137,0.7781687159613195,-0.4447014551886568,1.5830623631845935,0.05461372526436392,0.758527247586529,-1.2178542570850936e-05
0.1646760276205601,0.7764933169919095,-0.4408060148875048,1.5822703163246272,0.05454961187990026,0.7595755727402143,-1.20395419553887e-05
0.16389099230848103,0.7739772594593859,-0.4352627989878295,1.580934965016846,0.054457775128240016,0.7611548210442063,-1.2028363452820656e-05
0.16289394702803062,0.7723077291870633,-0.43122894071916207,1.5801635031010095,0.05439779929301025,0.762184851213668,-1.194497791257021e-05
0.16200994178371175,0.7695996400420002,-0.42510186401264516,1.5787237193043202,0.05430397847488955,0.7638690116667695,-1.2010871506262788e-05
0.1605670054885655,0.7661733831494324,-0.41702633328514604,1.5769601710720922,0.054208776429928385,0.7659390753277355,-1.1785841595113311e-05
0.1588000676549548,0.7635740864653693,-0.41033789814517974,1.5757746701562967,0.0541343718311138,0.767498683538137,-1.1715955015034751e-05
0.15746992387271863,0.7603468063941499,-0.4024477011986525,1.5740970359571493,0.05402813250441607,0.7694867170048276,-1.1767359836767355e-05
