fotiskoutsikos/xarm7_motion_planning/scripts/logs/2025-04-25_11-22-01/joint_angles.csv
j1,j2,j3,j4,j5,j6,j7
-0.1693505772333186,0.7000350353315916,0.6240053741194806,1.570771520373885,0.12330900078011275,0.8708085536600985,-1.3081851589547e-05
-0.02491101187087086,0.7000362160217897,0.4795659146493376,1.5707713341891285,5.794344450738009e-05,0.8708092862211725,-1.0362770436422863e-05
-0.009366860295937585,0.7001346088418963,0.2911669280812026,1.571004445565002,0.002496888406204434,0.8709127600225379,-8.809603318837844e-06
-0.019084165691119814,0.7005360272293988,0.1027683819755465,1.5713374060945196,0.005035552070792981,0.8709948723612007,-8.300336463484825e-06
-0.03283403836065446,0.7015646585403124,0.06744491667681629,1.5719760452602989,0.008718758808670124,0.8710758519424191,-8.351429448438807e-06
-0.046032730473225314,0.7029921521404541,0.09249369273706343,1.5726288641505892,0.011326796153626084,0.8709807651536732,-8.32503430903131e-06
-0.06392523443759313,0.7052740401720046,0.12440346648224399,1.5734383737499522,0.012520869021421355,0.8706438868306323,-8.316550392351019e-06
-0.06976078101308136,0.7070484478289192,0.14005734907465595,1.5742865768676575,0.011383447664745638,0.8704006756526779,-8.311701622965018e-06
-0.08617772902880194,0.7103105635373321,0.17069486971534875,1.575376117997667,0.010582491775926073,0.8697516960057206,-8.45381771696907e-06
-0.07958077270919617,0.711261825472592,0.171272625405833,1.5765085505903667,0.008688982646606114,0.8695120735128947,-8.326551967030582e-06
-0.09787862765479627,0.7155463289717519,0.20512179342322234,1.5776151932754763,0.011515793331236424,0.8675515200727695,-8.406833453378226e-06
-0.11125527181855954,0.7186614012457957,0.22683933571532933,1.578296353748911,0.011160086094694321,0.8667159533145359,-8.525579934470784e-06
-0.10130050208183405,0.7191755437500245,0.22262360082883426,1.579644492709253,0.00917443285759667,0.8663744550518171,-8.557053407187709e-06
-0.1124416635876031,0.7223472362398109,0.24250537705870112,1.5802326487171738,0.011344856732436348,0.8645320870309492,-8.523374722457788e-06
-0.12473774160148832,0.7256901074949909,0.26328218570915585,1.5803678027546022,0.011808793827976949,0.8617276005761907,-8.620942024251121e-06
-0.11613721058889048,0.7252933417472365,0.2578265593938669,1.5802917240061793,0.011100793991408509,0.8587619144165215,-8.716132836816826e-06
-0.12682218987680383,0.7286596251252044,0.27790895805450333,1.579787720409266,0.012709862477278122,0.8533518436232139,-8.866132298557261e-06
-0.12743435149019877,0.7305367856867662,0.28582515863975555,1.5797264479920443,0.012481995999686468,0.8487959640964213,-8.960086181453164e-06
-0.1370358652892092,0.7341946878777108,0.3046315813473246,1.5795928946420865,0.012735396442385749,0.8438442906802806,-9.136571843981756e-06
-0.12660036907254568,0.7338801176766871,0.29849185731060146,1.5798865075918975,0.01195051207747344,0.840083892951208,-9.068279450019645e-06
-0.13457147177644035,0.7372617929066099,0.31420555301122555,1.5802016717678224,0.013858745123916272,0.8365529161340124,-9.266844667621399e-06
-0.14587147473856366,0.7415869675543822,0.3345637133020327,1.5801726536252838,0.014445954716942211,0.8316286871427767,-9.424655739387333e-06
-0.13440226304529812,0.7409420117479231,0.3267278776098461,1.5806943149899322,0.013666334294336835,0.8281549741280738,-9.443724610314064e-06
-0.14351379648897655,0.7454625962497339,0.3450422050308477,1.5815623899284654,0.015721815514396553,0.8245938138159845,-9.62321623454443e-06
-0.15608145623029746,0.7509200828323044,0.36777314905321656,1.581812851371195,0.016143967432240558,0.8191806789646288,-9.722154336699873e-06
-0.14013046690450626,0.7488659296326929,0.35368818103060384,1.5825891387080944,0.01522001547337215,0.8163324426682701,-9.765447254395099e-06
-0.14949537785212463,0.7536298795030447,0.37097597492619894,1.5841477580742493,0.01689222532725232,0.8151888160375202,-9.902392707594743e-06
-0.15909642456748951,0.7582527293349024,0.38854678789088215,1.5843738237794422,0.017488435842190952,0.8105583014904578,-1.005752439287022e-05
-0.15241144416803998,0.7585614588286171,0.3856713238914873,1.585082822114292,0.017013890894173045,0.8073148686852116,-1.0080892973718392e-05
-0.16370306357171582,0.7648359572901748,0.4078127365939066,1.5855988959258323,0.01814803202302606,0.8007983098791334,-1.0319394939450888e-05
-0.15071742952915734,0.7664915152047653,0.4043172170842153,1.5878470163118497,0.01733576034424633,0.7940141195531139,-1.040681966291146e-05
-0.1703672099039446,0.7786220803113046,0.44155382532436604,1.5925135284243686,0.02027734186476593,0.7927072932493848,-1.0628525260791832e-05
-0.1662472841832887,0.7810905364301757,0.4442836774334866,1.5938476379470954,0.019844493375139827,0.7874619675915113,-1.0707225513328922e-05
-0.17369296848969018,0.7855217095082541,0.45792256018445165,1.5940869998178506,0.020439176067344356,0.7832186896573052,-1.0940913332646574e-05
-0.17176823559064314,0.7882435567116088,0.4623012104014128,1.5953192656212405,0.020143448846825507,0.7786180428253742,-1.1044045636232624e-05
-0.17853278253323435,0.7937530335295548,0.47731575185373565,1.5960893906456084,0.020565917439539838,0.7730293475587855,-1.1176986230765351e-05
-0.17504641541503574,0.7956954364745634,0.4791803532324286,1.5971527611945486,0.02034407863554666,0.768251446140856,-1.1279678260756043e-05
-0.18089456446687802,0.8021985225899355,0.4952674201317562,1.5982203175430136,0.021119183401657082,0.7604205413492195,-1.1512861594731305e-05
-0.1850207568415163,0.8072034450507815,0.5069878323807782,1.5992306248562906,0.02113616709596844,0.754971998199351,-1.1589228273045649e-05
-0.18065119143369301,0.8089093717249165,0.5076192668778372,1.6005096897930011,0.020917293119560476,0.7503490475278465,-1.168417008479139e-05
-0.18377063756654533,0.8123763482206234,0.5158121903697364,1.6009366079766467,0.0213531294541367,0.7459607178692709,-1.1877669248150369e-05
-0.18811888364694163,0.8166605872534785,0.5260225225692778,1.6015172677621914,0.021524058037813987,0.741390067953426,-1.1985506001899182e-05
-0.18480545084297972,0.8177321723424642,0.5260868044375071,1.6022964989670685,0.02142750791561987,0.7376172761164641,-1.2034876983868514e-05
-0.18831105774536727,0.8220972107655946,0.5358246508995039,1.6029535517782296,0.02170636509074786,0.7322832203142013,-1.2221469113171679e-05
-0.18906449195247443,0.8248859757822729,0.5410797559962468,1.6036663910711573,0.021705748547206305,0.7282981374873172,-1.2322965530664476e-05
-0.18958368593671793,0.8275219133301404,0.54588318470321,1.6043855846288366,0.021700103662950276,0.7244760365040595,-1.2368364590287229e-05
-0.19038493458613104,0.8305070465489104,0.5513784104207078,1.6051971210771674,0.02169929891740008,0.7203963258766937,-1.2430681528563525e-05
-0.19069820800769843,0.8332740098600668,0.5561733997794418,1.6060352991129676,0.021689821734605097,0.7164195394972586,-1.2613255495175224e-05
-0.1917195836272212,0.8359334502712663,0.5611475817987612,1.6067032077289474,0.021692006261964103,0.712991495911405,-1.266320676673871e-05
-0.19026376214030893,0.8384474165224702,0.5644425978762886,1.6077547228302995,0.021664712625494964,0.7082769748087516,-1.2754915984736215e-05
-0.19284871783513324,0.8418089701430294,0.571416791095162,1.6082316750839007,0.021726484632603515,0.7042854599726329,-1.2827660265557483e-05
-0.18945477669415123,0.8426560419224272,0.5708882712931969,1.6090025342185124,0.02169730710950102,0.7004902175620451,-1.2873242636324278e-05
-0.19125774397743012,0.8464844720687017,0.5781147135846307,1.6096818599093874,0.02186090946599517,0.6950246194820648,-1.3103514088008694e-05
-0.19459789531448202,0.8514840214070869,0.5879085753819435,1.6106169377759505,0.02190767730595322,0.689431091104157,-1.3253152205017216e-05
-0.1883942393948983,0.8506496819086129,0.5831075268203918,1.6114034669284178,0.02186420321849525,0.6862494544127813,-1.3212885155766685e-05
-0.18818876402059015,0.8534060570674278,0.5873862094836806,1.6119347567852893,0.022046698285286048,0.6805465095326282,-1.3326463338181327e-05
-0.1865729204667259,0.8574063053756822,0.5927397286658254,1.61305930297479,0.022275963394817744,0.671735405004739,-1.3502279394117522e-05
-0.18190054088670138,0.8585899087158673,0.5920771759206458,1.6134724293084632,0.022405294171415235,0.6636696130228321,-1.363863677994459e-05
-0.18791694158301553,0.8654104095891633,0.6051268294976566,1.6168772005246295,0.022386382201612598,0.665614917734624,-1.3732669919441776e-05
-0.18622185913523914,0.8672367257536564,0.6070370135013574,1.6170704096724418,0.022396584299112732,0.6591191470041284,-1.3753568861574195e-05
-0.18209201885790804,0.8676144602927991,0.6054252098467661,1.6171041086984772,0.022316809617939803,0.6524121945072396,-1.3833620601033658e-05
-0.18534334848268852,0.8721743920655696,0.6135395841651698,1.6195609740928507,0.02210740110268805,0.6535237126404727,-1.3889373082776046e-05
-0.18187036770244092,0.8720871731755322,0.6115931783908586,1.619412270660158,0.021973045851509276,0.6482445432292501,-1.3957228807370825e-05
-0.184393004040186,0.8763521814200841,0.6188050102355627,1.6218641789095782,0.021675146314074745,0.6491841573896879,-1.4068122085930668e-05
-0.17951401310155823,0.8758522237853015,0.6154916325739332,1.621636086273213,0.021428743620327317,0.6425967315270373,-1.4044790789924377e-05
-0.18582762949429465,0.8817489566520011,0.6271817945848674,1.6241514120698293,0.02102705836130614,0.6449453124553735,-1.4141454059313219e-05
-0.18495090516101342,0.8824848054960759,0.627859052109712,1.623923038312447,0.02089236834019914,0.6409137917527863,-1.4210752648402547e-05
-0.18311925076286695,0.8825977695561704,0.6271045027231272,1.623640408950826,0.020693288726959302,0.6368956073846501,-1.4256342746321593e-05
-0.18091391453875882,0.8825349231508506,0.6257298267709883,1.6239379757508496,0.020396720593953255,0.6348470106077722,-1.427296072353812e-05
-0.18238648121049472,0.8852010648013557,0.6300806011365356,1.6255471695838537,0.019935073683560844,0.6356797078188441,-1.4298772947896055e-05
-0.18016598365499092,0.8851889980602907,0.6287409634245433,1.6259805241437375,0.019582682700887588,0.6339279749984081,-1.4268399384675945e-05
-0.18205232203495036,0.8879068459047517,0.6334054251636934,1.6274988850125585,0.01909705903275949,0.6349355691113621,-1.4293510506746543e-05
-0.17960277858155127,0.8874107138906471,0.6313506273224005,1.6274525153137231,0.01876206950783388,0.6323745983043247,-1.4344655955511598e-05
-0.18157580044188304,0.8897720887690097,0.6355999651996482,1.6286649670786009,0.01831120252349816,0.633396393419682,-1.4375225411811243e-05
-0.17924569981817484,0.8892614112449762,0.6335822564990998,1.6286457667774714,0.01794387480208126,0.631134347308512,-1.4341683009178041e-05
-0.18092894076307697,0.8910831498329381,0.6369536231625634,1.629535009681831,0.01755803205376605,0.6320182979796511,-1.439083223786497e-05
-0.1796748758393365,0.8909555031376684,0.6360156528856455,1.629786020750191,0.01725577251801358,0.6313384422820381,-1.4402695138748811e-05
-0.18004528285663923,0.8916978879936686,0.6371790330012708,1.630288113173176,0.016981431615571196,0.6317249303395709,-1.4396744681732798e-05
-0.17974535651312618,0.8921208696401512,0.637504943695614,1.6307936548692732,0.016667053050946734,0.6319495616396491,-1.440606308555914e-05
-0.17969583956045998,0.8925876728647424,0.6380490716115306,1.631237612665796,0.016386463963706355,0.6322204620962557,-1.4359920097462009e-05
-0.17955812301952,0.8929720988372827,0.6384316816829072,1.6316505625752518,0.016109046981989117,0.63246258880294,-1.4359103915673188e-05
-0.1794551595080378,0.8933616287362662,0.638842112120626,1.6320577668831628,0.015825511843805984,0.6327233903611527,-1.4358133260117256e-05
-0.17925018198678,0.8939747271054621,0.6394595707168751,1.6327196434372313,0.015359984672827842,0.6331414743300501,-1.4356289776529252e-05
-0.17910971029019063,0.8946377417971974,0.640175386665347,1.6334200689111968,0.014821377195148422,0.6336612632612297,-1.4388381428531716e-05
-0.17897007080876737,0.8949688360110564,0.6404794037027299,1.63382826194273,0.014441410338089433,0.6340229285768775,-1.438483065108187e-05
-0.17890674023712894,0.8952978376341232,0.6408272922531335,1.63420976918811,0.014057702854821663,0.6344132368254858,-1.4392806034102534e-05
-0.1787768466806403,0.8955696718403363,0.6410581243410043,1.6345844777037701,0.013634949056812395,0.6348277486504204,-1.438731259906234e-05
-0.17874680216437255,0.8958073914224132,0.6413123642096981,1.6348864120088082,0.013255388108514232,0.6352288915289233,-1.4335334119763843e-05
-0.17864277476527857,0.8959520175928972,0.64140111590513,1.63514318295909,0.012881700229328885,0.6356006856585372,-1.432906184373195e-05
-0.1786340294539226,0.8961010784435803,0.6415580309457418,1.6353625113375054,0.012533827709432899,0.6359732166986936,-1.4357908026951804e-05
-0.17854715543330357,0.8961813341368323,0.6415753031240747,1.6355663289058233,0.01215589349081192,0.6363539581998463,-1.4350564327081372e-05
-0.17855078835694105,0.8962748275457795,0.6416680775871519,1.6357378980977426,0.011810343385219468,0.6367253845505276,-1.4356249036673319e-05
-0.17847491234164536,0.8962992146184856,0.6416216290876617,1.6358942146163216,0.0114358702516002,0.6371023871855419,-1.4348241895056901e-05
-0.17848870855324872,0.8963496634814838,0.6416693520432926,1.6360242148187485,0.011107369091231334,0.6374562988766517,-1.4294630733324709e-05
-0.1784307862372554,0.8963413275641008,0.6415988951168066,1.6361277854064031,0.010803576771707846,0.6377580567573373,-1.4322570645042276e-05
-0.1784370645206117,0.8963663865362275,0.6416079250289668,1.6362431361048264,0.01046284362812333,0.6381161612787425,-1.428059289310113e-05
-0.17838636323058754,0.8963504639564626,0.6415333711293378,1.636334669543377,0.010166477232615101,0.6384062759632858,-1.4308680683861041e-05
-0.17838710211467124,0.8963717619532083,0.6415292735356521,1.6364692474649356,0.009749165672022109,0.6388330241733717,-1.4299819454777207e-05
-0.17832843894792738,0.8963463132019873,0.641435456679674,1.636562453794208,0.009422607757253232,0.6391437605206258,-1.429246715822785e-05
-0.1783637822221813,0.8963564702400362,0.6414398837106141,1.6366685801825103,0.009023066098211352,0.6395528723870711,-1.4296153016069013e-05
-0.17829299503683682,0.8962842074397059,0.6412804023326002,1.636724646377326,0.008712285475702686,0.6398369060957068,-1.4288572050880077e-05
-0.17835257814791472,0.8962693111652635,0.6412777800398333,1.6367716033273592,0.008422598714353136,0.6401382667057289,-1.4282128102394154e-05
-0.17831270292176704,0.8961396538937096,0.6410638350785973,1.6367786905404822,0.00808940165041605,0.6404499079188328,-1.4226391281013662e-05
-0.17839705940814898,0.8960470694515212,0.6409762663711396,1.636765692659245,0.007771174660334168,0.6407815641966312,-1.4253073080894296e-05
-0.17836432023673332,0.8958853187765818,0.6407312429163383,1.6367231285698205,0.007517642919592227,0.6410113513968279,-1.4245538205948094e-05
-0.17846653613715358,0.8957259836009559,0.640570942813655,1.6366450088894648,0.007225119110925604,0.6413194971459086,-1.42019333875254e-05
-0.17846633619652152,0.8954741640963881,0.6402302504664759,1.636527022302598,0.006954667294680306,0.64157116067988,-1.41930716672789e-05
-0.17854574968106807,0.8952960777780135,0.6400379945390533,1.636422136261669,0.00673776701536255,0.6417946854234238,-1.4220791364039087e-05
-0.17861998157327186,0.8949915185942077,0.6396770462015837,1.6362361466859454,0.0064729422696174765,0.6420599961017999,-1.4210935288971882e-05
-0.1787043988408783,0.8946727397514369,0.639304589040643,1.636029674134111,0.006227794202075643,0.642306368476083,-1.4213323058065441e-05
-0.17887248487850904,0.8941701735408385,0.6387456502699953,1.6356741033997366,0.005914468750794377,0.6426404778887962,-1.4199488536981164e-05
-0.17893293506863284,0.8937215400084986,0.6381939820928526,1.6353748301230704,0.005677273540389827,0.6428654359323538,-1.4141965352543195e-05
-0.17914354067665794,0.8932021434182342,0.6376431999273002,1.6349780905089588,0.005409458080246843,0.6431609751977483,-1.4163880829975994e-05
-0.17925082757829092,0.8925634313799238,0.63687453616427,1.6345231735238501,0.005151861625302345,0.6434091161937463,-1.4150427852577252e-05
-0.17947182028255693,0.891958574822513,0.6362209109611792,1.6340500097153212,0.004907192762114931,0.6436767944010962,-1.4137111903345101e-05
-0.17968899224002666,0.8910865174239113,0.6352180402206944,1.6333849730967946,0.004625804409395862,0.6439686390455082,-1.4085107736150349e-05
-0.17988382252236068,0.8903370710687639,0.6343618198745435,1.6328062820934708,0.004393546460182307,0.6442028625968277,-1.4105082842164052e-05
-0.18065198915344993,0.8885863970363683,0.632559834916874,1.6313263660074462,0.003970543828615725,0.6447743078534192,-1.4072071503612449e-05
-0.18043967672997674,0.8872601868588434,0.6307728872003526,1.630154858430532,0.003731986293696643,0.643810280794705,-1.4063206920766902e-05
-0.181384152622182,0.8864968029725011,0.6303596600977874,1.6293139306109605,0.0034594517414188175,0.6442824765843778,-1.4045535669637843e-05
-0.18112078850225188,0.8846828367997084,0.6279455507208329,1.6276209006824134,0.0031925829839858366,0.6426836840414945,-1.403805038879824e-05
-0.18318238572124734,0.8832867648844083,0.6273941327808163,1.625961356546405,0.0027747156955886254,0.6435985908964028,-1.4008429100265118e-05
-0.18205754682836872,0.8805564528977081,0.6234094059635371,1.6231808024414054,0.002515757408268371,0.6392647392448358,-1.402226590663247e-05
-0.18406432532573191,0.8799986623308262,0.6239120022271525,1.6221529425906116,0.002183618125225273,0.6400756869888724,-1.4015423634106128e-05
-0.18304260830428554,0.8772444577722878,0.6199118483119728,1.6194168156185178,0.001888647648094377,0.636135362984974,-1.4023535178431246e-05
-0.18558345074254223,0.8765357726210761,0.6205409647125801,1.6181174005845724,0.0014866509152096086,0.6371418660771111,-1.3967273565285154e-05
-0.1852159981160595,0.874440322390603,0.617756456016429,1.6158140747618814,0.0012324655116620065,0.633958865312052,-1.4056169733045465e-05
-0.18569647689325475,0.8719648227725036,0.6148913886289193,1.6133085424883786,0.0008015233245082243,0.6323245599049079,-1.3999735484659936e-05
-0.18661067670699794,0.8699350396584391,0.6128151642316864,1.6112361651585108,0.00037365628210572766,0.6316752762590427,-1.3993670952672232e-05
-0.186844596043926,0.8679379649689674,0.6104080624812003,1.6091755715273601,4.408806540201482e-05,0.6299838528294606,-1.3986328537107795e-05
-0.18780643090273585,0.8660151362170998,0.6084837186174967,1.6071724422087055,-0.00039525055739186854,0.6293462821604479,-1.3968689226651065e-05
-0.18842131639283366,0.8628483735634385,0.604786823261735,1.6038291846902935,-0.0009112103260449089,0.6267308571514292,-1.3942848402948016e-05
-0.1895599583621994,0.8603380709320145,0.6021897060221608,1.6011530740381268,-0.0014286631246287484,0.625481578331045,-1.389989364319888e-05
-0.18997147856705965,0.8573636071921209,0.5985924546968686,1.597956344539206,-0.001934059477930461,0.6225672778739968,-1.3931919790266534e-05
-0.19143840654424515,0.8545909925033648,0.595868943218214,1.5946939225564263,-0.0025284502853573088,0.620338781860732,-1.3943642279024004e-05
-0.19247812369810102,0.8531935340818118,0.5947371809180826,1.5926715406904606,-0.0028621263463080027,0.6182499458385555,-1.3892423655903485e-05
-0.19668250146428345,0.8501797668785258,0.5934861598521506,1.5877450068756334,-0.003499263696992827,0.6143769632608107,-1.3917229271243059e-05
-0.2027717005175802,0.8503127616483743,0.5976281217175892,1.5849974585059972,-0.003618613884960098,0.6123647605863223,-1.3956724986385893e-05
-0.19277918223360757,0.8411103842512517,0.5786614930391663,1.5817312667732253,-0.0033324473571907376,0.6114110925832668,-1.3919803452111523e-05
-0.1949439598875733,0.8381817089002608,0.5759994820239331,1.577880760268629,-0.004100916487077555,0.6084251901879361,-1.3920510175680079e-05
-0.19848660210132607,0.8364206764386051,0.5758365106037404,1.574537069596322,-0.004627862817742745,0.6058019289371597,-1.3941269584982763e-05
-0.2064243983734002,0.8362605417505753,0.5806766839877326,1.5709681214679225,-0.004802328872152373,0.6036706057213772,-1.3932814140638072e-05
-0.1913875396700213,0.8247597702911253,0.5548373505278326,1.5678097250984662,-0.004325706012017427,0.6033653893146171,-1.3819276665216762e-05
-0.19718551301241405,0.8245269104313317,0.5579256664669243,1.5660503181547432,-0.005112644634222008,0.6050819378034156,-1.3787447425528399e-05
-0.20773681498308072,0.8237854056941227,0.5634593463792639,1.5611296166999313,-0.00552308066196705,0.6026251245447778,-1.3782436247389285e-05
-0.18844321790784857,0.8110238830923757,0.53253041190513,1.5583132934212003,-0.004961303442509113,0.6026744592932625,-1.3635397626998724e-05
-0.1976392826289315,0.8120582668462735,0.5395669682488027,1.556724162678532,-0.005832695239965879,0.6052736820562306,-1.3595951492639813e-05
-0.20955380512278676,0.8122547531522999,0.5472217031172324,1.5523326601584415,-0.006006463152370856,0.6032642264448809,-1.3674880417369195e-05
-0.19198759661737697,0.8007715372125013,0.518647893454883,1.5496008413231834,-0.005441376819702803,0.6034114865411206,-1.3437629972301579e-05
-0.1978310504448757,0.8000778753838214,0.5211175772227365,1.5466719846579222,-0.005986357855549684,0.6016338718805363,-1.3440248112672748e-05
-0.20608207293461778,0.7994261864046415,0.5250582776721293,1.5432609403176816,-0.005878997977156963,0.600592189476675,-1.3491929356845844e-05
-0.18956175319910695,0.7890358859561264,0.49808610399073405,1.5406501062677398,-0.0053198176931186225,0.6007465675911563,-1.3361671355127669e-05
-0.1966351636390149,0.7884491818498187,0.5014299970968299,1.537559014269803,-0.005854331675108071,0.5990368375628536,-1.3363090932472232e-05
-0.19890210322421176,0.7848801568271906,0.49666753768029714,1.533936579210069,-0.00558043594381008,0.5983209161974496,-1.3336729373314427e-05
-0.18918393255679078,0.7779437018407567,0.47874638788423063,1.531515700669754,-0.005103658268439837,0.5983950562038762,-1.3318533081729811e-05
-0.20290867427271575,0.7790319575514024,0.48904555743467437,1.5281974294675038,-0.005130765737611398,0.5973752591550898,-1.336548104635682e-05
-0.18679639019745853,0.7693529847650318,0.46215527168483295,1.5255285632249755,-0.004484836744315324,0.5976437231672689,-1.3222121016731592e-05
-0.19541394502793175,0.7694010980164903,0.46739647823576735,1.5230153556735235,-0.004377819062411525,0.5969209479582478,-1.3235862086347083e-05
-0.17974366911132922,0.7604177977747879,0.4411781023325414,1.5203980664202366,-0.003742424006556888,0.59709050911124,-1.3107546052992802e-05
-0.19322880748755544,0.7611084745269805,0.45063535760213824,1.5171261860767613,-0.003907138820994582,0.5959204645968477,-1.3150297218267326e-05
-0.17766933259122908,0.7525543355442883,0.42457600517145977,1.5145666413777885,-0.0032655970608104212,0.5959811948227438,-1.2948795782286027e-05
-0.1880107090747769,0.7522000045561121,0.4299504474724909,1.5114969361702117,-0.0031161333233562516,0.5951143051974332,-1.2972976665359681e-05
-0.1739930166733581,0.744968263847591,0.40664114174654475,1.509295524614184,-0.0025334273546491204,0.5950493375060519,-1.2939116261101447e-05
-0.17856324884104424,0.7427851431294279,0.40452839138258945,1.5063006747142653,-0.002255391206717583,0.5943209796060609,-1.2936613241976147e-05
-0.16360982018581982,0.7354512048195732,0.3794370507855298,1.5039337752841426,-0.0016205255251646733,0.5941657325139325,-1.2757467387380927e-05
-0.17959199888861477,0.7363303445010763,0.3909833106317322,1.5008872823430774,-0.0016464624886474155,0.5930061074421857,-1.2808978431699813e-05
-0.16052131379734647,0.7269524408713579,0.35796521596705233,1.4976901868173398,-0.0007967178486509852,0.5927472086640613,-1.2685237684273432e-05
-0.16047623901400776,0.7239861838800161,0.3502249650513303,1.4950896636680788,-0.0004161255976331546,0.591970091206746,-1.2659851408969303e-05
-0.14277318704312414,0.7153416308420555,0.31717169059840167,1.4915090369880115,0.0004893917425539129,0.5914210407944474,-1.2630324113693803e-05
-0.16050592633195748,0.7166638911606471,0.3312251736283267,1.4890180666584865,-8.830743705168231e-05,0.5898665696924175,-1.2705605666241127e-05
-0.14708578980172238,0.7115987670467367,0.30902345286560706,1.4872982832273127,0.0005145271702868826,0.5893557400655025,-1.2620793809148267e-05
-0.1465697108656414,0.7095279630460496,0.30226520151673686,1.4855135954899392,0.0008473515163318623,0.588571585745183,-1.2630433823268561e-05
-0.13747801659463565,0.7038079341031525,0.2790004296713722,1.482277001261238,0.001757826155706077,0.5877475265817944,-1.2549167662356808e-05
-0.13464997855853156,0.7012790488812124,0.2683143131282897,1.4808746436885452,0.0026293985976035827,0.5883208991898741,-1.2539456698767992e-05
-0.12171798965777114,0.6967916577320272,0.2445212337814917,1.479416108434255,0.0037924797055071124,0.5891035892883485,-1.247615390376211e-05
-0.12218095205541246,0.6952127358413138,0.23810927868140475,1.478248978669523,0.004539937379564485,0.5895828927601663,-1.2455050915960442e-05
-0.10859977517112895,0.6909740293608522,0.2126594029216209,1.4768535413859771,0.005764855678116021,0.5903676399812126,-1.239725500745692e-05
-0.10065255135005646,0.688187822473636,0.19475368320152242,1.4757082613704968,0.006799254594026749,0.5910073410761756,-1.2357729245238147e-05
-0.09160171120742344,0.6855557359465649,0.17571146596743414,1.4747141160484905,0.007833755229687434,0.5916187093396763,-1.2320911496388476e-05
-0.08577442177619865,0.6837438389250119,0.1615482272165618,1.4739510280680612,0.008705828986455444,0.5921143082999922,-1.2295663120553968e-05
-0.07497985222270476,0.68146864719803,0.14071367115975875,1.47321495714709,0.009733328341825498,0.59266760531718,-1.2160125604232519e-05
-0.07262981378797218,0.6801516652363961,0.1289174115044629,1.4725054078562607,0.010659956804354387,0.5931985472459855,-1.2248559657201952e-05
-0.06410146539782602,0.6789340085250322,0.11385039848419165,1.472215625627733,0.01136686940398235,0.5935122555725814,-1.212598178135238e-05
-0.04861978727314309,0.6766992089035577,0.08359839688430615,1.4715838640327474,0.012754104259122379,0.5941750224608695,-1.2099235308760115e-05
-0.04555169559353178,0.676144396953914,0.07262702623807815,1.4713914875119656,0.013556730994663369,0.5945622169922,-1.2089632296152786e-05
-0.03464506702975356,0.6753586157117999,0.05284871104817057,1.4713016601985132,0.014465945398077551,0.5949070128051037,-1.219466916513312e-05
-0.029082932928418792,0.6749939873082669,0.03838714757038986,1.4712956259258254,0.015340351675842356,0.5952786457310966,-1.2147650216398631e-05
-0.01710318116409759,0.6746511172948786,0.016166450863495996,1.4714045972461012,0.01634760517688605,0.5956152385731803,-1.2189560914421804e-05
-0.014120345772332676,0.6747822008304611,0.0024285339478913315,1.4717008666076357,0.0173360777547078,0.5960254321795091,-1.2146813285873748e-05
-0.004829488571670204,0.6749736731509692,-0.014090337600480396,1.4719819405340688,0.01808357641695224,0.596220752343747,-1.219517314510199e-05
0.006357366057516245,0.6754512760144253,-0.03466163976834835,1.472416909849696,0.019005237303724165,0.5964491600505255,-1.2205613153071226e-05
0.010413132315767015,0.6760327130998665,-0.04617762600726394,1.4729241701324467,0.019733688129307758,0.5966927511720712,-1.2096838754693806e-05
0.022307771226981465,0.6770743519091837,-0.06841061195852305,1.4736151894377478,0.020718887823053755,0.596884218968798,-1.2115842206839034e-05
0.024812993570930253,0.6779455037551125,-0.07829689259173112,1.4743384635872614,0.021427054249750555,0.5971186957338785,-1.2126489969510601e-05
0.03613949434022601,0.6794312371821851,-0.09932573782079768,1.4752004279872608,0.022353222950929563,0.597247833455504,-1.2214035955082636e-05
0.04170712948860533,0.6808330228539301,-0.11320352472880124,1.4761501657644924,0.023141435077518757,0.5974234440360808,-1.2303320610307367e-05
0.05271985173554583,0.682812918759292,-0.1336973184890864,1.4772004430891004,0.024042264911370737,0.5975093015191,-1.2282360190241093e-05
0.053169582699148066,0.6842423817235721,-0.14188960764050407,1.4784299823915026,0.02475805093777872,0.5977370210153916,-1.2228766515853806e-05
0.06473305482646818,0.6867861329816858,-0.16337773989394933,1.4797344168109792,0.025690910142328605,0.5977613603434779,-1.2393896197337995e-05
0.0761196410734053,0.6898476660858934,-0.18556150572698105,1.481312785999509,0.026686979893311147,0.5977818915950772,-1.244451398818569e-05
0.07745557669630276,0.6918651809756504,-0.1948371152748969,1.482894107123534,0.02742491517264689,0.5979729188594929,-1.2345757733456253e-05
0.09027551918860066,0.6956820577441194,-0.2188223140254113,1.4847295625793056,0.028454808390439013,0.5979096065452341,-1.2409140258462514e-05
0.09558769760102859,0.6982332358014842,-0.23153970814887703,1.486217145276929,0.029168769514173576,0.5979947800662648,-1.2494239510552063e-05
0.10311395359800724,0.7014599206137628,-0.24763565383805375,1.48792944702571,0.029976388946010957,0.5980177727569762,-1.2542988091723828e-05
0.10741512123142538,0.7041663080094303,-0.25922066669206334,1.4895818757820898,0.030669643496356258,0.5981058033051339,-1.2581155344193462e-05
0.11703752482758745,0.7082910344938789,-0.2784082944433468,1.491579731230412,0.031554077325282925,0.5980458288352315,-1.259865711489283e-05
0.11786708537906065,0.7118199700496115,-0.2892174192770849,1.4943358541706422,0.03243502830493572,0.5982045057395231,-1.2644012362450496e-05
0.13435132226317137,0.7192654094044295,-0.3209053973936502,1.497710920163449,0.03376511749257283,0.5978627390509157,-1.2771185292415055e-05
0.1402959129586323,0.7235427324261234,-0.33548617865795105,1.5000569523000955,0.034598012556060986,0.5979257585917228,-1.2832844522137066e-05
0.14783986158935214,0.7290939728346721,-0.35381251889663634,1.5030387938765184,0.035593301919618625,0.5979127219869644,-1.2916305037968812e-05
0.1541372606019813,0.7337095639089712,-0.3684922210546331,1.5054380457369083,0.036403821953845394,0.5979586656040556,-1.311294495742743e-05
0.1494960036447921,0.7366345840012425,-0.3719533949110776,1.5087557541728671,0.03716363798402167,0.5983793290608821,-1.3060435521516922e-05
0.16299743777986642,0.7437880652249707,-0.3963540471703073,1.5115540439001158,0.03818061194016842,0.5981126740000091,-1.3262798499447115e-05
0.1531327159767697,0.7428316815023601,-0.3879394366616715,1.5131397620816127,0.038395117395650935,0.5987393825615595,-1.3099279295936128e-05
0.16158552051376862,0.7472542426143187,-0.40262503333661126,1.5147424908765013,0.03900651178863335,0.5986141978279376,-1.331140101967776e-05
0.15940168262011145,0.7484803613652291,-0.40363310305321853,1.5162591449092275,0.03935443787803905,0.5989030553861214,-1.3182127889699302e-05
0.16444937786741765,0.7522373268054405,-0.41443159267306573,1.5180449620285348,0.03991409973198756,0.5988928671191447,-1.328525808208525e-05
0.16039806076255037,0.7531743822924346,-0.4136131137546428,1.5198201827481164,0.04026303753491778,0.5992593820502341,-1.3368853405637537e-05
0.1681304488772044,0.7577134413369802,-0.4275099313779789,1.5215202471739113,0.04084562513172507,0.5991078992686925,-1.3316392060147564e-05
0.16057445444016505,0.7575918397483035,-0.4223638530938514,1.5234056016521373,0.0411267318704196,0.5996320365003873,-1.3420350240878065e-05
0.16960745763263851,0.7629607118572297,-0.4384917804396373,1.5253749863949295,0.041780732402251886,0.5994031199060528,-1.3433496245163212e-05
0.16371876148748665,0.7633538481667319,-0.4353695141996585,1.5272831341251116,0.04209081639953727,0.5998599544991992,-1.3411184001554943e-05
0.17213195672886172,0.7684734856413353,-0.45031057210329806,1.5291179496828171,0.04269337872255807,0.5996439975822021,-1.3505458436036122e-05
0.16392393664921556,0.7684716864247916,-0.4449533206715408,1.5314105136755467,0.04301862611258134,0.6002315048491162,-1.347610624868878e-05
0.172809234195606,0.7740165670768189,-0.4607420293078057,1.533386128227579,0.043650257434460826,0.5999815479155091,-1.3661621506066979e-05
0.16854951380213645,0.7751553523972925,-0.4599294801715965,1.535520566970244,0.04402181282120221,0.6003921120755544,-1.3539091546554971e-05
0.1780776939138926,0.7813455597811645,-0.4769389145321128,1.5376974103047987,0.044700050431841554,0.6001119669838131,-1.3678083627510773e-05
0.16629382731425846,0.7795712422702996,-0.4662554142599724,1.539853639466921,0.04490101507379585,0.6009450589939282,-1.3715210611664475e-05
0.17614406311199993,0.7860367479146051,-0.4837482971985958,1.5420979784680053,0.045590142873900064,0.600635283251914,-1.3804055343236143e-05
0.1729335119701787,0.7875856949208035,-0.4841712234053839,1.5443084033483956,0.04598557804285086,0.6010393183097822,-1.3660523047853701e-05
0.1807202676793498,0.793503336245422,-0.49900988133719526,1.546587994255491,0.04663358655736616,0.6008555711937742,-1.379332066608896e-05
0.1693386037146727,0.7921043488126864,-0.48930752485160856,1.549143949155356,0.04690575863155999,0.6017667265454749,-1.3740908068271551e-05
0.17868024681536365,0.7983708642046707,-0.5055995629185421,1.551186056162324,0.047537862658518115,0.6014901425243888,-1.3826319735343873e-05
0.17725238311340163,0.8009471947840208,-0.5086906441348535,1.5536856228649913,0.0480163260786064,0.6018647630035057,-1.3964932772836391e-05
0.18033615828953664,0.8038600908417752,-0.5152546641731508,1.5549834086727587,0.04836683558324406,0.6019109563663108,-1.3887273694557223e-05
0.17882553895264763,0.804952899566187,-0.515940709012563,1.556377369102636,0.048631008609318904,0.6022351259777246,-1.3926679756082194e-05
0.18092967232288437,0.8079633399423312,-0.5219590566384698,1.5580642020221305,0.04902967917961654,0.6023734504212364,-1.4063447109080585e-05
0.17919685115593964,0.810130813374565,-0.5241297879548847,1.5603907803835098,0.049458030177540024,0.6027952870504816,-1.3960295867754269e-05
0.18338297320646735,0.8147078047004541,-0.5338353648807299,1.5625811240158107,0.049993264765113565,0.6028652258211364,-1.4055667960199969e-05
0.1769518743628149,0.8147983222533188,-0.5297581012702954,1.5649736985989975,0.050327607943644104,0.6036347418436803,-1.4135219861266535e-05
0.18582555219071129,0.8210057271157947,-0.544911441556839,1.5667812520615296,0.05089513776990362,0.6034064737574489,-1.4119816356128467e-05
0.1748492627632352,0.8188261881147332,-0.5345212434427182,1.569124270424222,0.05111699602450859,0.6045200583860337,-1.408599209185013e-05
0.1856237617909109,0.8264954730130674,-0.5529912118396672,1.5713545011340653,0.051798017313343436,0.604215910445955,-1.4315710216372679e-05
0.1757336826920124,0.8249612007172864,-0.5442496592298731,1.5738816456246525,0.05207710952021749,0.6053441141098519,-1.4140249120053738e-05
0.18545230550005964,0.831833596685871,-0.5606459384781575,1.5757597795464227,0.05267414691485328,0.6051096389641346,-1.4283885629851056e-05
0.17934212081523526,0.8311193609132106,-0.5555727279900351,1.577573537251526,0.05290787811518882,0.6059505211354512,-1.42244844099082e-05
0.18776357337721628,0.8372213029993576,-0.569817854421867,1.5792165924434602,0.05343243409114162,0.605791414372602,-1.4360545528724344e-05
0.17589500507613032,0.8335256381205989,-0.5568385772492261,1.5808972707027733,0.053534240444447434,0.6066246303448759,-1.4371065614859901e-05
0.18594525398569406,0.8407185098844883,-0.5736717939904201,1.5827620012609387,0.05413276978140491,0.6063950232148905,-1.4378971976647392e-05
0.17667677353874733,0.8389068211977682,-0.5649909572359277,1.5850597464918552,0.05438483398094274,0.6076266898574509,-1.434647473352868e-05
0.18585792231447051,0.8454295322962473,-0.5801713161666511,1.586653390928034,0.054915633629218696,0.6074500489187002,-1.4555338145427754e-05
0.1763807195149445,0.8433514084633869,-0.5710079947733604,1.5889100312077202,0.05515635482098258,0.6087608770246691,-1.4492153515455186e-05
0.18804591584278008,0.8517480509769868,-0.5903348293058599,1.590939560044628,0.05581763154425534,0.6085246416831405,-1.4518589302348062e-05
0.17025403862962385,0.8453550295265533,-0.5699552275355959,1.5931110783894917,0.055839508629710544,0.6095718888302057,-1.4410557413135905e-05
0.1800919909080827,0.8522115548677629,-0.5859165043440537,1.5946511419664686,0.05638001883869137,0.6094132921057636,-1.4623641845901147e-05
0.18645849181511132,0.8579466186252889,-0.5977965335276396,1.5965687124219334,0.05691965843293456,0.6096372561211387,-1.4594787790755959e-05
0.17123594145350918,0.8524509372125939,-0.5803633885214197,1.598573377439065,0.05704948476361693,0.610741563981188,-1.4502986717346289e-05
0.18119969707392336,0.8593614916563013,-0.5963276492633058,1.600001995137947,0.057578609879249676,0.6106200710390626,-1.471589792689798e-05
0.18225394138994933,0.8619977629148972,-0.6004333937430433,1.601692382723714,0.057966022505040016,0.6112769327038752,-1.4627717761506176e-05
0.17969794857134058,0.862540806730629,-0.5993754152492308,1.6033097529085447,0.05825969376685336,0.6122150329950076,-1.4650141045180476e-05
0.18282479414814645,0.8658365178276028,-0.6057580776806457,1.6046543260276742,0.05862311646667173,0.6126519019726029,-1.467482254113861e-05
0.17695338635900537,0.8646999805137732,-0.6003042365133453,1.6064575334445497,0.05887982430074601,0.6139762409643419,-1.4660143285105676e-05
0.18498345635972413,0.8703240808191364,-0.6130486994765239,1.6075234254420874,0.05929144797902275,0.6139845357695357,-1.4852587633562564e-05
0.1698209445271779,0.8639185203834954,-0.5946521077854978,1.609111656274104,0.05935750644523807,0.6151022672393953,-1.4593429131792846e-05
0.1795221568123493,0.8704670338347311,-0.609787618022712,1.6102423340066645,0.059819567169324905,0.6150539756713576,-1.4741409862573107e-05
0.18039606923785634,0.8725833532591043,-0.6130388289762347,1.6116443045721152,0.06015012801143893,0.615833592407184,-1.4735061522053172e-05
0.1778314159915535,0.8731484089034005,-0.6119741010280038,1.613405403059355,0.06047938761840843,0.6170965452259258,-1.4727992470930928e-05
0.18018852668800545,0.8752605877457222,-0.6162514049380272,1.6141194304917388,0.06069766300019541,0.6174525774896873,-1.4792368856042515e-05
0.17680854047413508,0.8752900359933244,-0.6139639349210348,1.6158789195751035,0.06100982720419612,0.6188695468519612,-1.4864707670092514e-05
0.1826210976159235,0.879920070865241,-0.6237876098574899,1.6171074563011878,0.06140743441788299,0.6193569236472047,-1.482068602687292e-05
0.1654564236006575,0.872169033131259,-0.6024442361255016,1.618799605266494,0.06151358263596318,0.6207772919040879,-1.4688119699179936e-05
0.17597547015044324,0.8789507381415147,-0.618345831685664,1.6197098901094096,0.061944631552262486,0.6208067623908002,-1.491191777880374e-05
0.1838713457094343,0.884904410134328,-0.6311639998480025,1.6210168315554707,0.0624110530332862,0.6213658683340437,-1.489029545798104e-05
0.16650474426961903,0.8763535197505128,-0.608760847400247,1.6221672932841145,0.06229367064926894,0.6222838823034307,-1.4729103933852628e-05
0.177405592630544,0.8833277287266466,-0.6250509983288577,1.622972774180834,0.06272047313891882,0.622359130226446,-1.496551772905974e-05
0.17793545387724308,0.8847345767019785,-0.6270636550463875,1.6240205249913862,0.06299084744654948,0.623416651682156,-1.497463410604638e-05
0.17598522929139992,0.8848929542887527,-0.6258228296550445,1.6253006406053547,0.06326128208558668,0.6249142318918075,-1.4835741788843393e-05
0.17904257683695146,0.8876958633152849,-0.6313267241645217,1.6263431687996555,0.06357936181436052,0.6259164970103281,-1.4908774053523643e-05
0.17012144744725255,0.8837873969178496,-0.6203280533518898,1.6276611035014321,0.06375523532040095,0.6277289570771778,-1.4905669893927609e-05
0.18096195123478065,0.8905598135239803,-0.6360277855009278,1.6282522143514573,0.06411814133383231,0.6278736800567302,-1.4874758998750792e-05
0.16330612040314918,0.881370952736936,-0.6128300733225442,1.6292869083504735,0.06411505194355005,0.6292296414891645,-1.475258281846692e-05
0.170585242200044,0.8857878907996319,-0.6233732840569193,1.6296200780962957,0.06434669142806371,0.6293365843865946,-1.4809588678943442e-05
0.18260763724338336,0.8932691465409643,-0.6408659942492951,1.6301798871818045,0.06472941420775502,0.6295250273350872,-1.49782173615165e-05
0.1698790674995605,0.886349156144628,-0.6237166383443107,1.6304436893880165,0.06459470998092964,0.6294083749678165,-1.4929638086691455e-05
0.18195690534468323,0.8938003926814853,-0.6411857300656294,1.630940591462548,0.06497606054106875,0.6296177714242139,-1.4958351931326774e-05
0.16398286596288614,0.8840777798383881,-0.6169516424574173,1.631713202096063,0.06482879593521673,0.6307804908342725,-1.4775760093677093e-05
0.1752847667748485,0.8908705470954654,-0.6331423692005416,1.6321008156295935,0.06516953334095898,0.6309884305071751,-1.488167707464072e-05
0.17616827686508962,0.8920098812398587,-0.634973359395234,1.6328302067639875,0.06539445748960482,0.6323121665868934,-1.501304273077153e-05
0.17237903388085307,0.8908936513920498,-0.6307241849008411,1.6342634190931502,0.0657103114431905,0.6351866968187094,-1.483786098699369e-05
0.18606057285405786,0.8994032029113477,-0.6504486920515422,1.635036446093042,0.06617850083082111,0.6363733021838538,-1.499897677881279e-05
0.1613429117019498,0.8850254472096868,-0.6162681253823159,1.634962416351101,0.06594405379439738,0.6355185441322115,-1.4758377361978603e-05
0.17541130406984173,0.893165595235696,-0.6360210854093111,1.635207237595206,0.06630314731984832,0.6358427403054971,-1.4913881279277064e-05
0.17413977002696512,0.8929508613524124,-0.6346131877665329,1.6359921506455635,0.06651406633395851,0.6378530100982172,-1.4980194873004393e-05
0.17739836738353087,0.8953564937484924,-0.6395137308865104,1.6368408542835269,0.06682146202794392,0.640051255663602,-1.4916570448164634e-05
0.16813891868625586,0.8902477788692575,-0.6267947010678396,1.637439432435202,0.06688824702453466,0.6417046026804929,-1.4766606830640683e-05
0.18727024640492473,0.901266183229164,-0.6534768312186916,1.6376477056628795,0.06726924253849109,0.6421978462841045,-1.4992655995804682e-05
0.15569906473502027,0.8824817202252326,-0.6093058027694473,1.6373120408684185,0.0670285093818217,0.6411833238911493,-1.4628818645334718e-05
0.1727484833335513,0.8921088952094305,-0.6329759830664408,1.637445344305922,0.06737678044852302,0.6415907374787526,-1.4851384391612044e-05
0.18220108227816567,0.8980126643342157,-0.6463180634407149,1.6379249569732188,0.06767610780956268,0.6430287791252649,-1.504605094115874e-05
0.1659740868566768,0.8885688010087938,-0.6236750812967067,1.6377375540514727,0.06755703141502689,0.6424939874430633,-1.47342315548471e-05
0.17668663565042753,0.8947587763891143,-0.638592730033162,1.6378247863669522,0.06776310790742102,0.6427653125903028,-1.4856657029937992e-05
0.1686593328911954,0.8905202930560483,-0.62759999380786,1.638626656417621,0.06787333399485274,0.6451581320593442,-1.4748203573944352e-05
0.18550147637557135,0.9002404064254659,-0.65102102565241,1.6387432006361813,0.06815784914257517,0.6455956448793136,-1.4976516374609616e-05
0.1626920387994728,0.8867149174687583,-0.6190444270603068,1.6384403827607592,0.06800996812148252,0.644863033770517,-1.471354642657019e-05
0.17751337301220538,0.8951265841936813,-0.6395579356908101,1.6385011405154017,0.06826355090054381,0.645243207850581,-1.4879747006091293e-05
0.16357127309197317,0.8873777205334932,-0.6201841215659769,1.639238228833884,0.0683368934588593,0.6477076702735394,-1.4793389303768834e-05
0.17934748790324218,0.8962248426549602,-0.6418995913721446,1.6392433957799746,0.0685667226003881,0.6481323433789843,-1.497167910713415e-05
0.15867381481580178,0.8843300959901281,-0.6129593694501461,1.6397493686771867,0.06854585759751064,0.650121920526904,-1.4716888861343591e-05
0.17511240325226485,0.8933143302798712,-0.6353943770224326,1.6396687614543168,0.06874986032943387,0.6505760035124855,-1.4773713102655961e-05
0.17335253066269019,0.8924348185779873,-0.6327244488510084,1.6402479929471205,0.0688575867109309,0.6530376740482486,-1.4734610368272172e-05
0.17774015794350007,0.8948732245984097,-0.6384424106653466,1.6405529161794794,0.06897145970212382,0.6548709163076758,-1.480258236075116e-05
0.16178226431620324,0.8855113946316902,-0.6157959902774017,1.6410037368753123,0.068996071851263,0.6572003239218969,-1.45970393106154e-05
0.17607973412397815,0.8930624369325644,-0.635001325592321,1.640786042388072,0.06908548803209413,0.6576549782609664,-1.4843655883112206e-05
0.17001641225181974,0.8893735561475724,-0.6259526246156861,1.6413282053904403,0.0691292685602054,0.6606628845906624,-1.4622296723665329e-05
0.18321461436192088,0.8963828790393915,-0.6435841499186346,1.641059764373991,0.0691732644194083,0.661125416780977,-1.4800826879657336e-05
0.16819920853323822,0.8871390404241497,-0.6219987412286603,1.640524132645842,0.06915496631032081,0.6606835847527046,-1.4617017566997959e-05
0.1823922815928931,0.8944981266773286,-0.6407565901443215,1.6401399604279048,0.06920135652384118,0.6612135622035682,-1.4770705645261728e-05
0.16063752603604264,0.8809779602880212,-0.6092093891036603,1.6391829874031538,0.06917530348923773,0.6606187740036553,-1.450297055249905e-05
0.17862566547012282,0.889835210865936,-0.6325585589781371,1.6385115602540576,0.06923439971129852,0.6613388505207363,-1.4688156094955218e-05
0.16338215510255338,0.8804757291580501,-0.6101384554070277,1.6385539692620341,0.069244336729132,0.6640170689726625,-1.4571093030824045e-05
0.18155004512945627,0.8892147486075155,-0.6334215277654831,1.6377399540863946,0.06925316557008987,0.6648049745342623,-1.4756325007247995e-05
0.1625310408090348,0.8775401438858941,-0.6056658470072609,1.6374590374391484,0.06925388366723606,0.6666292040075668,-1.4505196173075774e-05
0.1796000463840297,0.8855125947846005,-0.6272661028224986,1.636578592664069,0.06922618709947059,0.6674100972959529,-1.46755696670553e-05
0.16343910261721728,0.8753045326339706,-0.603013534207995,1.6363070944526843,0.06921801512843295,0.6702545076906317,-1.4354156409268626e-05
0.18294815044852442,0.8840197997957651,-0.6272286005798291,1.6350996924364312,0.06913075812028158,0.6712332029900487,-1.4542017206409241e-05
0.15239222978593148,0.8644327731497121,-0.5812977195064715,1.6338197712986142,0.06918206918493475,0.6742827383705157,-1.421644513843745e-05
0.1736283768923057,0.8732867109533471,-0.6071205385963427,1.632304592962444,0.06902092936248039,0.6753763297320079,-1.4415682648483141e-05
0.1870324823507845,0.8792547544829512,-0.6235055717875708,1.6314129235750352,0.06890309522056892,0.6762172871184546,-1.4417153421319995e-05
0.17088632360829248,0.8690056073156125,-0.5993923534013357,1.6301567375236914,0.0689781536580627,0.675873571887526,-1.4238640491548438e-05
0.18827784610230314,0.8762683210214668,-0.6202185044122972,1.6287930074795733,0.06882717370203473,0.6768812469732008,-1.4490116897469818e-05
0.17681187072848914,0.868971790151396,-0.6030307441433855,1.6278761363124534,0.0688836238667001,0.676729981871615,-1.433974334297261e-05
0.1829560560046506,0.8705684495394408,-0.608792982725789,1.6269859982691335,0.06877741190983144,0.678678018262798,-1.4240698789080852e-05
0.16473070266105605,0.8587720049485883,-0.5807262601079008,1.6261275028285818,0.06876926336171785,0.681820274330251,-1.3978001501158133e-05
0.18249065130262387,0.8653549666715161,-0.6012380353757054,1.6244891882594414,0.06853978130897431,0.6829412107410864,-1.4265579962646768e-05
0.170460677368931,0.8574058791483017,-0.582251486128369,1.6238582375987978,0.06849620775816767,0.6857231784541238,-1.3978825031735198e-05
0.1799472824405255,0.8610031376307301,-0.5932905971171731,1.623053514659473,0.06834487005537948,0.6863009387674319,-1.4150512300581397e-05
0.1791526507894332,0.85964312688533,-0.5906771035469056,1.6226934699486755,0.06826959691452217,0.6878823200188666,-1.4015051001514678e-05
0.17988054159537725,0.8589935408541507,-0.590047286995186,1.6222486516203292,0.06817778576782096,0.6893074948771023,-1.4093036360129929e-05
0.17932917122196113,0.8574121048652792,-0.5872581501385499,1.6217200576641817,0.06807359139742974,0.6912068964021412,-1.3952830143715289e-05
0.18000870971423133,0.8565437041382618,-0.5862904544250016,1.6211890270107823,0.06796214422742874,0.6927944614726051,-1.3907092135667654e-05
0.17930826266178634,0.854951150709331,-0.5834167259290322,1.62069207296316,0.06785727890868465,0.694555260599258,-1.3887451778771265e-05
0.179839612411552,0.8539788474105867,-0.5822191388963134,1.620150638761622,0.06773812606880902,0.6961251005663538,-1.3833491890657967e-05
0.17931586735077776,0.8524563445843985,-0.5795615362381463,1.6196333841120873,0.06762407033292295,0.6978281899915943,-1.3926842259870398e-05
0.17974452269371444,0.8511923446847938,-0.5778638267296721,1.6189808120371953,0.06748015201675805,0.699630045254076,-1.3760947599195106e-05
0.17924091176619683,0.8496787421038112,-0.5752287040803727,1.6184565547856362,0.06735867773998461,0.7012878433337821,-1.384709064744527e-05
0.17955604045193319,0.8485318804988218,-0.5736407860496637,1.6178843899211133,0.06722192832464469,0.7028625442829846,-1.3693341698761685e-05
0.17922024505223533,0.8469289960050217,-0.5709618534678915,1.6172681463316216,0.06707750188148154,0.7046530042987573,-1.3777361379752051e-05
0.17942748418360033,0.8455599655986177,-0.5689611620171693,1.6166161533206909,0.06691943539275247,0.7063908421065932,-1.3618273831284e-05
0.17912615472496096,0.8438013138590037,-0.566049052345095,1.6159111363264893,0.06675072353810219,0.7083299080060339,-1.3698845795495629e-05
0.1792968842760745,0.8423060544264533,-0.563818146945616,1.6152046381715488,0.06657387318271102,0.7101561248303172,-1.3568674271269288e-05
0.17899294801054388,0.8404397828168193,-0.5607149683816335,1.614442552823859,0.06638444724169901,0.712179286176803,-1.361457815374223e-05
0.17911624502989554,0.8390133484830802,-0.5585417053788619,1.6137765349383804,0.0662060402777973,0.71388839323191,-1.3454006714930244e-05
0.17888032218850913,0.8372055679262989,-0.5555459714346718,1.6130183000415963,0.06600786021600413,0.7158504381363668,-1.3534525431069255e-05
0.1789875126851026,0.835331711108469,-0.5526382581353548,1.6121359487692883,0.06577617807711267,0.7179889025645219,-1.3488106637815633e-05
0.17861380423710838,0.8330163325906019,-0.5487202711244725,1.6111594335500454,0.06552196173425262,0.7203961617142198,-1.3303037545320251e-05
0.1789071866950822,0.8290456477302417,-0.5425565861385095,1.6091574926192695,0.06507436594804883,0.724528587226013,-1.3333516437619153e-05
0.17608956288838762,0.8253099871665439,-0.5347676219735602,1.6081033960606552,0.06478706489970953,0.7275859426277265,-1.3137202949486948e-05
0.1821638824644065,0.8237209604812055,-0.5358320973851303,1.6058367290389342,0.06415409229824132,0.7311957235305968,-1.310753420113997e-05
0.15708154655539186,0.8062122265516907,-0.49210770438448126,1.602735880884949,0.06431702285065821,0.7381309081038943,-1.2789445190009019e-05
0.1762812643856959,0.8105852390790043,-0.5114150967537823,1.6005258347448175,0.06334133339932446,0.7395891086138944,-1.2782415340417685e-05
0.17172686877313392,0.8062456664459923,-0.5008302909342506,1.5994429689500782,0.06295987310821971,0.7430458223771659,-1.2690133741166676e-05
0.17834081506276078,0.8061523417197263,-0.5044137158847466,1.5978891599086378,0.06229813682182339,0.7454005825277354,-1.2690874417131681e-05
0.1677580372741776,0.8001030388392953,-0.4872637972017797,1.5972026083528634,0.06233688716749253,0.7482051935551812,-1.2530384666753491e-05
0.18268976817250238,0.8024656091346563,-0.5004004916796276,1.5950566612387052,0.061376216714807086,0.7501622551808671,-1.2600638513049489e-05
0.1662452530694285,0.7922676907141284,-0.4727672194691417,1.5922630842687209,0.062225929072694086,0.7507736460731014,-1.2465419041873815e-05
0.1786908176728561,0.7932605235152419,-0.4818732503050649,1.5900388593064898,0.061261914381914195,0.7532253498899015,-1.249515807444368e-05
0.16543770872238905,0.785565136900451,-0.459965344220735,1.5878964946994474,0.06196262737106917,0.7534924321128225,-1.2315856027456107e-05
0.17084917948206968,0.7842177293570174,-0.4603327141303737,1.5860382617013498,0.061192623115140954,0.756348686144996,-1.2334531962920892e-05
0.15259353622997196,0.7736696223444852,-0.428566287130562,1.5842471026881544,0.061242578678645465,0.7618289765825041,-1.1941403799120565e-05
0.16822563044545458,0.7762554081077004,-0.44318660516363284,1.5825476342166347,0.06022638115877843,0.7630161645722691,-1.2006401366448927e-05
0.15409941981083008,0.7688468803081356,-0.41939685479540945,1.5812930644275447,0.06044496627901896,0.7664553930708156,-1.1773797464087465e-05
0.1705874478318119,0.7713786855076306,-0.43447936004137766,1.5794900045420368,0.05933698613640015,0.7677362371222607,-1.1911663907682168e-05
0.15467503240815983,0.7626934243029009,-0.4073019689694082,1.5765688979829546,0.06035109299669994,0.767612783761991,-1.1794049325608569e-05
0.16122062417642535,0.7620890347343643,-0.40948597862743874,1.575031870039182,0.05950928342275308,0.769784063982824,-1.1645360158851759e-05
0.14780445140359433,0.7555874658581176,-0.38673503111494245,1.5738887639409214,0.05967156321513567,0.7729465780066125,-1.1591477200312283e-05
0.16171435219116237,0.7573370228081657,-0.39890495981911656,1.572422736662145,0.05865136309706731,0.7740924237095328,-1.1561385703018345e-05
0.14434174644126152,0.7483260286577496,-0.3685004283928297,1.569035643358606,0.05985780270820129,0.773617573346594,-1.13008842195228e-05
0.15646889200410463,0.7495327437647941,-0.37837274005512445,1.5677008777792576,0.05888933060949242,0.7748317784268481,-1.1383959804156518e-05
0.13951838271744954,0.7415549690450769,-0.34885337492143265,1.5654587098293211,0.059883498077494934,0.7767369946636737,-1.1260611722185843e-05
0.15431381456336535,0.7429697118435366,-0.36092746246641116,1.5639416852766477,0.05871959407579741,0.7780409681019194,-1.1230836207687389e-05
0.142464224012814,0.7377608504619655,-0.34089877426682236,1.561930112157916,0.05955050323753763,0.7772989335807221,-1.1177392616801285e-05
0.13642424571490963,0.7352199228488621,-0.33001826765529607,1.5614945014888741,0.059315102455159696,0.7790307460167885,-1.1012465203741328e-05
0.13575145909107444,0.7338723691839437,-0.3254805883424474,1.5608882796968295,0.058886038268666674,0.7804370586359886,-1.1056565445421995e-05
0.13116458622154425,0.7317585082809872,-0.31639389286407216,1.5604273257933041,0.05861301223096316,0.7819887636602214,-1.0892626823633123e-05
0.12910308350930588,0.7300245753002415,-0.30973493142817166,1.559798533708876,0.05819303081999827,0.7835521675054942,-1.0928251552577706e-05
0.12492032679975384,0.7280623715151755,-0.30105127175395907,1.5593278707853848,0.05790056872931881,0.7850341350134844,-1.086381582204865e-05
0.1224544217951804,0.7263894065931495,-0.2941112194474096,1.5587682665281868,0.057515778245556426,0.7864818898660513,-1.0807501099385775e-05
0.11564266602114959,0.7226664325299064,-0.277745694624155,1.5576258458366334,0.05692492219694323,0.7893316741585821,-1.0684649906167465e-05
0.10614689471451744,0.7177102603112555,-0.2546997589083766,1.5560540565678975,0.05615265529574032,0.7930836090944675,-1.0519850263790431e-05
0.09546703821265368,0.7137947242304472,-0.23311700761315635,1.555112533298951,0.05556034370678553,0.7959937585795807,-1.0242666842685821e-05
0.09476044159343378,0.7122721780939196,-0.22593810141131065,1.5543720529057747,0.05478340937181514,0.7976907053321503,-1.018482314485425e-05
0.07745694004955173,0.7079979860370882,-0.19692489050627415,1.5537471963306917,0.05446626979489633,0.8005263582605293,-1.0072357908619267e-05
0.09141798587790895,0.7083272049916784,-0.20623008767340512,1.5527282378349048,0.052998758294656056,0.8016244608619445,-1.0187678802786593e-05
0.08067413699984627,0.7056097350182471,-0.18675818068548722,1.552018744462253,0.054698201674491465,0.8028781856397167,-9.934431934865984e-06
0.06629755548655059,0.7026515032125209,-0.16130202074999378,1.5519707231948825,0.05586645666503287,0.8063657202843046,-9.850965209778906e-06
0.051411375214767574,0.7001600464597137,-0.13648687320350117,1.5516449362676648,0.055544468858946594,0.8082572673952662,-9.732960824848647e-06
0.06609124032015057,0.6997932851729152,-0.14142356295250824,1.5504897193621483,0.05355184946954328,0.8097785130795465,-9.728818284315821e-06
0.05322615087299187,0.6976777230472857,-0.11797853206708453,1.5500629711284715,0.05573093588392197,0.8110160049585753,-9.627260226352519e-06
0.045860581593598404,0.6967827288501907,-0.1053049756886546,1.54994148464439,0.05693431126361492,0.8116593832592853,-9.523413553758076e-06
0.031581216452244654,0.6951915965654241,-0.07862443219283399,1.5501886888875251,0.059279065944916276,0.8145443091762141,-9.552322048023143e-06
0.01357147994547514,0.6938849836978376,-0.04737116961435017,1.5503954873460133,0.06026191372498424,0.8168248091603303,-9.389751514987665e-06
0.0060649265984533685,0.6933702491459668,-0.02682994549275186,1.5502663273049544,0.059136430464630685,0.8179461438040532,-9.28063073413199e-06
-0.0198136762199157,0.6929387455796929,0.016568715791421162,1.550465810454293,0.058722703866805226,0.8192624253263103,-9.348032140366058e-06
0.004478607803184431,0.6930286932286212,-0.0026552691525250083,1.5505069874704747,0.05630166091293898,0.819296107639591,-9.34167757460358e-06
-0.009214516234524517,0.6934240290191971,0.022136405053474917,1.5510101395353368,0.058771967693859395,0.8201385941103556,-9.312361402002978e-06
-0.022437365291858136,0.6942071968996171,0.046130755543329016,1.5516333234819086,0.06117327101992753,0.8209550373293935,-9.238930775978815e-06
-0.0357988897585928,0.6954059197721092,0.07058570685832333,1.5524087694978554,0.06362673297077404,0.8217837569564317,-9.239759907408995e-06
-0.05496132384242092,0.6974449825385696,0.10421659840653863,1.5532937741604966,0.06496652062553743,0.82213812066699,-9.267854320427205e-06
-0.06310839981816496,0.6992517997741325,0.12330249539577931,1.553997548267846,0.06401439333924408,0.8217462743741422,-9.28886727269429e-06
-0.07298454038529822,0.701161241752497,0.14246856741709024,1.5546343668669609,0.06335064678103741,0.8213026810714741,-9.250511136649209e-06
-0.07401961611865726,0.7030473315690742,0.1546225266882546,1.5556772259101308,0.06197396916349529,0.8205536499868877,-9.271601498994642e-06
-0.09396799382558019,0.7069952007816456,0.18915280365730514,1.5568613597461258,0.06297567379193936,0.819649963423009,-9.370617043202856e-06
-0.09318684114509512,0.7089754338547829,0.1978505456094357,1.558058092222959,0.06162151678662475,0.8186561177163112,-9.506081403820588e-06
-0.10878193036465778,0.7126828501330307,0.22396515219384572,1.5589835469916817,0.06235554285118727,0.8175638153636617,-9.600471300608149e-06
-0.11189063357528806,0.7161658989851682,0.23988989635700353,1.5607274613822897,0.06099738872167393,0.8159744429388889,-9.662937086041268e-06
-0.13198795599574709,0.7220382081830428,0.27410568915859734,1.5621379402846465,0.06168946563981326,0.8140088468210127,-9.821224829842379e-06
-0.10934318665134857,0.7196851385475664,0.2539200274437299,1.5622976486851048,0.060495638215461334,0.8100352430845525,-9.8046517322814e-06
-0.12165007872660905,0.7241952482781278,0.2760971716278995,1.5642139255056522,0.06253206870090011,0.8102705281389362,-9.899001065960533e-06
-0.1323084328663855,0.7286410668312193,0.2972675002998253,1.5650519489313082,0.0646670510997529,0.8068909951070511,-1.0025764516363722e-05
-0.14503615120368174,0.7337751954431138,0.3215881596450485,1.5652473746296724,0.06497142395004385,0.801167628714273,-1.0224468303121625e-05
-0.11532840816887457,0.7310575277304938,0.2974037466651964,1.566419540819358,0.063550116172439,0.7951980058133525,-1.0202250193103168e-05
-0.1280137037652631,0.7364689427032927,0.31999471227130005,1.5687083326935225,0.0654062366333914,0.7953092688591523,-1.0334453706128954e-05
-0.14045706827877158,0.7421865942458448,0.3423021028539752,1.571053723150734,0.06723093137442948,0.7954361839416997,-1.0457983462330844e-05
-0.14888109593788723,0.7465053996867965,0.35926553369787584,1.571293457424093,0.06885241700741052,0.7903067568047097,-1.0547034373864506e-05
-0.15899859734854527,0.7511358392053031,0.37734382309488,1.5716288962270921,0.0690660496444222,0.786166180705349,-1.0795890483805692e-05
-0.14407928071481635,0.7496738952045767,0.36541328439330645,1.5725257090910905,0.06836505554483363,0.7825647411542205,-1.069751833515653e-05
-0.15438508890786729,0.7551053993967578,0.38412732178084674,1.574589274115744,0.0697593340139786,0.7822957927840575,-1.0900776341138396e-05
-0.17022798922395577,0.7638000828331855,0.41446519036303364,1.575796787863231,0.07039038112266471,0.7751110548786269,-1.1194386218882357e-05
-0.12953546169512542,0.7577276907772941,0.3775917191225755,1.5787578229892691,0.06882467530486647,0.7689429113086446,-1.1068185719942392e-05
-0.1383767341158446,0.762167054709308,0.39240634997862944,1.5803875597121468,0.06979520440309095,0.7690459166639689,-1.1192523840186652e-05
-0.1476093785162993,0.7670750274654505,0.4081487411108604,1.5821915759042282,0.0708211077200449,0.7691452291918734,-1.129597638005464e-05
-0.1574641089954536,0.7726259195752361,0.4252376475827102,1.584226980000465,0.0719288721498641,0.7692423566773243,-1.1412259635079636e-05
-0.17240915018705216,0.7820644469915106,0.45256690571965486,1.587843258440321,0.07368137582665302,0.7692429576619828,-1.1613371362351188e-05
-0.1752438808275043,0.7864191004283931,0.46291368430164326,1.5889768166472562,0.0736006962935738,0.7645145079969682,-1.1748894872987137e-05
-0.17756069542226438,0.7913810100858738,0.47397951399444693,1.5905022114250844,0.07348950835218204,0.7590646430839021,-1.1885715144543951e-05
-0.1806537711234597,0.797678837104522,0.4879717476343046,1.5922882648756191,0.07348317779163871,0.7517310861580278,-1.2048298577482797e-05
-0.18271693389186972,0.8015577192724042,0.4965122378586395,1.5932347193639016,0.07346454821454085,0.7469032186116973,-1.2225932825238317e-05
-0.18340607077290993,0.8049953233264464,0.5033184980798495,1.5942803304186315,0.07341255420290516,0.7422024598281745,-1.2318960730617334e-05
-0.1879505993014563,0.8112875498905954,0.5174031481535426,1.5958550167624468,0.07344793497498969,0.7358256054660819,-1.2451592868778505e-05
-0.1827847518822736,0.8128378836410848,0.5172530720656638,1.5972436184601504,0.0732664098669602,0.7309877477056705,-1.2503430070864852e-05
-0.18507375356838818,0.8169700400875337,0.5260422287386604,1.598020956234481,0.07382085027523289,0.7252047693514667,-1.2700482535876745e-05
-0.1878332430382983,0.820790738321203,0.5343902040105437,1.5986641738436518,0.07413149426623455,0.7204030944171667,-1.2842941586654888e-05
-0.19291400921605995,0.8264617989829848,0.5470574561724533,1.5997005170691372,0.07424348827651706,0.7148467749066896,-1.299591627113017e-05
-0.18328495873515838,0.8258116898926993,0.5405510256704771,1.6011367301738701,0.07408786775687748,0.7102670133036506,-1.3070413195315211e-05
-0.18082978363964575,0.8298517787129045,0.5459172773304077,1.6030395713042989,0.07507010658128177,0.703206797793718,-1.3237694298950942e-05
-0.1869086854817663,0.8389645067751665,0.5630277944277475,1.6085767878711303,0.07605316855424604,0.7054324595719974,-1.33615585262703e-05
-0.1867445002413728,0.8420642074118811,0.5681447707761969,1.6091338857876352,0.07648903280852348,0.6989990351402806,-1.339651061282865e-05
-0.18582834040161256,0.8444628884669427,0.571654436029088,1.6096175291516426,0.07687257216435928,0.6931757696546565,-1.3508295171327234e-05
-0.18158231988104578,0.8471769252557548,0.5737748643561797,1.6107252674517758,0.07746700289682629,0.6843758964411526,-1.3705753540982357e-05
-0.18711291755512693,0.8537912202079587,0.5863861294176704,1.6144182471700432,0.07784479914233966,0.686816799339625,-1.3765579702784692e-05
-0.18610848491556098,0.8560733845010473,0.5895214927430663,1.6148820330045188,0.0780955695952148,0.6810693366092995,-1.387175630807036e-05
-0.18390680549158045,0.8570615383138218,0.589957790975653,1.6151371221854847,0.07828811073942088,0.6763736350654144,-1.3913520313657557e-05
-0.183906812578277,0.8608177559723718,0.5950825050053963,1.6180459200419222,0.07849935384567441,0.676618054468836,-1.4021921350249045e-05
-0.18120671576986336,0.8648616889057079,0.5989182396190147,1.6219408792624934,0.07879019155440492,0.6758866027816932,-1.4052697922650736e-05
-0.18284060375835676,0.8673887652782941,0.6032991732409192,1.6234629023099822,0.07891088598802476,0.6767722642108485,-1.4081610951954815e-05
-0.1809083939253453,0.8689473012638906,0.6042146436669764,1.6252020551895905,0.07909069955466563,0.6760467149237082,-1.414154700718484e-05
-0.1817516193396731,0.8710753947309202,0.6075552182778932,1.626642795909671,0.07921356435864624,0.6766368827000342,-1.4167217739391447e-05
-0.1802986040733492,0.8727840191228253,0.6089181390781002,1.6284462016359527,0.07938842118922462,0.6763860817649592,-1.4151326921840734e-05
-0.18083617018693143,0.8756905983108059,0.6130765869400925,1.6306040929553074,0.0795758959756121,0.6770131721214661,-1.4187477071381238e-05
-0.17863486501154124,0.8773603112782737,0.6139111606719769,1.6326182735166865,0.07979250021871742,0.6765061757415429,-1.4193638659953933e-05
-0.1805459028837113,0.8810022709807104,0.6198400255785561,1.634952949367098,0.08000103826526495,0.6777952512799628,-1.423582844939375e-05
-0.17636525383339752,0.880642694123078,0.6172073180297417,1.6348585865836194,0.08022164040495916,0.6722751460147327,-1.429151510556892e-05
-0.1817458966621306,0.8856981534046051,0.6270902004559842,1.6372261062692077,0.08034906008021281,0.6750170717363497,-1.4343535250205264e-05
-0.1800415156314772,0.8862410612114342,0.627256178667011,1.6366982263093375,0.08046551062307206,0.6691936321913108,-1.4420354174760064e-05
-0.1773292260223771,0.8856583962872175,0.6250663190079502,1.6364186651869268,0.08051806466176092,0.665701039255933,-1.4450058380965913e-05
-0.1807903528734256,0.890239670626813,0.6330433319347346,1.6390769456386698,0.08054248267293573,0.6680877325273089,-1.4492983222424982e-05
-0.1789748956933428,0.8900599988574402,0.6320871280465816,1.6383449212928438,0.08057963656966649,0.6632353691139636,-1.4514666961673584e-05
-0.17699059078661872,0.8899593436452999,0.6307898891309005,1.6387133643630643,0.0805610535714143,0.6618184967680127,-1.4525136903031921e-05
-0.17968406051670893,0.8934279571281465,0.6368081575635323,1.6407859970661773,0.0804999233615904,0.6640276202006357,-1.45997601732617e-05
-0.1770157412640021,0.8924492418840337,0.6342936953928904,1.6397549876901243,0.08049264475473006,0.6588835521599208,-1.4628698101759596e-05
-0.17889958684479446,0.8950374088152566,0.6386512111136673,1.64144958914296,0.0803675281921592,0.6609120116563298,-1.4642763981775886e-05
-0.17539349715521801,0.8932991541449811,0.6346220046642239,1.6401986672754907,0.08031233742365984,0.6556832401503598,-1.4673747356752642e-05
-0.18129574565190065,0.8977564228307058,0.6438812780792267,1.6419564882217594,0.08013219649178271,0.6591049173273333,-1.4707292156579399e-05
-0.18189192478211247,0.8981943309515508,0.6451552653745871,1.6409566136768632,0.08009852448914145,0.6553422200304135,-1.4727371246969767e-05
-0.1831664948612186,0.8990195089436197,0.6474220620516986,1.6397427574212564,0.08003709922721036,0.6508402078738538,-1.4796628184043925e-05
-0.18648807047888116,0.9010111198265092,0.6525236756144999,1.6383607849185307,0.07997306578797048,0.6458525163025799,-1.4940959269793552e-05
-0.18125609450258118,0.8978793374646505,0.6454834488506043,1.637400653263665,0.07999936439451005,0.6424385334711147,-1.4925485286809703e-05
-0.17975335111133095,0.8968121211561932,0.6436004232223249,1.6357275893391137,0.07969601216972766,0.6369709043991385,-1.4922861939936638e-05
-0.17739258694634596,0.8953950107877002,0.6404187289789807,1.6351347618258814,0.07929037403378825,0.6349559118283912,-1.492018101423298e-05
-0.18038288904056632,0.897377880134032,0.6447029268145235,1.6359246922495254,0.07887892743549951,0.6371542180062519,-1.4956484998052133e-05
-0.17795700156625127,0.8957223517196864,0.6412965352600537,1.634805279402343,0.07857272064782883,0.6337670037779821,-1.4979388838654017e-05
-0.17941260294143824,0.896696316650206,0.6433665895902072,1.6352693043111381,0.07827494846018723,0.6351110687507528,-1.4978159560641302e-05
-0.17837783378126915,0.8961117027844665,0.6419309824541415,1.6353157556670261,0.07792386951216201,0.6352399732419851,-1.491644770812428e-05
-0.179433521049563,0.8968577079073912,0.6434201077634985,1.6358734178113332,0.07749079699586758,0.636912318902386,-1.4904355128741997e-05
-0.17849284876641036,0.8962665660418629,0.6420890311467646,1.6357202239460982,0.07726280987330991,0.6364756117510266,-1.4931656660444048e-05
-0.17908346921297902,0.8967244175888807,0.6429194505098792,1.636234439547577,0.07683110479753008,0.6380328100198831,-1.4915960957040397e-05
-0.17828491349201325,0.8962731985043577,0.641797121406106,1.6363222130077473,0.07654594214467636,0.6383130096417444,-1.491511655959954e-05
-0.17889544711763872,0.8967199718287535,0.642647845904941,1.6367583531870329,0.0762011919349117,0.6396434748943509,-1.4903266969845674e-05
-0.17822695266176503,0.8963389533500914,0.6416917924559717,1.636876172812583,0.07594585288278033,0.6400461666027368,-1.4842071055731765e-05
-0.17883629041770455,0.896747538661927,0.6424677460534696,1.6373644664416673,0.0755323215809689,0.6416621062309282,-1.4875227638100341e-05
-0.17819696287497422,0.8963309068517198,0.6415173968044172,1.6373421245864206,0.07534284618936837,0.6416990610444762,-1.4848963383329306e-05
-0.17834846006962746,0.8964273599945285,0.6416888699783279,1.6375042507177442,0.07519940689730387,0.6422614541883309,-1.4856779366745343e-05
-0.17832104527866655,0.896404110373207,0.6415990657698432,1.6376371395250642,0.07506136750086867,0.6427588931835073,-1.483602174978671e-05
-0.1782920309565279,0.8963618480636377,0.6414705891879171,1.6377937096047885,0.07488846563035167,0.6433921883220641,-1.479279740213002e-05
-0.17826672301529722,0.8963196535821698,0.6413569354969466,1.637909076659687,0.07475683808982936,0.6438798090500786,-1.4835432502913193e-05
-0.1782472712777805,0.8962670706954237,0.6412336530273581,1.638018808690413,0.07462399345164439,0.6443863752484775,-1.4775631548502588e-05
-0.1782309446853061,0.8962135759375247,0.6411152405787028,1.6381095506752263,0.0745085969948951,0.64482960698074,-1.4815935954537451e-05
-0.178219224499105,0.8961384407431279,0.6409669132798381,1.6382029673444203,0.07437707707978802,0.6453499554722351,-1.4759544563425209e-05
-0.17820782671012747,0.8960729538389378,0.6408408862707198,1.6382701853340604,0.07427719830501545,0.6457495065698247,-1.4752907196324827e-05
-0.1782441641209047,0.8958539721031622,0.6404958773722695,1.6383710835795382,0.0740347738112046,0.6467557278992384,-1.4782646330147031e-05
-0.17823134557534193,0.895503366708021,0.6399458598761409,1.6384111657503482,0.0737843938382392,0.6478208990977059,-1.4762217949382261e-05
-0.17839384349589338,0.8949910577356377,0.6392728422249592,1.6383476132534973,0.07348282590520938,0.6492213233284261,-1.473576198929294e-05
-0.17827819715299498,0.8945842416916792,0.6386125797245219,1.6382953841445875,0.07332089582161316,0.6499455493678834,-1.4719400990514941e-05
-0.17875309736675238,0.8939097957320365,0.6379186850791578,1.6380196442998312,0.07303583741255881,0.6515044245731216,-1.4689794422650948e-05
-0.17829387606405867,0.8927205609487316,0.6360858286264861,1.6373504830969718,0.07282907587625864,0.6515847146895757,-1.4669190145255584e-05
-0.17928775362016403,0.892598949235965,0.6364650703220267,1.6371773922000958,0.07265717044135389,0.6528269211253752,-1.4606789995319502e-05
-0.17848299873004514,0.8909846131879418,0.6339685004485238,1.6359910395571884,0.07248958598514221,0.6516644061592398,-1.4627883501816541e-05
-0.17988639809931506,0.891039939264191,0.6348362170914221,1.6357854584958433,0.07233586938665493,0.6529366537071111,-1.4629667522747525e-05
-0.17910228449384036,0.8896210413179286,0.6326255164046275,1.6346543526271322,0.07221553294482863,0.6514884907271616,-1.462470489954626e-05
-0.1800817099297305,0.8894024473104372,0.6328880235092536,1.6343538016852222,0.0720817292440401,0.652500209568565,-1.456426412538292e-05
-0.17977791046573177,0.8881208239254335,0.6310902157720584,1.6333412025012963,0.07195029738859482,0.651849706025807,-1.4552629884256874e-05
-0.18064189752121695,0.8874095081805136,0.6306298398427073,1.6327456242205312,0.07179320163122949,0.6529424231620915,-1.4562410298957218e-05
-0.1803591274739258,0.8857771181535261,0.6284159758603716,1.631364525241108,0.07165284444925923,0.6519489755480512,-1.4550083645481493e-05
-0.18145572360024076,0.8849425117675276,0.6279327454642818,1.6306048254236263,0.07149086716867536,0.6531297557130911,-1.4525049311764349e-05
-0.18103074283779197,0.8829905493809891,0.6252623374817485,1.6288523969136586,0.07135312057543519,0.6514543383990645,-1.452917647704055e-05
-0.18257417152006283,0.8820417959090143,0.6248944386203545,1.627878302494203,0.07117138856510152,0.6528316206207876,-1.4500538650707995e-05
-0.18177604378653367,0.8796434984121211,0.6214945747608436,1.625617721561727,0.07103471417013996,0.649982658805019,-1.4456517150485126e-05
-0.18368052014582226,0.87891956126888,0.6216427230461674,1.6246797270534055,0.07084900310077735,0.6513999075173711,-1.4431520439117662e-05
-0.1829552347500254,0.8765092151589711,0.618276421809723,1.622317219661885,0.07070649261553452,0.6483339217202797,-1.4517541304215342e-05
-0.184772771657987,0.8753123912623142,0.6177327997929734,1.6210692497614625,0.07048579468842409,0.6497591234193845,-1.4463385363150394e-05
-0.18430680353943085,0.8728919230337091,0.6144936187067547,1.6186101856896054,0.07032792288270606,0.6467675245836055,-1.4417097779606536e-05
-0.18769182758299774,0.869267785966036,0.611672469549279,1.615035701763353,0.06990392925284006,0.6486339268253705,-1.4395571128922313e-05
-0.1884546040222581,0.8679424191965213,0.6106028022167429,1.6130536223554772,0.06979136668308605,0.646172022434631,-1.4410669228581696e-05
-0.18992322563224828,0.8662103134038315,0.6094794996974651,1.610335588412945,0.06963343455874771,0.643162429360836,-1.4449285035134096e-05
-0.19205373102299905,0.8650275736806128,0.6094727403027411,1.6078886235736833,0.06949824909365532,0.6405753222402986,-1.448837937534364e-05
-0.19560173120061553,0.8646271694364875,0.6113876534831029,1.6055500173200468,0.0694170950524251,0.6382724145555585,-1.4483634018347402e-05
-0.19576197844765542,0.8624883607895066,0.6087525645805805,1.6034039726839255,0.06942958119854126,0.636467203752848,-1.4475269864533402e-05
-0.19737727770528757,0.8607524013822037,0.6075895452490165,1.600930245944963,0.06943315141892636,0.634463815481979,-1.4440791701098021e-05
-0.19664918472274007,0.857861186461168,0.6033347150352313,1.5986213028915373,0.06946947303113227,0.6328153342245146,-1.445592572224541e-05
-0.2001147438884674,0.8571649020529106,0.6047042912611973,1.596310189745724,0.06947484180578645,0.6311631663845763,-1.4446897643516365e-05
-0.19512287402361306,0.8518646522884614,0.5944036249453193,1.5939971091688978,0.0695769642338373,0.6299792773410582,-1.4454790142615082e-05
-0.19933070583042056,0.8517636670223521,0.5970462578828402,1.591885864872597,0.06948043866545195,0.6284003535133476,-1.4484843203987907e-05
-0.198947760154514,0.8489041726917481,0.5929400494868364,1.5895411238303216,0.06953524390940746,0.6270674098654538,-1.4480008534434319e-05
-0.2005020889418594,0.8472832272490471,0.5917524667665148,1.5873940652695815,0.06956351959394347,0.6257668129282559,-1.4483038818013938e-05
-0.19848782151667166,0.8412671033012433,0.5821955104532188,1.5831849607532256,0.06968547887446697,0.623940084226895,-1.4332049435239469e-05
-0.20925374944352892,0.8409202305396271,0.5886469961904996,1.5782767830030444,0.06965964106425204,0.6213533062506782,-1.4486974567518018e-05
-0.18898632702714302,0.8270525862963218,0.55645515626831,1.5752748774701626,0.0700260139866673,0.6205249594269286,-1.4279822447171853e-05
-0.19911459266099474,0.8283386668647132,0.5642268057493034,1.573755422080275,0.06932123626556486,0.6245936808921826,-1.415935246562583e-05
-0.20923802348180587,0.8286702543182782,0.5710538882145864,1.5698771010723398,0.069325689686214,0.6226867090782742,-1.4248909092628992e-05
-0.18076763618918967,0.808374445612138,0.52357636861686,1.5646243793898655,0.06990693606530574,0.6220513853322229,-1.390776047216491e-05
-0.20099410873578183,0.813051896423155,0.5425602469573354,1.563518043852139,0.06899501181280776,0.6296595885567084,-1.3967488469823763e-05
-0.19904749350000905,0.8042874419203949,0.5274145811357647,1.5567077183330467,0.06922796172942203,0.6275174039912459,-1.3868516346882132e-05
-0.20016157958604275,0.7999286405598749,0.5210100684933883,1.5525272165284854,0.06940448264447152,0.62592824360385,-1.3866131978623741e-05
-0.19033865217592272,0.7905775254612308,0.49972377038004634,1.5481372350048748,0.06973175785029895,0.6246939602861215,-1.3714063133107857e-05
-0.20373540315457994,0.7907601951892307,0.5083317276073309,1.5436476757040962,0.069453016680181,0.6225778634689654,-1.3824011303675832e-05
-0.18713653749511483,0.7810251224999947,0.48183746057363486,1.5410737571521134,0.06981860473979573,0.621898533607558,-1.3636915539017025e-05
-0.19804731685008292,0.7816235167809875,0.48956575572707894,1.5380196539026691,0.06959993813295906,0.6206008271358359,-1.3721531981758517e-05
-0.1873493534311894,0.7756398028575626,0.47253066238215613,1.5364073109329386,0.06986874418916145,0.6202503323566217,-1.3631878240438766e-05
-0.19982137624103213,0.7769228620158453,0.4824638015691871,1.5336072092319242,0.06989199819351644,0.619121203208099,-1.3606275836686166e-05
-0.1834383414042513,0.767229275427062,0.45513342024359105,1.5306762930656097,0.07033625619710904,0.6186429891309055,-1.3458720945713765e-05
-0.19425105694612377,0.7683153081112293,0.46373151528746703,1.5283469131192033,0.07035497460702977,0.6176488898827817,-1.3578601133268364e-05
-0.17610580945485577,0.7577561887761055,0.4328957446293229,1.5249012089292284,0.07087185567996812,0.6170556775344194,-1.3341200562067002e-05
-0.1826432172267225,0.7581881264862602,0.4376804074712082,1.5233589195260286,0.07074786653074039,0.6163214790249674,-1.3444467118262082e-05
-0.1813692514476175,0.7512614654451193,0.4229395748253131,1.5178815863796418,0.07116637911464974,0.6150873694954466,-1.3367616652715242e-05
-0.156738507653702,0.7362419532538604,0.37679301465639803,1.5117718043307882,0.07200904944162101,0.6138760936909247,-1.3081151113425449e-05
-0.16770501363182522,0.7361149278801999,0.38247786902657843,1.50931532512167,0.07109803886970667,0.6144056361417247,-1.3079205534616278e-05
-0.1644549366135024,0.7313269536829781,0.3691220670235946,1.505747898220669,0.07147084827542027,0.612871614042259,-1.3029495938177149e-05
-0.15604860701266343,0.7254988654833365,0.34983504904576,1.5024475922045362,0.07191792244559547,0.6114046256434218,-1.2959907427223527e-05
-0.16340632319130677,0.7242664274652482,0.35097192278739975,1.4996398782915348,0.07209403657990077,0.609918215266922,-1.306873132822517e-05
-0.14753891775585704,0.7177485778417534,0.32470751863067004,1.4972486580441835,0.07261040389694173,0.6087016061830806,-1.2983642037944776e-05
-0.16141818810622333,0.7188460093450351,0.33592550341896477,1.495341468508789,0.07260796455645746,0.6075129332461886,-1.2948239313637089e-05
-0.14800794292978736,0.7136080606538355,0.3136442300758704,1.4933776598284014,0.07306521634066687,0.6064049736874875,-1.2876363301828064e-05
-0.1475334490235891,0.7113297260022549,0.306557609744349,1.4913198298310686,0.07332809168782184,0.6051852290809148,-1.2861420142229463e-05
-0.1384067655020509,0.7064688010003071,0.28643268587366677,1.4885967360696126,0.07382758401202949,0.6036705459272103,-1.2806777097473798e-05
-0.15153414112475527,0.706358345290786,0.2932991280158639,1.4865123011189603,0.07433540425581242,0.6034859340807373,-1.2902870351716444e-05
-0.14181427128963708,0.7027979649835876,0.27590670380421844,1.4852533040274176,0.07501874243631868,0.6033164650223206,-1.2847907306934303e-05
-0.13016858724748115,0.6986139131043281,0.2544056239813237,1.4836741218567298,0.07586343479284885,0.603134200900981,-1.2781898464986341e-05
-0.11797280404009669,0.6945575735136851,0.231714475344452,1.4820837610142545,0.07675907415027261,0.6029304406897591,-1.2740369561115017e-05
-0.10618216369971734,0.6910473428499895,0.2099199567747867,1.4806756067928077,0.07762603393915235,0.602706315241023,-1.268599138626314e-05
-0.10622820101168262,0.6896375384510254,0.20291457995868178,1.4795085022669587,0.07824099218740788,0.6025374168047986,-1.2669374029883329e-05
-0.09528254628983479,0.6868439420548293,0.18279803040328702,1.478393755839691,0.07904971106804037,0.602260943577261,-1.2525271716690156e-05
-0.08585410791326797,0.6843624580156362,0.16356027644554594,1.4772458003346474,0.07990111522748844,0.601970617761177,-1.2553617662725003e-05
-0.08125923314761874,0.6828430216345902,0.15115734065814568,1.4763662520650032,0.08059459952830483,0.6017162797597466,-1.2535385154777146e-05
-0.07218037795339338,0.6812081274071895,0.13477599499742876,1.4757033131525654,0.08126787604152597,0.6014204603121263,-1.2536916911720652e-05
-0.0705279555197027,0.680364889749792,0.12693477348607374,1.4751029046775042,0.08182779248595384,0.6012027208339967,-1.242129680179005e-05
-0.05825087610702795,0.6784003085080732,0.10360036779443149,1.47426105760084,0.08278709189486921,0.6007607422113024,-1.2457584825043e-05
-0.054563080675685605,0.6777716257404149,0.09452921496363587,1.4739014743247711,0.08329878158370096,0.6005191788134487,-1.245094120161383e-05
-0.04736247229920654,0.6768914663559009,0.07992194498336413,1.4734777642195729,0.08397953290184201,0.6001736643927371,-1.2468544731802922e-05
-0.04241517829914443,0.6762813908221874,0.0679367402540505,1.4731333196522565,0.08462444782909628,0.5998514717249197,-1.2422332124728541e-05
-0.03435751820487987,0.6756726324426268,0.05260390384104152,1.472855239921178,0.08530215153998544,0.5994700239682587,-1.239411221654052e-05
-0.030471216980120452,0.6753138075395428,0.0403803237380842,1.4726161086090794,0.08604262548527686,0.5990914719050622,-1.2445866977017772e-05
-0.02175715378703913,0.6750139933895252,0.024464643416597376,1.4724852123031953,0.08672598497796802,0.598662781204748,-1.2330747987121526e-05
-0.01565787702910626,0.6749316835527006,0.011420588909771823,1.4724312987473063,0.08738038805120851,0.5982719090088322,-1.2430817164954533e-05
-0.008844535239925122,0.6749920918264234,-0.0035347770300724335,1.4724475205254262,0.08813276236694367,0.5978074856500948,-1.2319657904491521e-05
-0.0020409719153740014,0.6751942824290147,-0.01723944792759813,1.4725283804012603,0.08879455983849649,0.5973783981521921,-1.2432798021322355e-05
0.0028692409999990787,0.6755349415590421,-0.02908423059383214,1.4726972545943289,0.08945250318207965,0.5969656095374765,-1.2314554701298164e-05
0.006068827967818713,0.6757140752505446,-0.03480317305306091,1.4727619265524172,0.08971988600176406,0.5967849004757273,-1.238090273858461e-05
0.0113649441099275,0.676232285329804,-0.04717887606917426,1.4730220275413188,0.09039181941210828,0.5963436636190727,-1.2384630635686733e-05
0.019820138140900667,0.6770255433859962,-0.06396708253220229,1.473370476476676,0.09118254472897291,0.5957699635518541,-1.243924507132732e-05
0.024412299806666482,0.6778614170196917,-0.07598967140042845,1.4738253748662506,0.09189162056375721,0.5952956792756012,-1.2404793264586544e-05
0.03365104061499036,0.679005529474165,-0.09311241357673161,1.4742902773663413,0.0926650218887195,0.5946927538060747,-1.2407282082627091e-05
0.035600043982327634,0.6796432001566508,-0.09936422308395798,1.4746697746405752,0.09310803712883686,0.5944187751936658,-1.23984575184366e-05
0.04347083811391439,0.6810289302172059,-0.11510917005927634,1.4752875119190838,0.09387873322212315,0.5938178554462343,-1.2372005269156716e-05
0.04840250837136484,0.6825530073816415,-0.12843123260959732,1.4761348216465908,0.09468449763631703,0.5932333725888492,-1.2382602746718874e-05
0.05768044651081983,0.6843708157883119,-0.14556806693109614,1.4768713084009697,0.09547870257149516,0.5925687981657424,-1.2407116272150631e-05
0.06083072709421966,0.6859372570355244,-0.1559845102698656,1.4778157282367,0.09620163533176829,0.5920664460177489,-1.2420093352893957e-05
0.07033523349341042,0.6881642606530329,-0.17354197102138702,1.478714613900185,0.09702652067288131,0.5913542391970141,-1.2498907496549805e-05
0.0735941705013996,0.6898908820235947,-0.1835329077290897,1.479725026588282,0.09771742816498818,0.5908658756236518,-1.2517454468508049e-05
0.08331994828829004,0.6925507453444943,-0.20152936391239784,1.4807892273330339,0.0985731714072946,0.5901063817383738,-1.2501751639248937e-05
0.08441942650643064,0.6942023991460866,-0.20876654537621953,1.4819277478349004,0.09921462981204243,0.5896993754519615,-1.2511491765287985e-05
0.08990250561170487,0.6957740092374713,-0.2184248185703197,1.4825091004648723,0.09968471031131809,0.589299474366686,-1.2582346825773527e-05
0.09729156384343707,0.6990257923710637,-0.23532323750368267,1.4841119742081466,0.10064624753445273,0.5884785217255146,-1.2620344320701804e-05
0.10477679685637309,0.7022953438554094,-0.2514791094109059,1.4856417939614452,0.1015549758921388,0.587703175398036,-1.2729773245290232e-05
0.10958826412454403,0.7051641123983581,-0.26386919322158064,1.487160166186694,0.10236753255506859,0.5870731846615396,-1.263870713685833e-05
0.11817984647413393,0.7089865854127959,-0.2812734217240713,1.4888208745374198,0.10331338598402251,0.5862354092474336,-1.2684009774943661e-05
0.11999751795398161,0.7112029151690882,-0.2888617036130485,1.4902176471280422,0.1039651436336495,0.5858194382035435,-1.2761588101817267e-05
0.13068865853547162,0.7157843833323572,-0.30878615637210416,1.4919835590173198,0.10497023306077224,0.58486628490886,-1.2817556561017796e-05
0.1283563454568366,0.717699101962749,-0.3123265392126324,1.4938152865952201,0.10563270247817691,0.5845744957772139,-1.2912279232502044e-05
0.14093216928676622,0.723577876023171,-0.33587271392746576,1.4960761091123382,0.10682031902023947,0.5833906652309393,-1.2987509198758573e-05
0.1443573964693412,0.7265979982379083,-0.3454128901074105,1.4976882091943633,0.1075415360210128,0.5828966543141112,-1.3022458737133036e-05
0.15109868611583632,0.7309697992976325,-0.3601276755622509,1.4996471758168068,0.10845450069969065,0.5821421789684811,-1.2948746823226998e-05
0.15369511599543806,0.7352171764807576,-0.3714926499718896,1.5022678200890747,0.10944139784466334,0.5814659480984421,-1.2998419882670476e-05
0.15596618551257002,0.7385513584807635,-0.3803009592598192,1.5042813612229633,0.11022888300142775,0.5809751915844874,-1.303715566969288e-05
0.15687730714526715,0.7425088458095779,-0.3894213810675815,1.5070396899993943,0.1111846967342629,0.5803861476638561,-1.3210087051795938e-05
0.16389837347479475,0.7487626110378418,-0.40707172969610017,1.510158271574948,0.11240452868841633,0.5793571859429436,-1.3289191086229835e-05
0.14975876742874128,0.7499937641451604,-0.4004368027608143,1.5143889136335682,0.1133078096226221,0.5793760447808562,-1.3303347956572509e-05
0.1639130785421985,0.7580027883132567,-0.42566612677989024,1.5171846254872419,0.11465005748184076,0.5779927858944367,-1.3396929441356065e-05
0.17183223488990063,0.7640440412902443,-0.4421578631195633,1.5197203751453214,0.11574188431652477,0.5771017535535083,-1.333896602684348e-05
0.14621424996283494,0.7626599427666809,-0.42300836622692195,1.5253233057596267,0.11660544068723233,0.5776844806270924,-1.3439299321404974e-05
0.16958281295425603,0.7778970539065329,-0.46656962638325705,1.5310372062401632,0.11893715321840581,0.5748918989380281,-1.3526395514773526e-05
0.18253831511884133,0.7857058117094997,-0.48804772953854236,1.5331338574046809,0.12014052412536724,0.5738497205733912,-1.3572338915857074e-05
0.16645705790122012,0.7821459567099494,-0.4715789705063429,1.5352330864808597,0.12011630681389462,0.5748494385794318,-1.35665218632397e-05
0.18052927744287928,0.791167413944148,-0.4957026103829456,1.5378600533395135,0.12145797682611548,0.5735546629631783,-1.362992783704442e-05
0.16981837361815177,0.7898811309721543,-0.48647477649402227,1.5401165003365813,0.12189356043499444,0.5741337962109929,-1.3725477178816448e-05
0.18384800187360284,0.799257702042504,-0.510752879990882,1.542850561093104,0.12324751236351528,0.5727958339140686,-1.3847670000011192e-05
0.15942383520379533,0.794647333946382,-0.48745956041582605,1.5470889229041012,0.12376246735942509,0.574099005527315,-1.367121771078672e-05
0.1783780961373571,0.8077703225058865,-0.5208100323415268,1.5511224340242018,0.12561642899672076,0.572079276593624,-1.3817159683959801e-05
0.190674145829818,0.8169638714943588,-0.5425886348446998,1.5537937844903071,0.1269607501081964,0.5709491468446082,-1.396090240035619e-05
0.15266665255609446,0.8070372173339244,-0.5030835007410293,1.559273084685194,0.12610852818530294,0.5728261512116655,-1.3785471511873482e-05
0.1640488051523592,0.8142148009930423,-0.5214658460272732,1.5609706296714707,0.127158958498657,0.5718773169701405,-1.3877068555601113e-05
0.17539183558069027,0.8217004694148509,-0.5399740645332232,1.5627167942788525,0.12822120860887498,0.570936887550535,-1.3974541711370136e-05
0.19856353381433056,0.8393956829031817,-0.5806511452951773,1.5675637159263713,0.13053984496169058,0.5685559019117186,-1.422105403392493e-05
0.178047346931673,0.8320853392055083,-0.5571034702620432,1.56930024932519,0.12984625908158343,0.5681301168996056,-1.4150263364598459e-05
0.1921851679755413,0.8420666111459685,-0.5802271284835436,1.5714062990288014,0.13121680607923114,0.5670223151533715,-1.4252547988036213e-05
0.16825604664202398,0.833699146646274,-0.5529289824421086,1.5738739012139984,0.1304946905769384,0.5674969150796008,-1.4163135913847213e-05
0.185749184563206,0.846137527033183,-0.581792227277953,1.576632409420923,0.132215795587455,0.5660222682049332,-1.4297424998588326e-05
0.17787396113370946,0.8451307685418401,-0.5749869484647494,1.5788426383214471,0.13283597917895662,0.5668286208343867,-1.4262198871684006e-05
0.19389706934230944,0.856610877824239,-0.6010807150547679,1.5811272596063928,0.13439930532384103,0.5655902176339991,-1.4450487349826346e-05
0.16806415591215362,0.8463314706991651,-0.5704648475756464,1.5831751640147544,0.1335278855074229,0.565081101603548,-1.431458153877685e-05
0.18279518769351366,0.8565228168831593,-0.5939861633071217,1.585046872994531,0.13496957902256224,0.563997356183707,-1.4450698568424514e-05
0.183412825083753,0.859623386357744,-0.5982728278859124,1.5870090516520134,0.1359051987102502,0.5641892627777896,-1.4445820353259364e-05
0.17972873270493483,0.8606850710414031,-0.5970563691299224,1.5892640725756193,0.13679324514284552,0.5647987293422041,-1.4473498824330022e-05
0.19181642996655235,0.8707897882097653,-0.6182597061327071,1.5918352831553868,0.1384671892193179,0.5640648491708093,-1.460724110557976e-05
0.1695824937263657,0.8608104503706384,-0.5907921975510089,1.5932948208559372,0.13770981887861833,0.5638241347061994,-1.4562121021910457e-05
0.18298054224351734,0.8697597627995526,-0.6114544273592069,1.5945406745337225,0.13899511031005396,0.5629894601335943,-1.4683679542493167e-05
0.17641497413792795,0.868434217888221,-0.6052197523312142,1.5963359828771244,0.139684678057713,0.5640148644819805,-1.4645332805152123e-05
0.1914673112460754,0.8786489589247513,-0.6283959094997487,1.597654449227008,0.14111947111824286,0.5631106453933521,-1.479019105410373e-05
0.1678706314369416,0.8673822066985917,-0.5985351237991994,1.5989577953499658,0.14029103582856184,0.5629068428936055,-1.463360428655136e-05
0.1835767288822039,0.8777593571285776,-0.6224106888230345,1.6001677532283116,0.14179221557534305,0.5619911908160162,-1.4654719729279009e-05
0.16831336649206108,0.8712010405453192,-0.6037407675363697,1.6017734101472687,0.142197728227468,0.563284981182016,-1.4542071419931801e-05
0.1826053227822957,0.8804632019581913,-0.6251618939708727,1.6026812293784678,0.14354210926449973,0.5625082727413453,-1.4704631522199918e-05
0.16888873072390442,0.874603253972789,-0.6084329118226126,1.604231583854797,0.1440426452592547,0.5638463078188636,-1.4604406788798485e-05
0.1806322196059158,0.8820604435108681,-0.6257906753524543,1.6048255564127656,0.1451273235806152,0.563251842161578,-1.4796020471052884e-05
0.17609032582400008,0.8808484768264124,-0.6210785565169452,1.6059861498452879,0.14579106845957313,0.5643130113922767,-1.4672976889507083e-05
0.1880799190131608,0.8889794351148064,-0.6392588528712597,1.606868625378958,0.14714349988434883,0.5639220403600991,-1.478328684445529e-05
0.1594723898328212,0.8739147784498469,-0.6015159987312835,1.6078494589000432,0.14620734797237311,0.563801885536499,-1.4581232425037172e-05
0.1785521375262249,0.8855632159118096,-0.6292096641672007,1.6085155403197362,0.14794886531721563,0.5628770521714843,-1.4828275663347767e-05
0.17796749243815668,0.8863464075068004,-0.6295318508817482,1.6093725681867648,0.1488139402166908,0.5637479656750859,-1.469995979075378e-05
0.17838966568444548,0.887501936659489,-0.6310704312024704,1.6101173077865099,0.14966840623566746,0.5645178946668246,-1.482396401453201e-05
0.177068021744482,0.8872663171818687,-0.6297944417880812,1.6106199106628623,0.15018197850511772,0.5652155779817569,-1.4809747874267032e-05
0.18075587812029603,0.8906575083015271,-0.6363052601693511,1.6117120493768198,0.15167492179945175,0.5662319544748504,-1.4837538675038786e-05
0.1638365260988559,0.8814719646582327,-0.6135280493508679,1.6125258725945955,0.15197005722850054,0.5678020726316886,-1.4693796938303194e-05
0.18207118120196153,0.8920292840400048,-0.6391820646903374,1.6126560596549453,0.15352298748343252,0.5670509711622511,-1.484566686915656e-05
0.15790641808666894,0.8786102568904495,-0.6062770904602433,1.6135510563830167,0.1534335294749054,0.5691025574354711,-1.451854167111577e-05
0.17077898546047798,0.8859207694960078,-0.6242264522347734,1.6135436331130695,0.15451023018849686,0.568573186014925,-1.4745582673114654e-05
0.20341388556905038,0.9051663927771152,-0.6699219024181868,1.6134995482224088,0.15725245026786183,0.5673079327764476,-1.503106737565929e-05
0.17623621564908998,0.8887219590289002,-0.6320685963497663,1.6136812889612084,0.15635182097765554,0.5676640748448696,-1.4797187602333395e-05
0.1819034284188481,0.8926002185222419,-0.6402020292379413,1.6139173671082512,0.15750656181146727,0.5682776671713228,-1.4832654366969678e-05
0.15839773613070474,0.8793600638033556,-0.6078157182857362,1.6145754104377703,0.15744991445012246,0.5703702489619342,-1.4544819047834778e-05
0.17974152170889468,0.8913394639795058,-0.6372405807432031,1.6143163912109921,0.15919546012921337,0.5695129360297777,-1.4709802725221266e-05
0.16387147480328856,0.8826974598989157,-0.6154634486699013,1.614989810676816,0.1598011972533424,0.571741534728182,-1.4502777670344358e-05
0.17919433764057224,0.8913655221992665,-0.6365987531436108,1.6147942235823756,0.16103365274052361,0.5711184956208388,-1.4646749964875028e-05
0.17365457049120536,0.8883565038384464,-0.6290066340002634,1.6150837704637375,0.16133151877150276,0.5720682705156444,-1.4592070789909428e-05
0.18744957061051348,0.8964215071111283,-0.6481222209395945,1.6149670899466768,0.16259030638274652,0.5717172532981767,-1.4827793266114497e-05
0.1611670388556865,0.8809920830132301,-0.6115519944475238,1.6150429314531811,0.1617591543593786,0.5720844436094215,-1.461718796846867e-05
0.182893413128979,0.8931412153868372,-0.6413917465383001,1.6146922896826652,0.16349616565586977,0.5711778432437251,-1.4698993188844156e-05
0.1549736214033297,0.8771873254534555,-0.6026956944546615,1.615420436464139,0.16301490879334501,0.5739249131853486,-1.4464999076757579e-05
0.17677438491266972,0.8890839032318683,-0.6323970584305991,1.6149484898388762,0.16471623628323062,0.5730025398883294,-1.462425837051029e-05
0.17964893952467698,0.890958874855099,-0.6361792012233609,1.6150527464746949,0.1658230011575812,0.5741131250502338,-1.4593959886788355e-05
0.16515361576745846,0.882594459879634,-0.6157890124637699,1.6154198273824711,0.16634583774828648,0.5762486477350652,-1.4579879174192456e-05
0.18580901678878803,0.8936825303622209,-0.6435770829590837,1.6147742647877328,0.16789357362786994,0.5754543141567661,-1.4612641603406473e-05
0.15864766560372168,0.8773968637624545,-0.6051633930826341,1.6144710834269596,0.16705746826661105,0.5759749575560926,-1.4394389938665597e-05
0.17432653882403848,0.8856097200646298,-0.6260690015011665,1.6138887206340478,0.16823187345047597,0.5753735138324076,-1.4541488052799423e-05
0.1868559499894884,0.8923888788918566,-0.6426919871585453,1.6133757040000933,0.16929720530384973,0.575131025948286,-1.4631764102546185e-05
0.16843146135680698,0.8812451060087261,-0.6164758460001281,1.6130649912277804,0.16872491497386655,0.5755210064848066,-1.4569969457589593e-05
0.18401545763959337,0.8893418499877184,-0.6369832552103665,1.6123291003319355,0.16988189838212264,0.575004776029262,-1.4555573906172015e-05
0.16567389007878486,0.8783355638789097,-0.6108474371328256,1.612400575443509,0.16951000353211398,0.5770258753442228,-1.4390381963380605e-05
0.17955340622712068,0.8853267605390824,-0.6289166940129007,1.6116620380071662,0.17051579142440598,0.5765832222690239,-1.4485423294630095e-05
0.17506341357181032,0.881876397104941,-0.6212143996966502,1.6112999094039173,0.17125899843530945,0.5786728535654362,-1.4414667273143777e-05
0.18911195987330665,0.8886879152189957,-0.6390200050088044,1.610344177584797,0.17236569973500693,0.578520432347827,-1.4543547606216123e-05
0.1662638232984195,0.8742317045399748,-0.6057124617359122,1.60948981593162,0.1716686795161939,0.5791442511567899,-1.43540556294397e-05
0.18102781107958066,0.8812015152926858,-0.6244143044557111,1.6084741460308383,0.17269105381512606,0.5787480708010397,-1.4445855716083145e-05
0.17547351230497732,0.8771287474985003,-0.6152861244195229,1.6080406923101238,0.1731772134649976,0.5804661310276469,-1.43730120321095e-05
0.19385676294282117,0.8854600625939364,-0.6379425692785752,1.6064762428852113,0.17446270184207346,0.5802127166128477,-1.4576145759725989e-05
0.17313647166896295,0.8720529118854214,-0.6073356948863653,1.60544748544475,0.1738360707490969,0.5808468916360301,-1.439978889639093e-05
0.18819728075118825,0.8788248282630704,-0.6258998432997114,1.6041825677516686,0.17483578169954672,0.5805373257182618,-1.4491237434022253e-05
0.16600670802578854,0.8646478396917967,-0.5929537135422303,1.602937569346464,0.17409654198576163,0.5814606928440558,-1.4181522139722347e-05
0.18347083850648804,0.8719637395395488,-0.6139962798674379,1.6012766963210918,0.1752314008993805,0.5811548351415423,-1.4276178345262736e-05
0.17275534679810534,0.8641426683751501,-0.5964013592405601,1.6002498220106531,0.17570708666899204,0.5838258486744143,-1.4186136013449868e-05
0.1874746245319585,0.8702115073858501,-0.6139799904078442,1.59881046483056,0.17662839270895336,0.5835901273003001,-1.4263629749322604e-05
0.16903215796063265,0.8583630051079476,-0.5862209668546186,1.5980035329356541,0.17630337544628194,0.5863058575915456,-1.4182924465089286e-05
0.18622528653701487,0.8649804010251243,-0.6062711749202769,1.5961281702075878,0.17733006499964876,0.5860944592365351,-1.4146010658855346e-05
0.173361133871067,0.8567707573907333,-0.5868139733946505,1.5954365478465231,0.17741360282294494,0.5878442080725339,-1.402683411555472e-05
0.18872208745578511,0.8625603526317702,-0.6045348139201545,1.593701094844569,0.17830549855559674,0.5876844536795671,-1.4134652601249797e-05
0.17114384710075825,0.8511670850531434,-0.5777134057745013,1.5926810881018918,0.17797502793967368,0.5903369971746084,-1.404835031948437e-05
0.18697479131074513,0.8568155833565196,-0.5956564805393629,1.5907861601231934,0.1788542679246783,0.5902054940472174,-1.4137944318370899e-05
