fotiskoutsikos/xarm7_motion_planning/scripts/logs/2025-04-25_11-05-31/desired_joint_angles.csv
j1,j2,j3,j4,j5,j6,j7
0.0,0.7,0.0,1.5707963267948966,0.0,0.8707963267948966,0.0
-0.0014282988621751752,0.7000087630532419,0.006356167408061611,1.570821211752092,0.0007415235365928544,0.8708439249018742,0.0
-0.00301106870221952,0.7000706172846275,0.013407580678310518,1.5708883083367897,0.0015641907526666803,0.8708741619522284,0.0
-0.004151524803351849,0.7001564952548863,0.018468528870869354,1.5709678778660776,0.0021548764908533697,0.8708780247804815,0.0
-0.005491699290888618,0.7002925553150681,0.024422864140920868,1.5710880336899484,0.0028497155145194098,0.8708675509357264,0.0
-0.007296240163397455,0.7005320603183679,0.032463471291473624,1.5712926198957842,0.003787626653507379,0.8708295145317166,0.0
-0.008682104818328092,0.7007726234611273,0.03861232861815558,1.5714924765527396,0.004504924740729064,0.8707760799894336,0.0
-0.010290489812130658,0.7011030003456038,0.045752163299763005,1.5717631989315508,0.005337479893219766,0.8706924559829216,0.0
-0.012232291536992942,0.7015738386809698,0.05437850812860103,1.5721445571817991,0.006342765003143236,0.8705612480182394,0.0
-0.013622428762597854,0.7019701949692121,0.060518659545160204,1.5724620056305432,0.007058123309681136,0.8704424566402992,0.0
-0.014969639384210654,0.7023957103657955,0.06645775140227206,1.5728007229355032,0.00774969382335921,0.8703101859763895,0.0
-0.017008517473048428,0.7031034915708713,0.07546696331915753,1.573361625356663,0.008797731163801352,0.8700837709733283,0.0
-0.01827085021950003,0.7035955949544679,0.08100274311393253,1.573748805356986,0.009441320864775598,0.8699215496677696,0.0
-0.019669682430144064,0.7041792651217462,0.0871293155668808,1.5742064440005552,0.010153026097900125,0.8697262911817166,0.0
-0.020823681221582784,0.7046942750484467,0.09216496904983705,1.5746086969388453,0.010737559769764765,0.869551794867734,0.0
-0.022159803942385137,0.7053235204846248,0.09798852204218053,1.5750988600656788,0.011412966114195318,0.8693366486278687,0.0
-0.023588833692572017,0.7060364743488523,0.10420361839950967,1.575652544909511,0.012133064023109413,0.8690907721195235,0.0
-0.025359905290594176,0.7069735604557427,0.11189522863082696,1.5763781599235798,0.013023140931500553,0.8687650751706208,0.0
-0.026909967493422452,0.7078481041263827,0.11859382035942549,1.5770526714291075,0.013797267430850269,0.868459018260552,0.0
-0.028327953064214064,0.708690988443831,0.12469603165470346,1.5777006069319712,0.014501559181240816,0.8681627183440265,0.0
-0.030592541233568988,0.7101044570364258,0.13443745966822052,1.5787845540086118,0.015624092328716333,0.8676638633890525,0.0
-0.03307383850806828,0.7117611947167003,0.14505183083747955,1.5800492982658707,0.016844513498692842,0.8670770336186422,0.0
-0.0346949018606235,0.7129139651098211,0.15191852357596766,1.5809244403521854,0.017632222997521676,0.8666683079365364,0.0
-0.03602090545880605,0.7138940397519038,0.15750392806089028,1.581665883060651,0.018271852385100273,0.8663209064177232,0.0
-0.03774657259385947,0.7152105518597635,0.1647505884607742,1.5826592675008115,0.019100385696816984,0.8658543952748603,0.0
-0.03943324679648343,0.7165461855493814,0.17179376261784293,1.5836633747407052,0.01990402203670388,0.8653817425330891,0.0
-0.04075184300140197,0.717625753072428,0.1772653423654635,1.5844719151297908,0.020527088981655443,0.8650005071028322,0.0
-0.042028014402930435,0.7186972068130882,0.18253707205065917,1.5852720515571095,0.021126396574420697,0.8646228611476875,0.0
-0.04342712401821458,0.7198997992594689,0.1882924204428533,1.5861676025934586,0.021779585089536105,0.8641998728776067,0.0
-0.0450458072042186,0.7213257582817626,0.19491997670032088,1.5872261825877056,0.02253034482779659,0.86369959981722,0.0
-0.04564437935200755,0.7218664689378295,0.19735350125215145,1.587625992654867,0.022805435149916987,0.8635106108613235,0.0
-0.0467711457815673,0.7228946635169716,0.20192719375634724,1.588385280697145,0.0233219925152936,0.8631516741113515,0.0
-0.048045987264667064,0.7240782989683809,0.20708102329371142,1.5892570463901454,0.023903140716925456,0.8627395801141274,0.0
-0.04930177961335914,0.7252660682478873,0.2121332611024833,1.590129164543266,0.024471797443688537,0.8623274013675993,0.0
-0.05107142607279921,0.7269698020352691,0.21922005244586135,1.5913763327556012,0.02526798303441878,0.861738157423948,0.0
-0.05241266294835549,0.7282911837961521,0.2245526913195548,1.5923392758113348,0.02586554597847125,0.861283514073963,0.0
-0.053955864038589436,0.7298370165670265,0.23065529717021493,1.5934619114296955,0.026548011860096584,0.8607538528109616,0.0
-0.055334832554091704,0.7312435635130352,0.23607392784849543,1.594479261469079,0.027152565996448875,0.8602743353800103,0.0
-0.057042211148806615,0.7330117090696462,0.24274381809555948,1.5957534109030904,0.027895145181968204,0.8596744046211021,0.0
-0.05876000690429737,0.7348226063133049,0.24940546444569167,1.5970522599077188,0.028634834554489313,0.8590637212898556,0.0
-0.059987147464169166,0.7361387174177719,0.25413055164297177,1.5979917517428899,0.029158053641263507,0.8586227004572893,0.0
-0.06142123568311115,0.7376940349744152,0.2596220774151546,1.599098073941571,0.029764952189701342,0.8581040474560849,0.0
-0.06276167837227256,0.7391663818666082,0.2647229850280451,1.6001410356097359,0.030327368764911558,0.8576158802641153,0.0
-0.0638035406581722,0.7403240840477479,0.2686653400010388,1.6009579263574318,0.03076108004830513,0.8572341276510148,0.0
-0.06510495504843881,0.7417816507822668,0.2735652934410705,1.6019831180888395,0.03129922883299832,0.8567556843131736,0.0
-0.06669548969876861,0.7435797469801202,0.2795160313479082,1.6032426833979116,0.03195139936096929,0.8561689036020531,0.0
-0.068399379881363,0.7455274493428398,0.28584303942449424,1.6046002299989095,0.03264298754265774,0.8555378862280056,0.0
-0.07003659588937061,0.7474204504855045,0.29187490925295695,1.6059125320878849,0.03330043208741876,0.8549294093667453,0.0
-0.07152720106857405,0.7491620390414865,0.29732591663587954,1.60711353339984,0.03389291471974038,0.8543739223577513,0.0
-0.0733170343753168,0.7512696933972898,0.30382102195257205,1.6085595846383516,0.034597142172115215,0.8537067576781373,0.0
-0.0751465651493284,0.7534445378207127,0.31040271505568107,1.610042672331653,0.035308600592072144,0.8530245670675473,0.0
-0.0762669984687495,0.7547912612289759,0.31440457827311996,1.6109556401586904,0.03573977676386445,0.8526058641823763,0.0
-0.07828067511845951,0.7572175399737802,0.32154228689219244,1.612593052629501,0.03650749796237007,0.8518566965215933,0.0
-0.0796053430431687,0.7588308944343588,0.3261999315791213,1.613674532048541,0.03700666582778358,0.8513636143541697,0.0
-0.08123749275752513,0.7608270012973395,0.33189681445508395,1.6150058335636863,0.037615868677582924,0.8507582759091691,0.0
-0.08255119461905804,0.7624449589908361,0.3364494883246167,1.6160786847985367,0.03810131305671725,0.850271976315729,0.0
-0.08373419535715668,0.7639090607443508,0.34052424989278457,1.6170448344207584,0.03853480283245389,0.8498352005692339,0.0
-0.08603561083717652,0.7667557295973666,0.3483782693252055,1.618913028599158,0.03936890698299671,0.8489932253256123,0.0
-0.0878815233266572,0.7690576715408232,0.35461441616385136,1.6204108260084835,0.0400285156513123,0.8483213768811743,0.0
-0.08962886584857019,0.7712473749906984,0.3604649767176121,1.6218252785160303,0.04064537907010094,0.8476895112797055,0.0
-0.09161792302189195,0.773746762958076,0.36706111010593395,1.6234279386211423,0.04133884334615611,0.8469765838215837,0.0
-0.09350896850997126,0.7761328165850835,0.3732716441304686,1.6249455214086486,0.041989557863537925,0.8463046655306949,0.0
-0.09489347334077047,0.7778890351949955,0.37778358045274363,1.626054288931517,0.042460719688223486,0.8458158564691141,0.0
-0.09643211457538205,0.7798431207589627,0.38276011538948457,1.627280455428286,0.04297921604030384,0.8452772487306407,0.0
-0.09795174815392227,0.7817767741059687,0.38763745759381435,1.6284857407249058,0.04348606933698094,0.8447499115725855,0.0
-0.09924517882077594,0.7834269046873531,0.3917605885321741,1.6295077339139112,0.04391343031289624,0.8443044795074481,0.0
-0.10084308818323448,0.785464635987522,0.39681520366019823,1.6307619917751381,0.044436274198245355,0.8437598749361581,0.0
-0.10233242996566418,0.7873669598176675,0.4014904876254371,1.6319246249076158,0.044918593911884165,0.8432572290061958,0.0
-0.10377125610880233,0.7892065886006128,0.4059742560506923,1.6330413464334705,0.04538002406974088,0.8427764378022797,0.0
-0.10521916744752799,0.7910586556643959,0.4104535341830671,1.6341580853737645,0.04583991878880314,0.8422976380472265,0.0
-0.10704284426941023,0.7933874217526226,0.416045613367427,1.6355518568605614,0.04641280918974301,0.841702850904348,0.0
-0.10888115377068514,0.795734791968201,0.42163063830289377,1.6369444593463398,0.04698332017476529,0.8411118418521621,0.0
-0.11123262181337702,0.7987282487534902,0.42869358225873117,1.638702917201318,0.04770285361408431,0.8403702791084176,0.0
-0.11332497587894856,0.8013935568199334,0.43491136654743506,1.6402510266303434,0.04833391475994892,0.8397221117905304,0.0
-0.11511931855367652,0.8036806327590356,0.44019487944139774,1.641566098832904,0.04886837250012884,0.8391750884968334,0.0
-0.11740763431230995,0.8065857419424766,0.4468584702221134,1.6432195389659774,0.04954073036681892,0.8384919864873508,0.0
-0.11942775809300948,0.8091495988724288,0.4526815364870905,1.6446620179128157,0.05012621279470126,0.8379005641551213,0.0
-0.12143303430621966,0.8116899731483334,0.45840476253925877,1.6460759141601413,0.05069994376840341,0.8373250668357861,0.0
-0.1232258139828155,0.8139591092472741,0.4634761369131748,1.6473256691312543,0.051206808392665386,0.8368199809768068,0.0
-0.12496632073741742,0.816158111701833,0.46835777137023576,1.6485249643387525,0.05169344784410761,0.8363385552845295,0.0
-0.1265201484645125,0.818119088343957,0.47268268971645067,1.649584483262932,0.05212349813157745,0.8359159866962383,0.0
-0.12795045009512626,0.8199216979167021,0.47663611557582586,1.650550137390823,0.052515737814025985,0.8355331584624057,0.0
-0.12935581753106076,0.82168952339142,0.4804943041624104,1.6514894428774682,0.052897770436391656,0.8351629368417466,0.0
-0.13110844785896383,0.8238849083199102,0.48526576312530256,1.6526454211186772,0.05336939708797071,0.8347103213274164,0.0
-0.13321638691250035,0.8265124146704567,0.4909472537787172,1.6540134286136337,0.05392973778372039,0.8341791305414762,0.0
-0.135585359262545,0.8294503482898291,0.49726099730827733,1.655522733345231,0.05455077804774615,0.8335988991945579,0.0
-0.13665475902388757,0.8307817622570435,0.500096547342423,1.6561992301920685,0.054828696049187074,0.8333408347476957,0.0
-0.13958630853407997,0.834383001500968,0.5077640558629652,1.6580076423287973,0.05557975254495103,0.8326576654467734,0.0
-0.141450494135885,0.8366757203358886,0.512597803957531,1.6591412518926172,0.056051315676010204,0.832234321750901,0.0
-0.14343608335463495,0.8391071574770178,0.5176993300834718,1.6603287039484644,0.0565479020507957,0.8317951964658409,0.0
-0.1457984658886842,0.8419819205192315,0.523703454855014,1.6617129868948826,0.05713105931820746,0.8312891581789386,0.0
-0.14803761766996595,0.8446958023164074,0.5293369592289454,1.6629999220374259,0.0576766963560294,0.8308245500348365,0.0
-0.15066498088030447,0.8478578058517536,0.5358692457224923,1.6644749344444942,0.05830788385224618,0.8302994523717316,0.0
-0.15291063568331348,0.8505518647712038,0.5413975124335756,1.6657106433406768,0.05884043699073276,0.8298657589070648,0.0
-0.1551761106458127,0.8532562544465722,0.5469192624802544,1.6669315872046233,0.05937109013366593,0.8294431830491058,0.0
-0.15765068229757745,0.8561918658002845,0.5528857556888497,1.6682346510049386,0.05994318007677912,0.828999091589748,0.0
-0.15995791125498057,0.858916903114044,0.5583941260394936,1.669423370777362,0.06046998968118883,0.8286003848334016,0.0
-0.16224693368036996,0.8616068945870609,0.5638061327809202,1.670576988471063,0.060986408383222175,0.8282196552228221,0.0
-0.16474993599429327,0.8645294435278709,0.569661712671853,1.6718078607451974,0.06154398096446438,0.8278206324923804,0.0
-0.16684535194675357,0.8669684981118781,0.5745220898581122,1.6728172036723294,0.06200564991700091,0.8274990232479092,0.0
-0.16982687264761318,0.8704038787891231,0.5813514035057031,1.6742106584735004,0.06265333933709957,0.8270645924592076,0.0
-0.17127465292752386,0.872357102926616,0.5851058582827899,1.674966838166554,0.06305100877404432,0.826425810328392,0.0
-0.17216664005312246,0.8740511259666031,0.5881933702498071,1.67559855906855,0.06344936522297455,0.8253295067435757,0.0
-0.17256636786268947,0.8753721021136912,0.5904615798576665,1.6760807157038686,0.06380620942935077,0.8240548672548433,0.0
-0.17274894095264734,0.8765460080917528,0.5924201569769674,1.6764549666634299,0.06416016037312061,0.8225104374215613,0.0
-0.17280767342880585,0.8776521081030884,0.5942547459167824,1.6767175847712836,0.06452888487517382,0.820598038835635,0.0
-0.17277904812979655,0.878560595125448,0.5957410619488355,1.6768945086099922,0.0648534116015367,0.8187916027603239,0.0
-0.17271374105211587,0.8793943134296602,0.5970856335770607,1.6770510048870295,0.06516191701890149,0.8170605498615533,0.0
-0.17261950857828667,0.8802890287909042,0.598510053371994,1.6772243404250555,0.06550069672096716,0.8151878161392249,0.0
-0.17252403152049775,0.8810475438907475,0.5996991382698043,1.677385319022773,0.06579159529522387,0.8136261323513906,0.0
-0.1724311126613476,0.8817467731149461,0.6007829553459054,1.6775472218255303,0.0660613204794721,0.8122254428789212,0.0
-0.17235028189622095,0.8823409226000194,0.6016949807307912,1.6776959173386907,0.06629111284556764,0.8110703293371035,0.0
-0.1722810890532333,0.8828491323682557,0.6024694837425097,1.6778307773313685,0.06648795415398995,0.8101082241682444,0.0
-0.17219073101463855,0.8835467759196095,0.6035299660476583,1.6780214345099218,0.06675966643560445,0.8088126318258733,0.0
-0.1721084338299024,0.8841887050531123,0.6044995516795553,1.678205142104332,0.06701077546450705,0.8076497542940057,0.0
-0.17200601741798266,0.8850419668849333,0.6057858552637931,1.6784545969610452,0.06734759072015101,0.8061316121890191,0.0
-0.1719000990059788,0.8859555296133473,0.6071571084334856,1.6787286878504288,0.06771242271830367,0.8045351769317113,0.0
-0.1718001529179005,0.8868338443690439,0.6084691991280976,1.6789981107560312,0.06806769742415804,0.8030230428309449,0.0
-0.1717288673468731,0.8874436120737951,0.6093740877920208,1.6791902016443458,0.06831657449473783,0.8019877341722101,0.0
-0.17164951702041295,0.888173471776288,0.6104576058720921,1.6794201231298342,0.0686180374775368,0.8007569522327108,0.0
-0.1715855308903676,0.888760359661827,0.6113260587174397,1.6796062272337269,0.06886326745968402,0.7997711713407345,0.0
-0.17153109912111297,0.8892670251860866,0.6120745792708445,1.6797671136988055,0.06907717650959379,0.7989220381153819,0.0
-0.17147560261600184,0.889806150560262,0.6128714031805471,1.6799369854002755,0.06930754141938743,0.7980174428775588,0.0
-0.17141923760277056,0.8903747353046457,0.6137122759749991,1.6801138579065433,0.06955403184090418,0.7970587192789036,0.0
-0.17136832875073324,0.8908912996518477,0.6144758074019061,1.680272558023935,0.06978135335701406,0.7961813427601203,0.0
-0.17131180801953425,0.891498674513167,0.6153755316213415,1.6804547335933357,0.07005352148784273,0.7951394011871706,0.0
-0.17126962377827434,0.8919277147275607,0.6160094833794619,1.6805818194234412,0.07024894040674212,0.7943946724191375,0.0
-0.17123119808488424,0.8923239533197451,0.6165951119227103,1.6806975192527176,0.07043186016799721,0.7937019385685783,0.0
-0.1711878771360394,0.8927964832727425,0.6172952446040081,1.680832039181288,0.07065361637292798,0.79286761541084,0.0
-0.17113303931552423,0.8934651987177689,0.6182914928513127,1.6810132397651625,0.0709755798953812,0.7916648784060112,0.0
-0.17108176055973093,0.8940514223526115,0.6191647828907206,1.6811643740439803,0.0712666184741202,0.7905794531408571,0.0
-0.17102814148413858,0.894690490805792,0.6201200538347267,1.6813196084275726,0.07159407053703937,0.7893668709316174,0.0
-0.1709825189704837,0.8951900367335273,0.6208658523231771,1.6814352253348168,0.0718580495508034,0.7883939755870497,0.0
-0.17093395722418514,0.8957705053834686,0.6217367390655506,1.6815607371337769,0.07217461288096096,0.7872396751812152,0.0
-0.17088962523767087,0.8962780886670135,0.6224989826807475,1.6816630017779537,0.07246133989274593,0.7862018722847205,0.0
-0.17086112858057212,0.8965658145298477,0.6229292445718805,1.6817196161840446,0.07262777421134396,0.7856039791997529,0.0
-0.17082184809459677,0.897050489107369,0.6236608165517187,1.681806530977855,0.07291626199976377,0.784580620924446,0.0
-0.17078848482602194,0.897429159511056,0.6242322315245271,1.6818692747956092,0.07314948990737691,0.7837594000868865,0.0
-0.17075909452616267,0.8977616260407889,0.6247347018580688,1.6819205393854375,0.07336018228053641,0.7830250834241587,0.0
-0.17072972805015518,0.898114289382737,0.6252699889509165,1.6819696524466092,0.07359060862446733,0.7822307201762868,0.0
-0.1707022743303357,0.8984455400253015,0.6257742291794617,1.6820105952999722,0.07381440341768786,0.7814669299342212,0.0
-0.17067632988877224,0.8987635367283171,0.6262601829978348,1.682044114035456,0.07403687124193936,0.7807143957463463,0.0
-0.17064887706944581,0.8991435078136287,0.6268462787389291,1.6820730652467213,0.07431459146435528,0.7797822642242662,0.0
-0.17062103551517033,0.8995334485553854,0.6274524327542862,1.682089187934834,0.0746158131577353,0.7787793908682672,0.0
-0.17059803870971416,0.899789513280515,0.6278501094652921,1.6820934305386914,0.0748235875820165,0.7780919364531291,0.0
-0.17057625560571124,0.9000517837434491,0.6282608685044563,1.6820900706575557,0.07504543750076835,0.777363899553653,0.0
-0.17055789706390045,0.9002623084376457,0.6285919476781757,1.6820818784720188,0.07523101513541888,0.7767592451851445,0.0
-0.17053951379486973,0.9004954826193035,0.6289623113465718,1.6820649439091055,0.07544572406138947,0.7760653490239335,0.0
-0.1705227508143205,0.9007012525632861,0.629291257658348,1.6820430124456962,0.0756444511190407,0.7754280952968557,0.0
-0.17050668204846228,0.9009059442536528,0.6296215403091626,1.6820132304629896,0.07585215224746328,0.7747676134236748,0.0
-0.17049083725373465,0.9011211692435072,0.6299729918390233,1.6819715177922787,0.07608346397258631,0.7740388528903926,0.0
-0.1704759987750702,0.9013054502083648,0.6302764619723021,1.6819267091110057,0.07629400039159581,0.7733815843941028,0.0
-0.1704624832786821,0.9014665203973337,0.6305442569376486,1.6818795037418302,0.07648895877773014,0.7727785289932684,0.0
-0.17044933504258436,0.9016926648202302,0.6309300864938044,1.681793940722084,0.07678495751444663,0.7718740617721934,0.0
-0.17043548949508544,0.9018377592442505,0.6311789151931061,1.6817278731591803,0.07699233580001084,0.7712470540214429,0.0
-0.17042357793889923,0.9019604854689051,0.6313923194502615,1.681663414157911,0.07717966142213037,0.7706867874369145,0.0
-0.17041235554011713,0.9020942919275875,0.631630299813369,1.6815807845824289,0.07739978960738066,0.7700359588545359,0.0
-0.1704017772932206,0.9022212089308549,0.6318613418704059,1.681487735205102,0.07762850964469777,0.7693680796641612,0.0
-0.17039194269850091,0.902322003353171,0.6320485164519614,1.6814015925921186,0.07782779502990574,0.7687932193636404,0.0
-0.17038308319915488,0.9024095510784422,0.6322150270190484,1.6813153899706972,0.07801691410526536,0.7682541275974377,0.0
-0.17037500656174426,0.9025091823289296,0.632412388680765,1.6811983250892155,0.07825721184693356,0.7675781857136654,0.0
-0.17036692300903264,0.902578140107382,0.6325529163120592,1.6811029883248116,0.07844491445472616,0.7670571510529265,0.0
-0.17035980027960518,0.9026562888765102,0.6327214123089928,1.6809722696834744,0.078688146371994,0.7663914635734772,0.0
-0.17035453340988732,0.9027406504531945,0.6329215346116103,1.6807843869947101,0.07901421790730423,0.7655150457953668,0.0
-0.17034543288329795,0.9027860024691254,0.6330384764671656,1.6806490244030128,0.07924132736199337,0.7649157648369238,0.0
-0.17033782057871674,0.9028233210922596,0.6331469603029654,1.6805036105454438,0.0794769424347628,0.7643049434873782,0.0
-0.17033422916925353,0.9028485840205223,0.6332297348736085,1.6803813712596498,0.07967046904155008,0.7638115933389749,0.0
-0.17033923944774923,0.9028721893239033,0.6333163080635046,1.6802528748508758,0.07986837217309282,0.7633139185943283,0.0
-0.17034914545175342,0.902891187986528,0.6333969810102117,1.6801270608971153,0.08005680279781865,0.7628448821089185,0.0
-0.1703628631073632,0.9029061292124431,0.6334755373645646,1.6799945368443354,0.08024954200513144,0.7623689864911395,0.0
-0.1703829719355448,0.9029171929001587,0.6335621857937211,1.6798315630589014,0.08047862222516183,0.7618076774194683,0.0
-0.170404756641617,0.9029208400013713,0.6336397388761205,1.6796636699449112,0.08070727387840115,0.7612512091231513,0.0
-0.17042809486925004,0.9029170958852566,0.6337093502919118,1.6794876498124471,0.08094007451405312,0.7606882478866249,0.0
-0.17045024727365884,0.9029070610359375,0.6337660735103106,1.6793181672553472,0.08115879637858643,0.760162430908809,0.0
-0.17046944554280322,0.9028935284730842,0.6338090505091941,1.6791672932872903,0.0813498813364338,0.7597055073272877,0.0
-0.17048785829528662,0.9028768464151014,0.6338448192501901,1.6790214981559664,0.08153162972571296,0.7592731190643269,0.0
-0.1705053660758614,0.9028578157428061,0.6338743927459775,1.678881307344438,0.08170408448548933,0.7588648161571233,0.0
-0.17052449840031614,0.9028340430182547,0.6339019500784573,1.6787282694934391,0.08188994702377078,0.7584269116239456,0.0
-0.1705445223810494,0.9028057889315839,0.6339261846689881,1.6785661083658694,0.08208465035811743,0.7579704752684948,0.0
-0.17056271637024478,0.9027767923150766,0.6339446207620316,1.6784141614769748,0.0822655609715987,0.7575484628311873,0.0
-0.1705831060732374,0.9027414464074985,0.6339614361615534,1.6782420449758406,0.08246887189804498,0.7570765766215771,0.0
-0.17060923010493623,0.9026922598327097,0.6339778087117414,1.6780187548447392,0.0827306143151307,0.7564725174790083,0.0
-0.17062797008249178,0.9026518476198246,0.6339861683733561,1.6778455223492394,0.0829334090097908,0.756007364010284,0.0
-0.17064357332634203,0.902615796632688,0.6339913524149524,1.677695646125552,0.0831089842689895,0.7556067864427397,0.0
-0.17065988840327295,0.9025762804396777,0.6339954201946877,1.6775346507744942,0.083297899980773,0.7551778292841035,0.0
-0.17067672694015484,0.9025373834173994,0.634000071782899,1.6773752088784322,0.0834865712102553,0.7547533704461935,0.0
-0.17070597680021857,0.9024999402502224,0.6340195640161521,1.6771967454687822,0.08370586605512453,0.7542780951035939,0.0
-0.17073490484523218,0.9024750397024903,0.634043045905181,1.6770607418893415,0.08387957760090559,0.7539164476128747,0.0
-0.17077147414471802,0.9024487214918965,0.6340736240973558,1.6769082734879908,0.08407921106471941,0.7535131146042878,0.0
-0.17080954802982662,0.9024245421686418,0.6341052249014186,1.676763629509966,0.08427348856577833,0.7531335446009241,0.0
-0.1708481389820079,0.9024013352056269,0.6341359166786937,1.6766258522541464,0.08446246774863217,0.752775980508602,0.0
-0.17088669986681063,0.9023782970020561,0.6341644878447357,1.6764941500133477,0.08464621360621151,0.752438957249857,0.0
-0.17092395304104255,0.9023554714842923,0.6341895659358275,1.6763709832142688,0.08482043863426672,0.752128938203611,0.0
-0.17096371752391118,0.9023299740272247,0.6342130397328958,1.6762433190766806,0.08500261246291017,0.7518141619105956,0.0
-0.17100399405253247,0.9023024783800229,0.6342329383040038,1.676117086624251,0.08518399790185412,0.7515103530193069,0.0
-0.17105328362624153,0.9022662938845109,0.6342514643817544,1.6759673979956011,0.08539900219650565,0.7511617872296891,0.0
-0.1710821096162308,0.90224295039263,0.6342589619459719,1.6758791123098211,0.0855273669868845,0.7509610789918254,0.0
-0.17111446845881856,0.9022154097056951,0.6342645188287592,1.675782010317857,0.0856681527749787,0.7507462083030455,0.0
-0.1711399450860474,0.902192366507206,0.6342665709573241,1.675705883333787,0.0857787246394369,0.7505817178091478,0.0
-0.1711700090620399,0.9021639979842525,0.6342665251322533,1.675617735655078,0.08590598857960889,0.7503965274800498,0.0
-0.1712005122408495,0.9021336512237661,0.6342635978363139,1.6755293801255624,0.08603289054827393,0.7502164647641977,0.0
-0.17123594815833,0.902096600393915,0.6342567067678675,1.6754285648062985,0.0861763041887744,0.7500183159229079,0.0
-0.17126628604232094,0.9020627896887402,0.6342474098825466,1.6753424026682247,0.08629824428050789,0.7498546641272602,0.0
-0.1713029103383259,0.9020201964916467,0.6342327057086109,1.6752403408257917,0.086440824136054,0.7496685150076018,0.0
-0.1713354576677522,0.9019799952010109,0.6342158437060514,1.6751497929568886,0.08656624444840488,0.7495097669580135,0.0
-0.17137220619407714,0.9019326528015357,0.6341932158166503,1.6750490364337678,0.08670383379413084,0.7493407555598782,0.0
-0.17141340376324513,0.9018770645918728,0.6341633676977837,1.6749375883103266,0.0868534885129068,0.7491630757913056,0.0
-0.17146064156428303,0.90181017094252,0.6341235668024503,1.6748115905807528,0.08701924036626253,0.7489737965695392,0.0
-0.17152130904727414,0.9017202252145355,0.6340649509901656,1.6746532684774134,0.08722156428627009,0.7487533555193907,0.0
-0.17157909882748035,0.9016276843466378,0.6339985639551865,1.674501639138842,0.08741070314322011,0.7485584938388922,0.0
-0.17163270504979905,0.9015362158719795,0.6339282547965628,1.6743605397570085,0.08758273783087309,0.7483909108658338,0.0
-0.1716908758461005,0.9014328025544208,0.63384486936455,1.6742090997715788,0.08776234639935795,0.7482257158539973,0.0
-0.17174924650290793,0.9013240022946949,0.6337531331540117,1.6740575857164202,0.08793725782239187,0.7480746515228411,0.0
-0.17180781759505329,0.9012100965790317,0.6336534871806624,1.6739060146351,0.0881075304756901,0.7479370389085084,0.0
-0.17187143912402916,0.9010822539685657,0.6335383120149073,1.673742828641105,0.08828533650303572,0.7478033416212705,0.0
-0.17192741733526037,0.9009638324800793,0.6334293495710493,1.6735950404357534,0.08843847326502305,0.7476865999662788,0.0
-0.17201269099623573,0.9007843865871225,0.633264666629344,1.6733727242811627,0.08865156584644529,0.747515830904636,0.0
-0.17207431714568724,0.9006456515331033,0.6331354339454839,1.6732019948519241,0.08880390233321941,0.7473810939638454,0.0
-0.17215467752016406,0.9004664827943891,0.6329690406668672,1.6729825815375028,0.08898786185542297,0.7472118299673257,0.0
-0.17222520229160276,0.9003049414005174,0.6328182043772911,1.672785663654982,0.0891433840639758,0.7470592891241865,0.0
-0.17230570836905598,0.9001208303228537,0.6326464543166321,1.67256208585494,0.08931042906389287,0.7468884363465047,0.0
-0.17236422006413246,0.8999830979522467,0.6325172068318986,1.672395352018194,0.08942942168884876,0.7467597298884842,0.0
-0.17244990779226252,0.899785697102687,0.6323329102309757,1.6721570387526707,0.08959167212761314,0.7465801747148194,0.0
-0.172559234566209,0.8995352502783511,0.6320994865926689,1.6718557024921288,0.08978497118259672,0.7463566112779587,0.0
-0.17266350952715687,0.8992912239766012,0.6318710624462796,1.6715630526769572,0.0899618308949024,0.7461384721948094,0.0
-0.17276214253312003,0.899057364168819,0.6316515925459706,1.6712833218473537,0.09012239757135751,0.7459297762364963,0.0
-0.17289631513470324,0.89874393796813,0.6313584639982746,1.6709093596569997,0.09032531068681426,0.7456560781915202,0.0
-0.17304598780244002,0.8983912533662932,0.6310280615211011,1.6704897196133586,0.09053894684925388,0.7453497882447427,0.0
-0.1730904753623865,0.8982785845134565,0.6309209262776422,1.6703558830249647,0.09060469128397752,0.7452475752252928,0.0
-0.17348719659942613,0.8974175087452853,0.6301293449929845,1.6693358535200165,0.09106334516630442,0.7445613010673232,0.0
-0.1736913310071855,0.8968749638132107,0.6296087671681568,1.6686962568329844,0.09131870326776943,0.744069154901355,0.0
-0.17387901374738382,0.8963939803342006,0.6291502631543776,1.668129751805837,0.09153440795698536,0.7436441541334501,0.0
-0.17409519528898826,0.8958545294611023,0.6286385434666334,1.6674951163877043,0.09176373820038569,0.7431779467536231,0.0
-0.17428244580185606,0.8953830637384104,0.6281903220084788,1.6669410845087786,0.09195412181469756,0.7427695059377869,0.0
-0.17444944852973918,0.8949613340235839,0.6277889829289967,1.6664459100956306,0.09211736117095506,0.7424043670141417,0.0
-0.1746360308157971,0.8944945190669363,0.6273453787947547,1.6658982211873745,0.09229073718745338,0.7420037737694586,0.0
-0.1748030584796388,0.8940735314149539,0.6269445504932145,1.6654046442042711,0.0924410568638066,0.74164139007721,0.0
-0.1749711458695821,0.8936502106441055,0.6265413845084592,1.6649086236428352,0.09258689046747173,0.7412777948594843,0.0
-0.1752552125568815,0.892954816701482,0.625882541698525,1.6640944765291281,0.09281516831489296,0.7406939929136848,0.0
-0.17545352873872339,0.8924494146726426,0.6253994757536094,1.6635032077065932,0.09297319148746491,0.7402582703493759,0.0
-0.17570942151190766,0.8918069069025987,0.6247867624053166,1.6627519578515,0.09316578245642226,0.7397106741958559,0.0
-0.17591104636404248,0.8912909052479623,0.6242924583141001,1.6621488906619264,0.09331433563489568,0.7392652971121879,0.0
-0.17625039062703282,0.8904476442028169,0.6234887323665257,1.6611639290478428,0.09354604029784946,0.7385530832195812,0.0
-0.17651433491630575,0.8897699783714001,0.6228379743789519,1.6603727622662154,0.09372313292312437,0.7379677477402219,0.0
-0.17678716281616577,0.8890706819669096,0.6221660202716746,1.6595565825890424,0.09389861802924082,0.7373641936465726,0.0
-0.17720349456317222,0.8880276493194856,0.6211671475713612,1.6583398099275888,0.09414730476174145,0.7364782520842501,0.0
-0.17746287386521467,0.887346927230587,0.6205084524015081,1.6575458239310534,0.09430191066127229,0.7358807479561429,0.0
-0.17771204721408035,0.8866956894041235,0.6198781220978524,1.65678626662412,0.094445104448846,0.7353098178439302,0.0
-0.17820743657072854,0.885452262034879,0.6186825436698075,1.6553366578915303,0.09470559088156927,0.734248913006551,0.0
-0.17848296212946776,0.8847195592719211,0.6179689802351882,1.6544823926208023,0.09485156330795387,0.7335975327666647,0.0
-0.17893340825541393,0.883560494650194,0.6168456413123256,1.6531313087432122,0.09507295740289239,0.7325875289977374,0.0
-0.17925628991599354,0.8827380270387025,0.6160496260163149,1.6521697589717634,0.0952241149228427,0.7318635496283764,0.0
-0.17967790075785595,0.8817517266741952,0.6151128578411411,1.6510094228605898,0.09540022089703004,0.7310179916842747,0.0
-0.18027357597084442,0.8805136601270718,0.6139735005279175,1.6495353251975318,0.0956132716203753,0.7299879120005247,0.0
-0.18084370603214805,0.8794972674632388,0.6130866305761842,1.6482953961521438,0.09578198772956757,0.729150949033029,0.0
-0.18171609121472765,0.8781833612347576,0.6120218080253598,1.6466446848898653,0.0959901184045739,0.7280906596407275,0.0
-0.18246681159248096,0.877291808848451,0.6114004589140982,1.645457164563229,0.09612446435319659,0.7273563924293306,0.0
-0.1834162296087247,0.8763821371973585,0.6108838831547954,1.6441688208594616,0.09625379714488959,0.7265948110559199,0.0
-0.18447749263640584,0.8756039980959017,0.6106036802120139,1.6429587033879394,0.09635585314961659,0.7259129033710428,0.0
-0.1858923695451292,0.8748360063437588,0.6105664149865427,1.6416043590744056,0.09644471745888511,0.72519324687473,0.0
-0.18786794419240277,0.8741272464047984,0.6109698689677889,1.6400595136493414,0.09650700096503505,0.7244335456393047,0.0
-0.18975858542704485,0.8735786410650077,0.6115096225297515,1.6387203305290998,0.09651702728744388,0.723842095989673,0.0
-0.1904282237264358,0.8724309784882199,0.6104426816380958,1.6374662093927734,0.09650344756781354,0.7233837834028705,0.0
-0.19083551573095062,0.8712810178178773,0.6091933677207091,1.6363369853675351,0.09648712224669134,0.7229961728830061,0.0
-0.19126039299343223,0.8699227083461686,0.6076740894388334,1.6350349770636867,0.09646723830372536,0.7225683280023945,0.0
-0.191623946519477,0.8686746686239158,0.6062543745880754,1.6338549517623018,0.09644870896432009,0.72219235196986,0.0
-0.19192104337524143,0.8676274183433729,0.6050533429260373,1.6328708734235506,0.0964330977047464,0.7218854146016261,0.0
-0.19249031695903165,0.8659812083456442,0.6032207405856364,1.6312951177980173,0.09640545798394151,0.7214405488307424,0.0
-0.19314357892918912,0.8642274262813651,0.6012810611981076,1.6296192160381902,0.09636959484855634,0.7210350545817314,0.0
-0.19354042515706227,0.8626999110650566,0.5994645123416756,1.628251220305163,0.09633541792797438,0.7207625153379004,0.0
-0.1939184062717721,0.860769244621146,0.5970753445968054,1.6265851416866535,0.09629160513694314,0.7204675359640339,0.0
-0.19413991637756925,0.8592819491308484,0.5951803651049754,1.6253328975103356,0.09625755078312728,0.7202540605086707,0.0
-0.19436295316233643,0.8577756285122433,0.5932524877578418,1.6240673724223038,0.096223169622182,0.7200452128676101,0.0
-0.19460396284000597,0.8561324699034696,0.5911391164352189,1.6226905152258344,0.09618577743661828,0.7198264886740434,0.0
-0.19484566702076034,0.8544357893108742,0.5889423417025424,1.6212742506417863,0.09614724509668815,0.7196095231039263,0.0
-0.19513122959382476,0.8524133154484193,0.5863092795996818,1.6195909489663576,0.09610145355700637,0.7193639179551526,0.0
-0.19533695363357706,0.8508160606207644,0.5842059078072632,1.6182705647941924,0.09606524822760694,0.7191747571336139,0.0
-0.1955710502004097,0.8490169744979332,0.581827450748342,1.6167848087350811,0.0960245816999363,0.7189694302965761,0.0
-0.1957818533191955,0.8473198968977279,0.5795661813225581,1.6153887794082746,0.09598623281350692,0.718781316127331,0.0
-0.19591473184106586,0.8461706532512739,0.5780216350500611,1.614447304037878,0.09596022724309629,0.7186545085072589,0.0
-0.19618712471692693,0.8439976568137841,0.575103602452835,1.6126636777792962,0.09591130939199016,0.7184292163482805,0.0
-0.19637884730740793,0.8425174931229333,0.5731064506055439,1.611449855317647,0.0958764588052078,0.7182865940551201,0.0
-0.19666565024377144,0.8408344840710147,0.5708649414111452,1.6100544810630546,0.09583301638876034,0.7181570493372845,0.0
-0.19692902979874258,0.8390604242647836,0.5684598570980696,1.6086115434400965,0.09578359696407517,0.7180671238373714,0.0
-0.19701423840622206,0.8374677327189007,0.5661901358426765,1.6073800645021916,0.0957385213824698,0.7180202989302353,0.0
-0.19703156760928825,0.835798577412824,0.5637547759669151,1.6061166483453173,0.09569101166196942,0.7179780576231846,0.0
-0.19701701460795376,0.8339297840919049,0.5609934597857873,1.6047148225632284,0.0956376915861556,0.7179354631010774,0.0
-0.19698616166068458,0.832744596903123,0.5592195751508071,1.6038324944569726,0.09560370581091698,0.7179072483248576,0.0
-0.19694466842699077,0.8309172933665318,0.5564786165984082,1.602470669027409,0.09555138334116386,0.7178679562258764,0.0
-0.1968872597897672,0.8290028534218832,0.5535827932403433,1.6010483317196411,0.09549645791952399,0.7178284327440326,0.0
-0.19681374740243385,0.8269650904542177,0.550475095915777,1.5995380718167973,0.09543787607045395,0.7177878672918673,0.0
-0.19673939481884234,0.8253841030139224,0.5480387203903245,1.5983709007488622,0.09539222799587999,0.7177546387559328,0.0
-0.19664209929376056,0.8232485387587107,0.5447334740840972,1.5967932538541945,0.0953305629042583,0.7177129446084382,0.0
-0.19651525237687575,0.8208377940679087,0.5409668389710524,1.5950172342122766,0.09526076078021566,0.7176677743361547,0.0
-0.19640812878300037,0.819298380951897,0.538527602792065,1.5938896908369011,0.09521587001716703,0.7176350081010688,0.0
-0.19634876116806907,0.8173088414226337,0.5354047749010936,1.5924136789878365,0.09515407118588537,0.7176208712258657,0.0
-0.1963158091124389,0.8147095360094595,0.5313172528965706,1.5904865482015618,0.09506622086468895,0.7176605230974487,0.0
-0.19608790137172777,0.8132972449541916,0.52894267087044,1.5895136706773203,0.09501746994535218,0.7177065719897436,0.0
-0.1955083735528388,0.8097978845235613,0.5230206145991153,1.5871094405474846,0.09489685833225898,0.7178350233929934,0.0
-0.19497041116286087,0.8073853735154854,0.5188052701126785,1.585489030117752,0.09481238949150941,0.7179156672932605,0.0
-0.19448300129787918,0.805214768996704,0.5149804602445724,1.5840271562492267,0.09473583918616363,0.7179824191757298,0.0
-0.1939064286388963,0.8026821813728532,0.5104799024435744,1.5823196594803073,0.09464603451735003,0.7180574148265911,0.0
-0.19333391947981318,0.8003020643616549,0.5061942815789854,1.5807189616354003,0.09456091273204623,0.7181222260653073,0.0
-0.19260749936129265,0.7973547712303383,0.5008314550787287,1.5787367439115219,0.09445484149467935,0.718199309854555,0.0
-0.1918276749286906,0.7943970961178134,0.4953606275134075,1.576754931695975,0.09434729041872475,0.7182688538891834,0.0
-0.19129550121606437,0.7920258448439038,0.490974588520351,1.5751483142250549,0.0942516064271827,0.718373527601675,0.0
-0.19045690922854594,0.789264125962625,0.48567381372232327,1.573353409422763,0.09413653556213004,0.7185528771240749,0.0
-0.18943354593701014,0.7866994700679868,0.4805470579031989,1.571749637844861,0.09402811974488279,0.718714388077677,0.0
-0.18812737563773757,0.7835818412165465,0.47421393072963214,1.5698077354537698,0.09389491389784944,0.7189039373341427,0.0
-0.18683269927969692,0.7806717448379882,0.46818230005671035,1.568003215536435,0.09376865424208139,0.7190686536166708,0.0
-0.1856782348147576,0.7781876327666427,0.46294190582631395,1.5664652978650955,0.09365925280282508,0.7191979622653814,0.0
-0.18449400418501502,0.7757121255660315,0.45764417977115346,1.5649324820646826,0.09354889813761025,0.7193180587025435,0.0
-0.18307690690993442,0.7728293921891641,0.4513851246090665,1.5631470967011603,0.09341890214407075,0.7194491587427048,0.0
-0.18192964841312098,0.7706169903203695,0.4464833034165327,1.5617818392165654,0.09331749245978974,0.719538181495551,0.0
-0.18054701125166403,0.7680037380384843,0.4406175946227305,1.560167194364821,0.09319642771377139,0.719635531984929,0.0
-0.1790932955392193,0.7653603954346104,0.43457735737686576,1.558536465758045,0.09307224368475865,0.7197229232182902,0.0
-0.17770309756422306,0.7629342885070307,0.42892813543103764,1.557042443588333,0.09295654447860335,0.7197915321695322,0.0
-0.17613452044376782,0.7602789445922341,0.4226411724849257,1.5554075295476786,0.0928282386653225,0.7198559767132906,0.0
-0.17487347559159663,0.7582431444146281,0.4177195198959015,1.5541577599598944,0.09272822353052437,0.7198937310377894,0.0
-0.1736374819276067,0.7563001012906224,0.4129516689519445,1.552964967790563,0.09263160756226776,0.7199217731098616,0.0
-0.17209737440247483,0.7539320254489034,0.40705859985629456,1.5515105579586197,0.09251258259235136,0.7199480883174387,0.0
-0.1707683642240659,0.751973828047559,0.40208715586768135,1.5503111040136308,0.09241262873122873,0.7199592606846313,0.0
-0.16874977325802965,0.7488267711088066,0.3940787941665264,1.5483445121787152,0.09225067569522619,0.7199639367546664,0.0
-0.16773782980361293,0.7470461088041905,0.3895421214293548,1.547189441885693,0.09215731313942055,0.7199426212790457,0.0
-0.16658742558275474,0.7450627369063282,0.38441672925525505,1.5459020622848654,0.0920521921577753,0.719909875157237,0.0
-0.16520256887935045,0.7427371101310887,0.3783055789528428,1.5443926019562035,0.09192741718452774,0.7198598035929279,0.0
-0.1642734970272936,0.741254135091596,0.37431877897583765,1.543433060548034,0.09184645302535571,0.7198158783357728,0.0
-0.163270786108916,0.7396788079339903,0.37002971553613667,1.5424127101552796,0.0917595997568999,0.7197620350289835,0.0
-0.16232079381282352,0.7382221334220981,0.36600458156683924,1.5414694548558183,0.09167838475481667,0.71970455886053,0.0
-0.16133547386194502,0.7367433894258467,0.36186143423338235,1.5405119911746588,0.09159508678764074,0.7196390485005961,0.0
-0.16035834268697619,0.7353119459014443,0.3577913694831169,1.539585608922726,0.09151357439164658,0.7195682044551908,0.0
-0.15936704784511607,0.7338932676888669,0.3536984574789844,1.538667894617847,0.09143192376416028,0.7194906679812357,0.0
-0.15770440408396671,0.7315435347126438,0.346828532501632,1.537146175313671,0.09129547905138839,0.7193533560033734,0.0
-0.15663531683355114,0.7301237506467843,0.34255732911351094,1.5362314429999446,0.09121131395098067,0.7192556246071387,0.0
-0.15528659438285358,0.7283592751818982,0.3371716532629638,1.5350930872427955,0.09110559654446494,0.7191244908317913,0.0
-0.15431569663658398,0.727136093409307,0.3333578318285879,1.5343053514681328,0.0910311448680616,0.71902313379278,0.0
-0.15285375929588385,0.7253169293634537,0.3276105052518269,1.533132391707422,0.0909193979238571,0.7188639067936579,0.0
-0.1512543333437151,0.7233972123911463,0.32140589798544883,1.5318965583817952,0.09079958204436267,0.7186798042738461,0.0
-0.14985642277070388,0.7217888461711317,0.3160736733604717,1.5308633840849128,0.0906973517264248,0.7185092316970001,0.0
-0.14790184992949637,0.7195919752900444,0.3086411916678359,1.529451459130095,0.09055574114865043,0.7182593206901342,0.0
-0.14683503005614568,0.718342908325343,0.3043333692322576,1.5286408227370345,0.09046228639790817,0.71812244881974,0.0
-0.14558672646260046,0.7166433153589316,0.2984521484609691,1.527554722727106,0.09029992996291505,0.7181076579009291,0.0
-0.1445642239690242,0.7154132812002088,0.29397444249779375,1.5268439637481128,0.09016310591330724,0.7182919594647488,0.0
-0.14336784062846983,0.7139943311528023,0.28871225752698654,1.5260253231515495,0.09000180478993305,0.7184993549657492,0.0
-0.14265546540873916,0.7131734810617508,0.2855947420477608,1.525553776116576,0.08990582854702843,0.7186148710905033,0.0
-0.14152681588917326,0.7118802531428433,0.28061948796267944,1.5248113073474159,0.0897524168647488,0.7187936943724035,0.0
-0.14035584319397282,0.7105650254262682,0.2754451565968762,1.5240585959656465,0.08959236057174289,0.7189690772939883,0.0
-0.13925151766124072,0.7093531617785938,0.27056118767244164,1.5233678446235275,0.08944079849843094,0.7191239389974499,0.0
-0.13786624495471006,0.7078586671345608,0.26440014380372645,1.522518773840566,0.08924913974077717,0.7193072759793936,0.0
-0.13676446315617188,0.7067083774114751,0.2595100443967792,1.521869564953714,0.08909647012423316,0.7194395310422412,0.0
-0.1359253769169403,0.7058558944863317,0.255793731227709,1.5213912444856015,0.08898013942467697,0.7195319983050676,0.0
-0.13473870242975952,0.7046654225930031,0.2505069935061604,1.5207254739958143,0.08881444689344126,0.7196557655599192,0.0
-0.13329406077981804,0.7032485448539836,0.24403904469193757,1.5199377906030984,0.08861135203863689,0.7197930030572284,0.0
-0.132326811648593,0.7023380821407201,0.2397290640087826,1.5194368858880236,0.08847561860059486,0.7198717795689171,0.0
-0.13107867103135523,0.7011854578372702,0.2341408350293025,1.5188065435335327,0.08829944398735676,0.7199639348967165,0.0
-0.1300479614586988,0.7002659326722581,0.22953334847444737,1.5183087782124784,0.08815392095474453,0.7200284311117914,0.0
-0.12856513891762356,0.6989695230589348,0.2228595956693612,1.517612322191236,0.0879430079314917,0.7201091847324173,0.0
-0.1269978844776295,0.697652215291112,0.21578998736935842,1.5169145152926764,0.0877192943491222,0.72017406137504,0.0
-0.12536772692286216,0.6963415608948055,0.20842312013666292,1.5162320585797737,0.08748593182867533,0.7202186732822843,0.0
-0.12397426302055302,0.6952791547151391,0.2021383489089162,1.515690611216681,0.08728664883076064,0.7202358112434075,0.0
-0.12303430722895171,0.6945979771277815,0.19791879552967917,1.5153508462283856,0.08715275382491648,0.720235155118017,0.0
-0.12207309966202007,0.6939226166603504,0.19360070577954286,1.5150190895613895,0.08701574164847069,0.7202264176730359,0.0
-0.1211338985792393,0.693284392945426,0.18938078184532992,1.514710950540614,0.08688186689850987,0.7202097654540194,0.0
-0.12021665563368333,0.6926818353267394,0.18525911712496115,1.5144253998052055,0.08675114974112277,0.7201857484408186,0.0
-0.11916996869678834,0.6920161842416402,0.18054764736367485,1.5141161202494735,0.08660181513806418,0.720149736292573,0.0
-0.11814514063179946,0.6913905054261061,0.17593471698801483,1.5138327605043373,0.08645569940449671,0.7201047579990196,0.0
-0.11716372631147379,0.6908159776628887,0.17151871890723572,1.5135798224645667,0.08631593225973516,0.7200525732124612,0.0
-0.11611764925976124,0.6902280428133624,0.16680824596009797,1.5133287211597974,0.08616699739017437,0.7199876495415557,0.0
-0.11511485784450085,0.6896902483210482,0.16229493346009521,1.5131074069886397,0.08602446001353307,0.7199159100145848,0.0
-0.1141337116254381,0.6891881599843193,0.15788053040728794,1.512909055861765,0.08588522606945714,0.7198368223918853,0.0
-0.1133040910790663,0.6887841343105748,0.15415432312606145,1.5127566750872894,0.0857678513392038,0.7197626574771316,0.0
-0.11232286857233804,0.688325322886038,0.14974133209272697,1.5125911649152641,0.08562905012006565,0.7196675446436652,0.0
-0.1114281089569994,0.6879287573568894,0.14572197620005545,1.5124567017993729,0.08550283864829857,0.7195729635007753,0.0
-0.11053321446416536,0.6875516622598359,0.14170344494469136,1.5123371010237243,0.08537687018335427,0.719471197438374,0.0
-0.10963814108432733,0.6871940334062578,0.13768581235747748,1.5122323905483468,0.08525116305321752,0.7193622586262634,0.0
-0.10867782949754372,0.6868310777991868,0.13337483547769996,1.5121360077196313,0.08511655248693924,0.7192376706084066,0.0
-0.10778224027972895,0.6865137887903808,0.12935930137695506,1.5120622472157108,0.0849914445642129,0.7191139034907429,0.0
-0.10699493633369876,0.686252302868215,0.12583499827340575,1.5120106184879198,0.08488187921575563,0.7189989752875073,0.0
-0.10599023663207542,0.6859372000346539,0.12133149765453163,1.5119593672513183,0.08474219106255015,0.7188451255426034,0.0
-0.10509354914197906,0.6856781748200235,0.11731953741762291,1.511930500022169,0.08461808800254332,0.7187000460996165,0.0
-0.10415293233278416,0.6854268309339342,0.1131130173357176,1.5119159392098982,0.08448831668748003,0.718540481570334,0.0
-0.10254090337584035,0.6850307162518944,0.10587007734807541,1.5119194801144311,0.08426564249939103,0.7182524104509276,0.0
-0.1011860319381559,0.6847519300531745,0.09980804720766562,1.5119635034460994,0.08408021940910482,0.7179918552246861,0.0
-0.09956972521323172,0.6844719816868835,0.09257492406454612,1.5120572371305103,0.08386007849100982,0.717661711926963,0.0
-0.09849392868260201,0.6843282313264003,0.08779246883325297,1.5121514223389514,0.08371535438275424,0.7174282762060008,0.0
-0.09759177395491844,0.6842308448150751,0.08379383412504045,1.5122479680684828,0.08359486060726955,0.7172248155375941,0.0
-0.096229984702017,0.6841126090752068,0.07774674043758388,1.5124168480427165,0.08341338929913539,0.7169066674852521,0.0
-0.09480041135256609,0.6840345079936577,0.07141140694147996,1.512629655770978,0.08322440805181362,0.7165568441279069,0.0
-0.09325881200039479,0.6840020157922384,0.06459366140281206,1.5128991190711647,0.083022388787918,0.7161618720900451,0.0
-0.09186704362303243,0.6840224530853861,0.0584644955839722,1.5131802163105617,0.08284211282607586,0.7157890492618861,0.0
-0.09053820703150985,0.6840842778604231,0.052632736510751774,1.513480845401119,0.08267179661364968,0.7154192765894923,0.0
-0.08938300982182319,0.6841725628462204,0.047583794551340264,1.5137682643365344,0.08252537418218789,0.715086882498538,0.0
-0.08756347931136477,0.6843597614877743,0.03962327641984735,1.5142593803473055,0.08229608202348411,0.7145459652239591,0.0
-0.086513282591425,0.6845092252147214,0.03506957382727275,1.5145731595691119,0.0821662427170776,0.7142217813463521,0.0
-0.08521608345020194,0.6847237269185659,0.02945310941664898,1.5149837988527501,0.08200714155144671,0.7138115193239839,0.0
-0.08393778585024156,0.6849705791830225,0.023938824058960518,1.5154151920844174,0.0818521998129387,0.7133962785971951,0.0
-0.08285756496013197,0.6852079732475291,0.019300386802118576,1.5158011124750408,0.08172293383626499,0.7130368678376094,0.0
-0.08186471536425655,0.6854482684265569,0.015052245589025254,1.516172271397608,0.08160539513601431,0.7126999723477948,0.0
-0.08109519150962372,0.685649850241394,0.011772623130011478,1.516471187973676,0.08151526362605234,0.7124345008614847,0.0
-0.08009841880461716,0.685926812432409,0.007530238610085665,1.5168704553753347,0.08139931563016521,0.712085678229947,0.0
-0.07923516850689077,0.6861836667980259,0.0038695729969622176,1.5172287137650164,0.08129997600428902,0.711778764989981,0.0
-0.07843826094109681,0.6864342390104106,0.0005003654236710397,1.5175693308043356,0.08120912243123125,0.7114916226938117,0.0
-0.07750334353953699,0.6867429263070083,-0.0034442452011965905,1.5179799301218297,0.08110339267481345,0.7111504128426164,0.0
-0.07672586020986105,0.6870133985902322,-0.0067125771653991275,1.518331359487636,0.08101640885882744,0.7108629217487312,0.0
-0.0753990656217989,0.6874958050417085,-0.012286196320784346,1.5189470905331683,0.08086899796462305,0.7103657488984406,0.0
-0.07466325235384225,0.6877808774233405,-0.015356827142443533,1.5193008725855206,0.08078862364378704,0.710085677847601,0.0
-0.07443254985175533,0.6878731666822322,-0.016315546158252058,1.5194137848624967,0.08076367520875567,0.7099971995193665,0.0
-0.07353384726967999,0.688237494122148,-0.020055166900888443,1.5198577096161228,0.0806665669206557,0.7096506513724512,0.0
-0.07284047658169787,0.6885295899965925,-0.022929291008020866,1.5202079939812252,0.08059248614714067,0.7093805072464718,0.0
-0.07198401298076239,0.688901196319811,-0.02647222401653825,1.520648543332966,0.08050170715929524,0.7090438750521929,0.0
-0.07098656260161874,0.6893492234839194,-0.030586892099090258,1.5211726113533741,0.08039705833190383,0.7086477873488284,0.0
-0.06996300777353118,0.6898266872161317,-0.034793595443433085,1.5217229680461937,0.08029100179160395,0.7082368440744994,0.0
-0.06886649516713798,0.6903573801883383,-0.03928315379784116,1.5223261294434725,0.08017884837571852,0.7077918016436295,0.0
-0.06781305560860419,0.6908864086214056,-0.04357734571453389,1.5229189620175647,0.0800726434290482,0.7073596409478002,0.0
-0.06677963024583332,0.6914231243879515,-0.04777206307237735,1.5235128108767755,0.07996991251908518,0.7069315201451492,0.0
-0.06574284574947528,0.6919787190069355,-0.05196281709704116,1.5241203727931918,0.07986828267291386,0.7064980601770257,0.0
-0.06416007634471889,0.692853675464241,-0.058339099598136955,1.525066679141924,0.0797152133160759,0.7058298031330946,0.0
-0.06311446077932045,0.693456299905349,-0.06251964100625312,1.525708068002047,0.07961640845097633,0.705383328587019,0.0
-0.062065198314206566,0.6940772804041271,-0.06669608040093877,1.526362515584414,0.07951874432330107,0.7049319035876661,0.0
-0.061083931487670995,0.6946728567605609,-0.07058384790016833,1.5269842948370205,0.0794288123626739,0.704506765810811,0.0
-0.060027390242136096,0.6953288569958573,-0.07475226180059319,1.527663413087793,0.07933338165900444,0.7040461016031939,0.0
-0.05894287936721894,0.696018080420156,-0.07901112532508286,1.5283707386338754,0.07923697912316957,0.7035702434674335,0.0
-0.057999279029663536,0.6966314525267508,-0.08269822019082133,1.5289948333320669,0.07915450066984575,0.7031537772294016,0.0
-0.056979717344495695,0.6973068983350932,-0.08666536910947786,1.5296771725589808,0.07906668375518329,0.7027015569365848,0.0
-0.055932045004355266,0.6980146915716241,-0.09072297501714383,1.5303868456368808,0.07897789282241692,0.7022345795770415,0.0
-0.054904805586048024,0.6987221329086555,-0.09468217279633324,1.5310908988606908,0.07889229143596332,0.7017745847700948,0.0
-0.05394730111361982,0.6993935121079486,-0.09835487402878854,1.5317543527282238,0.07881383131195382,0.7013440308016746,0.0
-0.052986376444666736,0.700078210109553,-0.10202414028729329,1.532426654040768,0.07873633054136342,0.7009103895952581,0.0
-0.051873604053041616,0.7008834768808481,-0.10625392339545292,1.5332124160898046,0.07864801965040448,0.7004065704697852,0.0
-0.049762419519435955,0.7024372483599379,-0.11423445770467311,1.534717857923773,0.07848365122620155,0.6994476868114029,0.0
-0.04858566105305205,0.7033303593793259,-0.11863803745896992,1.5355721266013476,0.07839532530658046,0.6989101223250205,0.0
-0.04632066126087037,0.7050751983289653,-0.12705958387921415,1.537229413700072,0.07822893809979664,0.6978737964731532,0.0
-0.044060079475011185,0.7068660644182795,-0.13536814758662385,1.5389085648197862,0.07806961500149245,0.6968360713355067,0.0
-0.04221483140678959,0.7083662804549586,-0.1420745805341928,1.5402979929420144,0.07794492970603457,0.6959869058162287,0.0
-0.04051060333776134,0.7097786564121126,-0.14821077776793934,1.5415933949169933,0.07783377921111855,0.6952019904159319,0.0
-0.039419101597310595,0.7106990341779669,-0.15210947047949394,1.5424302913161039,0.07776488821212123,0.6946988047918731,0.0
-0.03782563058340169,0.7120545488380147,-0.15776492075032017,1.543655886760519,0.07766655035955625,0.6939652772991504,0.0
-0.036379468021937256,0.7133017445664486,-0.16285610615516644,1.544774648287123,0.07758013190739452,0.6933001591362384,0.0
-0.03497739578828124,0.7145248532309754,-0.16775508863242244,1.545864033695939,0.07749881528198388,0.6926562831521575,0.0
-0.03391342055725716,0.7154634326873979,-0.17144765549222954,1.5466944274486873,0.07743887056968685,0.6921682216532694,0.0
-0.03179891754535727,0.7173373682712391,-0.17872999313029375,1.548343139300789,0.0773226303298435,0.6912027631273853,0.0
-0.02969190518025328,0.7192300886247138,-0.18590474740536736,1.5499915758589287,0.0772120235851799,0.6902449303559336,0.0
-0.028166833776424226,0.7206192797377171,-0.19104617276494143,1.5511898169309173,0.07713556266808992,0.6895539858530841,0.0
-0.026356390820143266,0.7222801952712888,-0.19709575374288815,1.5526119817942794,0.07704795804118525,0.688738060586226,0.0
-0.025279646348211803,0.7232791561826587,-0.20066528978115994,1.5534605233515997,0.07699793062801912,0.688254277798584,0.0
-0.023975270678266967,0.7244942103858502,-0.2049620409783992,1.55448732630115,0.07693888767048883,0.6876708218801374,0.0
-0.022859223825134615,0.7255402425719003,-0.20861452239768197,1.5553660774517137,0.07688991196795698,0.687173573551093,0.0
-0.021906251445834215,0.7264378868608358,-0.21171601979078727,1.556116375758636,0.07684920376443113,0.6867504955323066,0.0
-0.020808176777165396,0.7274752898025704,-0.21527007605310303,1.5569795930271986,0.07680340921914645,0.6862651081128543,0.0
-0.019818178508315444,0.7284145432139004,-0.21845641456852805,1.5577572498923464,0.0767632351837048,0.6858292730257515,0.0
-0.01879534881252239,0.7293879434778354,-0.22173061573945968,1.5585594817497235,0.07672276624900859,0.6853809502026436,0.0
-0.017596124063528718,0.7305319513190015,-0.22554639966135304,1.5594977378897117,0.07667657613653962,0.6848580948918517,0.0
-0.01630408971615932,0.731768176920135,-0.22962983076186327,1.5605059293857997,0.07662836311048943,0.684298125402819,0.0
-0.015149397349208333,0.7328773037392102,-0.23325536345708645,1.5614051674321263,0.07658671844385626,0.6838004744696191,0.0
-0.01363920315803825,0.7343295984416729,-0.23796239833936603,1.562575943623123,0.07653398308748913,0.6831544382761214,0.0
-0.011619059472837081,0.7362740000652717,-0.24419737055865307,1.5641316357614692,0.0764664207239405,0.682299167822574,0.0
-0.009728976894163934,0.7381008191295263,-0.24996994164272987,1.5655796103722424,0.0764067013780312,0.6815072707484044,0.0
-0.008002353398017595,0.7397755543055498,-0.25519262009983956,1.5668954569103162,0.07635504796887192,0.6807910682332559,0.0
-0.006473229204123596,0.741263198057883,-0.2597782206694831,1.5680550085010247,0.0763115864846308,0.6801626374068409,0.0
-0.004842626228370174,0.7428511226477291,-0.2646264088740808,1.5692835660164148,0.07626738722403237,0.6794991708169555,0.0
-0.0033833710379002945,0.7442751292611197,-0.2689300049641209,1.5703769226055913,0.07622980063880609,0.6789110000476545,0.0
-0.002006756912231864,0.7456201290320827,-0.27295953752576796,1.571402459225529,0.07619597590194498,0.6783611615573627,0.0
-0.0005907697997010243,0.7470040275104166,-0.277073415709274,1.5724505531973847,0.07616274857398911,0.6778009332301155,0.0
0.0008652745474910519,0.7484271869956425,-0.2812713039683669,1.573520867278343,0.07613020149254086,0.6772305797784968,0.0
0.002675637412222996,0.7501934438003165,-0.2864436667445116,1.574839034666468,0.07609179971758791,0.6765301814525938,0.0
0.004279263941922898,0.7517592970931314,-0.2909852332429707,1.5759974790963285,0.07605992792308451,0.675917064849003,0.0
0.005735253174758173,0.7531813799595184,-0.2950762894701744,1.5770413390280809,0.07603267529973641,0.6753664650211494,0.0
0.007392746614597384,0.7547973578886527,-0.299694458484078,1.5782184262484535,0.07600338566023238,0.6747473363923182,0.0
0.0093208057413854,0.7566723326004758,-0.30501445909074143,1.5795720215585485,0.07597155665304306,0.6740375792665169,0.0
0.011297866729398847,0.7585914636967532,-0.3104140809750611,1.5809435937768055,0.07594148370446958,0.6733210629613877,0.0
0.012832150037102459,0.7600816943156506,-0.31456900026072754,1.5819984633919586,0.07592008572535841,0.6727722272550507,0.0
0.015304225750074257,0.7624658434195515,-0.32118585821344103,1.583669583507479,0.07588811505496681,0.671904709265532,0.0
0.016965551883985474,0.7640706125402199,-0.3255910109136321,1.5847812379073025,0.07586907715325779,0.6713305469871895,0.0
0.019245690770026462,0.7662600244543609,-0.33157100366593256,1.5862824056433067,0.07584523877861872,0.6705571923119739,0.0
0.02079951165113108,0.7677531766118842,-0.3356113208322762,1.5872948577091663,0.07583097442682055,0.6700379656560012,0.0
0.022808643706149805,0.7696736729586089,-0.3407852136424089,1.5885845903959204,0.07581428436054226,0.6693781191050929,0.0
0.025945457497584045,0.7726413019527439,-0.3487453966249091,1.5905500877093943,0.07579168766473288,0.6683752080862428,0.0
0.02912408506302946,0.7756297120159401,-0.3566861296673743,1.5924934192409812,0.0757738525127861,0.6673887779378217,0.0
0.031240178430552473,0.7776189972373269,-0.36191394389838294,1.5937661371388547,0.07576517200014356,0.6667465939712094,0.0
0.03305275451009238,0.7793182515122558,-0.3663518273371069,1.5948403592564149,0.07575949584302695,0.6662065376930205,0.0
0.034842874966765594,0.7809898008177478,-0.37069708597020723,1.5958855147699693,0.07575533326053875,0.6656826290034576,0.0
0.03693667850717841,0.7829331011215236,-0.3757298725281943,1.5970862444927942,0.07575208128706692,0.6650823179731509,0.0
0.039048354091646434,0.7848829266117875,-0.38075518684354454,1.5982752095015362,0.07575063338929904,0.6644898387947957,0.0
0.04088252323505253,0.7865706034950619,-0.3850820547706801,1.5992913545279621,0.07575091832749588,0.663985244619344,0.0
0.04369996495753722,0.7891352363115935,-0.3916452254463767,1.6008128818633152,0.07575333343531744,0.6632313160232182,0.0
0.04602016579714163,0.7912384075432369,-0.3969915652320512,1.6020394574117656,0.07575771716499796,0.6626263802796679,0.0
0.04885710255463418,0.7937859470440449,-0.40344627903060665,1.6034997453679802,0.07576535820300873,0.6619084770076287,0.0
0.05107054695859019,0.7957661175851863,-0.40843148870507245,1.6046151514023135,0.07577341218899676,0.6613627294089928,0.0
0.05322536571440948,0.7976828220289638,-0.4132383628744437,1.6056784187538877,0.07578276023423176,0.6608442668420162,0.0
0.05582828935848036,0.7999777938891595,-0.41897966477583004,1.6069301512385243,0.07579572746249365,0.6602357237059181,0.0
0.05821961420412877,0.8020735747814548,-0.42419956216628335,1.6080526754305235,0.07580943867865257,0.6596922411225842,0.0
0.06095151379648135,0.8044465590618023,-0.4300940524747284,1.6092997303618002,0.07582686835975952,0.6590905404484774,0.0
0.06290614021719912,0.8061393425032961,-0.4342761307657457,1.6101737800036522,0.07584075764062173,0.6586708034425783,0.0
0.06613292167324017,0.8088962648283395,-0.4410893218948572,1.6115688239468586,0.07586514342108795,0.6580023555769031,0.0
0.0678792033626084,0.8103880872935767,-0.4447493959045088,1.612309337481276,0.07587972366406126,0.6576496589607169,0.0
0.069883090403695,0.8120885885304517,-0.4489153921403929,1.6131408036052595,0.07589721903414569,0.6572546775710231,0.0
0.07273216925367865,0.8144798108708836,-0.45477157246960376,1.61428677207748,0.07592323934301619,0.6567117634755704,0.0
0.07510548018344772,0.8164611799071844,-0.4596040833542622,1.6152160973961798,0.07594631246658762,0.6562736540005916,0.0
0.07690725903127635,0.8179603571228679,-0.4632470160737898,1.6159071227707074,0.07596467909929253,0.6559492746205255,0.0
0.07888975582951743,0.8195995276198781,-0.4672247384753183,1.616650397780753,0.0759855281646081,0.6556013923363093,0.0
0.08037366911278884,0.8208231850600656,-0.4701852320461465,1.6171970862456284,0.07600167418106961,0.6553464576624706,0.0
0.08233640204779291,0.8224301308272526,-0.4740719682979733,1.6179039217160325,0.07602348732213335,0.6550176092336897,0.0
0.08526491457476228,0.8248006326672341,-0.4798080176470628,1.6189231685831786,0.07605685920552044,0.6545448265758762,0.0
0.08778339562778262,0.8268275129096379,-0.48469566878198334,1.6197733237372622,0.07608671464169853,0.6541526557190563,0.0
0.0896181388222055,0.8282997643663266,-0.4882329899773273,1.6203786964967024,0.07610917060113584,0.6538748038445944,0.0
0.09172882777644743,0.8299821032694085,-0.4922716352629493,1.6210573572285591,0.07613550699093896,0.6535643740344513,0.0
0.09394259793037349,0.8317353703276325,-0.49647454538350705,1.6217498363671023,0.07616372380543514,0.6532489263659771,0.0
0.09630619525984423,0.8335944984541395,-0.5009251461255786,1.622467538633401,0.07619447596420612,0.6529234376942241,0.0
0.09877732939873882,0.8355248057713501,-0.5055390438798875,1.623194632284961,0.07622728987743378,0.6525953106703822,0.0
0.10149487584148077,0.8376309174010017,-0.5105667498446228,1.6239667278278698,0.07626407588964976,0.6522487209858885,0.0
0.1039585085041696,0.8395296926705559,-0.5150880073221186,1.6246442650977544,0.07629812588496448,0.6519464677416713,0.0
0.10630111758699708,0.8413252101014063,-0.5193547221180028,1.6252686840420123,0.07633105900384987,0.6516695364758792,0.0
0.10824115114653107,0.8428068724503679,-0.5228666642470408,1.625772292648103,0.07635876596701541,0.6514474815251459,0.0
0.11028526106742118,0.8443597262657944,-0.5265431875188505,1.626288394266391,0.07638828125897348,0.6512210408626076,0.0
0.11318846969793776,0.8465441080720568,-0.5317172207364013,1.6269931603160188,0.076430566659508,0.6509134919113283,0.0
0.11597220699481393,0.8486258846269187,-0.5366368620661204,1.6276430388047256,0.07647171383645308,0.6506321914303397,0.0
0.11848978682703605,0.8504994934498826,-0.5410533352457223,1.6282099998257074,0.07650942247802052,0.6503887886716422,0.0
0.12145770428484505,0.8526908435788491,-0.5462145226820341,1.6288506328605046,0.07655428285107078,0.6501159481946168,0.0
0.12415711005185519,0.8546742363494962,-0.5508732994941214,1.6294105758423323,0.076595564062762,0.6498797988309369,0.0
0.12653334959094867,0.8564134404260073,-0.554947724138354,1.6298862269710517,0.07663226198077057,0.6496810780435384,0.0
0.1288256055362428,0.8580839740556248,-0.5588537488803793,1.6303294417198293,0.07666792577115993,0.6494975432857919,0.0
0.13122942515386204,0.8598271118909382,-0.5629234855766932,1.630777501504614,0.07670555181388691,0.6493136988473235,0.0
0.13344880218326313,0.8614307993361366,-0.5666593856756179,1.6311771239481818,0.0767405164435468,0.6491513546528535,0.0
0.13597906641594876,0.8632490888122348,-0.5708905737127692,1.631615083019966,0.07678054966159338,0.6489752510501964,0.0
0.13812304475359105,0.864785981628875,-0.5744570137557801,1.631973577034242,0.07681467835691268,0.6488327623595508,0.0
0.1408320007201574,0.8667157919692154,-0.5789324388994835,1.6324073360632032,0.07685791219469597,0.648662364554473,0.0
0.1430502126478308,0.8682929550778108,-0.5825782978954932,1.6327496417986562,0.0768935103728081,0.6485297611037165,0.0
0.1451774418826652,0.8698010363279887,-0.586057273469056,1.6330664388184595,0.07692776364164033,0.648408597801874,0.0
0.14767247685395074,0.8715615260491194,-0.5901138279633427,1.6334227672925894,0.07696801369563211,0.6482742204956653,0.0
0.1504895532895213,0.8735397316089469,-0.5946645646546925,1.6338061548063325,0.077013550440044,0.6481321700788225,0.0
0.15327112059235445,0.8754864569862832,-0.5991308737605909,1.6341666696105233,0.07705863220457067,0.6480013343706815,0.0
0.1555998329040433,0.8771141911191784,-0.6028523427895782,1.6344560754890625,0.07709648781518971,0.6478984864220224,0.0
0.15830501098290764,0.8789973030230886,-0.6071506879474049,1.6347762409504,0.0771404879599379,0.6477871835060456,0.0
0.16076146296295804,0.8807044940609443,-0.6110350859485675,1.6350539775168451,0.07718051012490894,0.6476930280734229,0.0
0.16365147992241366,0.8827050392233353,-0.6155786149802062,1.6353634966457946,0.07722758987319898,0.6475910495848781,0.0
0.16645040236079975,0.884638805741554,-0.6199560464792753,1.635647482401988,0.07727321555373104,0.6475006187287113,0.0
0.16995729404560106,0.8870504308459358,-0.6254043031894149,1.6359796828942177,0.07733031010822705,0.6473992958882441,0.0
0.17305500416289016,0.8891798191573635,-0.6301920716877273,1.636255165432743,0.07738076237485399,0.6473195095641208,0.0
0.17541382828666843,0.8908034405483323,-0.6338248266492378,1.6364548046131766,0.07741920290222659,0.6472644275127961,0.0
0.17690870922867366,0.8920364826413537,-0.6363665492066716,1.6367724321200772,0.07746143465051894,0.6473916728316025,0.0
0.1771340694602163,0.8925978802891723,-0.6372002218566649,1.6371893943749098,0.07750237017884327,0.6477359484482121,0.0
0.17705482420888455,0.8929437351856774,-0.6375571904129348,1.63758668071776,0.07753956026753937,0.6481180424628455,0.0
0.17698011119344906,0.893247468455042,-0.6378640028672505,1.6379489993007388,0.07757418203501901,0.6484944728177122,0.0
0.17693315012149513,0.8934233772608533,-0.6380378012166872,1.6381654397528174,0.07759494866104795,0.6487307027405087,0.0
0.1768827789561389,0.8936238794632527,-0.6382364243222881,1.638416044524721,0.0776194713602739,0.649019176286938,0.0
0.1768298573743456,0.8938385097165014,-0.6384474285352679,1.6386916840790444,0.07764700545737993,0.6493564589284063,0.0
0.17679665760036278,0.8939599574498734,-0.6385635433090597,1.638853046293106,0.07766313326843267,0.6495618095570745,0.0
0.17675923591656229,0.8941036672946336,-0.6387009381669241,1.6390474334256855,0.07768287999177566,0.6498203153094515,0.0
0.17671379351583477,0.8942863764328817,-0.6388746073030097,1.6393020347537532,0.07770934476939334,0.6501795742643599,0.0
0.17666831583412934,0.8944590529629343,-0.6390339746687842,1.6395546221024213,0.07773602504155817,0.6505587365781806,0.0
0.17662138839968652,0.8946340951932682,-0.6391911755524815,1.6398243872800025,0.07776507553234165,0.650991801078233,0.0
0.1765775370719742,0.8947861483635198,-0.6393217211864402,1.640074101475458,0.07779230007397109,0.6514191541624894,0.0
0.1765386526789767,0.8949144690570344,-0.6394271005287215,1.6402982297448037,0.07781694800154254,0.6518256193357977,0.0
0.1764992134574253,0.8950445422169174,-0.6395294987554185,1.640540989577926,0.07784402860878441,0.6522943416365644,0.0
0.17646386545812154,0.8951491008506051,-0.639605080797363,1.640753094602023,0.07786773261447437,0.6527271441135166,0.0
0.17642998169339225,0.8952463156748285,-0.6396702371028293,1.6409665151667672,0.07789169229786695,0.6531869897533833,0.0
0.17640041779337792,0.8953228226181155,-0.6397155788764488,1.6411500657561209,0.07791217376166094,0.6536010623642203,0.0
0.17637504543657506,0.8953842634643061,-0.6397477366117424,1.6413095050311544,0.0779298147066939,0.653974817089263,0.0
0.17634814696274792,0.8954475607457304,-0.6397764179545975,1.6414881159010202,0.07794951041142868,0.6544109213761189,0.0
0.1763235852145638,0.8954986745924733,-0.6397938438284494,1.6416473549675,0.0779667776590143,0.6548131997449156,0.0
0.1763006271253326,0.8955427095660508,-0.6398043312607788,1.6417972298958716,0.07798273574295209,0.6552030835270108,0.0
0.17628011784474984,0.895578683220209,-0.6398089878116319,1.6419302647908947,0.07799657505296377,0.6555573547189879,0.0
0.1762574537695273,0.8956161072893256,-0.6398098356385238,1.6420803693034787,0.07801186747188507,0.6559663780043012,0.0
0.1762295100084681,0.8956581371504724,-0.6398046531259455,1.642266064277379,0.0780302419987082,0.6564840336244055,0.0
0.17620283285507587,0.8956927040051774,-0.6397942530763138,1.6424336689927737,0.07804598058009088,0.6569579782591813,0.0
0.17617455617606267,0.8957269492361345,-0.6397805350334156,1.6426084343212475,0.07806151248650783,0.6574561958994508,0.0
0.17615793208629582,0.895745997658055,-0.6397717903226026,1.6427079675986307,0.07806977581819749,0.6577402711559996,0.0
0.17613335051985415,0.895774055252597,-0.6397585264105705,1.6428558073146673,0.07808157035303452,0.658162959504352,0.0
0.17611237314948033,0.8957978978297022,-0.6397464024952816,1.6429843582563752,0.07809122883385275,0.6585325422800618,0.0
0.17608909574450832,0.8958241688343126,-0.6397310041824389,1.6431329931807377,0.07810184863950932,0.6589648485537872,0.0
0.17607170318380408,0.895842803949387,-0.6397174756876883,1.6432460651877328,0.07810942011812157,0.6592978085010138,0.0
0.17605326886432457,0.895861812281254,-0.6397000449994119,1.64337303087839,0.0781175361467733,0.6596785573723166,0.0
0.1760366259692202,0.8958772848537896,-0.6396803921979076,1.6434927405305775,0.07812475887319849,0.6600452994763124,0.0
0.17602125934571336,0.895889557489685,-0.63965738704726,1.6436099932946773,0.07813144018561038,0.6604137595993863,0.0
0.17600704005660137,0.8958982396305128,-0.6396298193272167,1.6437267884817104,0.07813770809004443,0.6607920617825356,0.0
0.17599487420822887,0.8959024308797878,-0.6395995746637507,1.6438333912236618,0.07814304968799522,0.6611487155963938,0.0
0.17598500616172932,0.8959027048813064,-0.6395687966159167,1.6439256453732556,0.07814735021287164,0.6614674655581918,0.0
0.1759805645579199,0.8959019518333498,-0.6395544174590697,1.643964432144534,0.07814900822724768,0.6616033528224906,0.0
0.17597179105047156,0.8958932030133417,-0.639501442226228,1.6440902578504375,0.07815441748636685,0.6620702015954729,0.0
0.17596445619650555,0.895878429122139,-0.639447101653966,1.644191946312194,0.07815827014160688,0.6624679522961129,0.0
0.17596115608563193,0.8958452103670712,-0.6393589368359781,1.6443245020148107,0.07816283725974787,0.6630341681217153,0.0
0.1759633177846995,0.8957836421133437,-0.6392292738556519,1.6444657037600536,0.07816681513154558,0.6637172489931604,0.0
0.1759666901002309,0.8957091394662208,-0.6390896690422332,1.6445763017710673,0.07816877926588495,0.6643261273288873,0.0
0.17597479148789147,0.8956260983620666,-0.6389462659886381,1.6446642233714648,0.07816932838327607,0.664883244861515,0.0
0.17599095191265987,0.8955175856724453,-0.6387716831392938,1.6447438994638355,0.07816871799173511,0.6654921884307922,0.0
0.176010968570885,0.8953913980567989,-0.6385776870178173,1.644806489684515,0.0781668549444093,0.6660930898042403,0.0
0.1760419256331178,0.8952271080356458,-0.6383365750362665,1.6448561026002537,0.07816342473130254,0.6667674384061353,0.0
0.17606381961366632,0.8950897113443274,-0.6381370242714046,1.6448821961330617,0.07815978398857532,0.66726916856783,0.0
0.17609712744618436,0.8949206803322717,-0.6378996861722105,1.6448969874838495,0.0781548201949553,0.6678336242039102,0.0
0.17613161786535653,0.8947451671235924,-0.6376569979670342,1.6448983791596445,0.07814921562641916,0.6683688680950794,0.0
0.17616457717340006,0.8945773746129967,-0.6374276465101516,1.6448897946835863,0.0781434989857655,0.6688445405691835,0.0
0.17618979715222527,0.8944452282287957,-0.6372479279652478,1.6448780909917144,0.0781387440237428,0.66920004076348,0.0
0.1762189792778403,0.894301966633289,-0.6370555249132805,1.6448599853079315,0.07813345911529641,0.669568670920355,0.0
0.17624664543283472,0.8941671030569964,-0.6368755559703778,1.644838944771803,0.07812835995694421,0.6699014860061246,0.0
0.17630511981949495,0.893919735342711,-0.6365530680731879,1.644787520782576,0.0781190953869491,0.6704775440662888,0.0
0.17636230993421614,0.8936595817428828,-0.6362140173368297,1.644724109788964,0.07810921399127642,0.6710427425539471,0.0
0.17640644706416028,0.8934472416979292,-0.6359371256585737,1.6446674022539678,0.07810092032986098,0.6714820762267546,0.0
0.17645480357078927,0.8932239249274105,-0.6356483951554174,1.644602060955581,0.07809207842666872,0.6719264481954756,0.0
0.17651257370260745,0.8929662039511513,-0.6353178981570324,1.6445200424014792,0.07808181324421838,0.6724183518785037,0.0
0.1765511427093868,0.8927830938135524,-0.6350821860484807,1.6444596950569128,0.07807437352610727,0.6727564184697734,0.0
0.1766077421999251,0.8925324097943022,-0.6347629258740974,1.6443715282948217,0.0780642033447334,0.6732050408000132,0.0
0.1766686579962083,0.8922632073089111,-0.6344212638224771,1.644272133885037,0.0780532458164557,0.673669882826762,0.0
0.17674506650452754,0.8919334937013876,-0.6340053525404006,1.6441437568381139,0.07803985232755786,0.6742179002406707,0.0
0.17680407267261,0.8916644489901517,-0.6336646474249157,1.6440363701769178,0.07802880892581232,0.6746502675786304,0.0
0.17688784586388867,0.8913034807240181,-0.6332116649497912,1.6438852779273692,0.0780140482858355,0.6752120604611666,0.0
0.17697258362362708,0.8909318223809568,-0.6327454193407818,1.643724825216761,0.07799882593521973,0.6757703411162288,0.0
0.17705909582292959,0.8905508817749969,-0.6322682573318522,1.6435555796912096,0.07798317932594465,0.6763246046339213,0.0
0.17710027573285891,0.8903552462095091,-0.632021272952952,1.6434685392135215,0.07797499024436794,0.6766037099720654,0.0
0.17718123237841313,0.8900021593263365,-0.6315804165465264,1.6433058602220996,0.07796033868243141,0.6770974634529575,0.0
0.17726960777202191,0.8896178563135533,-0.631101410208405,1.643124900542499,0.07794440446729253,0.6776210686134156,0.0
0.17735617369161785,0.8892374259372604,-0.6306271627031014,1.6429426901114967,0.07792860566264113,0.6781267473090885,0.0
0.17744593918017942,0.888843712084911,-0.6301369300368578,1.6427508045646504,0.0779122402047411,0.6786382641016111,0.0
0.17756224475378032,0.8883465632284759,-0.6295205004210607,1.6425028212857837,0.0778916797522811,0.6792680176081666,0.0
0.17761562773669182,0.8880965120468439,-0.629207170408136,1.6423787062416313,0.07788118650225946,0.6795790186682653,0.0
0.1776835275188964,0.887790510436366,-0.6288255302194159,1.642224483557985,0.07786834511345878,0.6799550647887544,0.0
0.17784724461430232,0.887121214293047,-0.6280016666376411,1.6418752924410698,0.07784076991071995,0.6807578606764613,0.0
0.17793482844157646,0.8867131099590319,-0.627491461749929,1.6416641286395168,0.07782382563940148,0.6812347442049068,0.0
0.17803016295654797,0.8862841114565836,-0.626957265259291,1.6414388928154606,0.0778059456168489,0.6817291416810795,0.0
0.17811767378907975,0.8858915014668882,-0.6264685186382237,1.6412309533980798,0.07778951246953979,0.6821753547410342,0.0
0.17821393105990335,0.8854661005431272,-0.6259398963298166,1.641003231203892,0.07777170144007435,0.682652186799794,0.0
0.1783188394223384,0.8850058338291038,-0.6253684399575516,1.6407544536436198,0.07775244348283636,0.6831604851695328,0.0
0.17841993333668665,0.8845592825039982,-0.6248134838180636,1.6405114574296122,0.07773374066149294,0.68364655067968,0.0
0.1785266588879652,0.8840895123787536,-0.6242298201124176,1.6402537658125609,0.0777140699715023,0.6841508706061618,0.0
0.1786936490350719,0.8833817137493057,-0.6233545084650629,1.639859219133104,0.07768469810858146,0.6848971745867665,0.0
0.17883685288295043,0.8827453539219875,-0.622562666200246,1.6395038277222416,0.07765829392745954,0.6855549273645434,0.0
0.1790170808406213,0.8819627998628679,-0.6215911716126676,1.6390612399211,0.07762594017009687,0.6863496287784074,0.0
0.17917183834217248,0.8812221961399421,-0.620661067755425,1.6386441564594565,0.07759558038437245,0.687083990566077,0.0
0.17930898997157993,0.8803449544033405,-0.6195299340571175,1.6381604480602996,0.07756097387599005,0.6879216927227602,0.0
0.1794787898313558,0.8791671907734533,-0.6180012090704636,1.6375086337944809,0.07751541681093904,0.6890163373458236,0.0
0.17959308921706343,0.8782299676676143,-0.616769213646063,1.6369932204923403,0.07747915722185617,0.6898683674651093,0.0
0.17974940162455452,0.8770576305440518,-0.6152346070932759,1.6363386653482723,0.07743379824201362,0.6909187361380669,0.0
0.17986904704372245,0.8760813652008135,-0.6139473097143618,1.635793875227717,0.07739585848813843,0.6917791291336974,0.0
0.17996800679556055,0.8752668835167572,-0.6128708012827998,1.6353376254153076,0.07736394216382858,0.692489595674318,0.0
0.18008511852336034,0.8743429673466919,-0.6116510269293535,1.6348158018939258,0.07732769483677471,0.6932874434256084,0.0
0.18026791621998595,0.8729905195085516,-0.609870204973605,1.6340426158451355,0.07727505070869321,0.6944386238132805,0.0
0.18037279592064878,0.87207193656078,-0.6086450039157968,1.6335219301500559,0.07723912023851474,0.6952086396920267,0.0
0.1804445575166143,0.8714397940091339,-0.6077998712505452,1.6331629252794075,0.07721410044442595,0.6957356321262036,0.0
0.1805169565316666,0.8708208706227378,-0.6069726895679238,1.632809838585576,0.07718950206374538,0.6962490818595232,0.0
0.18060794644316835,0.8700720983360182,-0.605972927612113,1.6323802252648765,0.07715974327384735,0.6968664563687414,0.0
0.18070861644645125,0.8692498951821942,-0.6048739428673288,1.631906737713463,0.07712707257121638,0.6975393071516897,0.0
0.1807708665803345,0.8687096836040776,-0.6041480451173412,1.6315964268519445,0.07710548067315408,0.6979786896453026,0.0
0.18085951795520197,0.8679735223782863,-0.6031602231355399,1.63117113347957,0.07707610250821684,0.6985742929586972,0.0
0.18093728715936264,0.8673137338794856,-0.602272368581764,1.630789721787159,0.07704971566822667,0.6991049101476429,0.0
0.18102449923685013,0.8665811993954008,-0.6012857805110228,1.6303649595918268,0.07702042008889551,0.6996906885586606,0.0
0.18112089763711584,0.8657732122215959,-0.6001959704229499,1.629895201883185,0.0769881232788235,0.7003327109531082,0.0
0.1812354428543093,0.8648194744293638,-0.5989078016197156,1.629338863269413,0.07695007210312962,0.7010851062940451,0.0
0.1813222465386778,0.8640556702739087,-0.5978707065134152,1.6288940988670575,0.07691950479203634,0.7016835904238172,0.0
0.18143422311065172,0.8630991053340843,-0.5965717494951672,1.628334537308518,0.076881269114051,0.7024286657075889,0.0
0.18153960664161395,0.8621753980722112,-0.595312831543702,1.6277938910914473,0.07684430686825401,0.7031432988291872,0.0
0.18165150110411998,0.8611921694205548,-0.5939696881707739,1.6272171517849163,0.07680494461673566,0.7038992000183202,0.0
0.18183585089354654,0.8596627457141415,-0.5918823957297289,1.626313232046318,0.07674413045551219,0.7050651527917993,0.0
0.18194074621559989,0.8586427161731152,-0.5904733800287422,1.625715277914779,0.07670340287245682,0.7058354001762334,0.0
0.18206836516602573,0.8574624603183179,-0.5888428756449382,1.6250197110793672,0.07665615028347256,0.7067222427099986,0.0
0.18212475031615327,0.8564977988991208,-0.587476183336567,1.6244655506049464,0.07661867993061132,0.707432909050923,0.0
0.18221015472748855,0.8546374323074719,-0.584820440461815,1.6233997832852902,0.07654846986853955,0.7087831831446813,0.0
0.18221192606368491,0.8534260619025219,-0.5830489322749453,1.6227216292533408,0.07650347442124052,0.709647530152075,0.0
0.18222407642269242,0.8519554455230333,-0.5808980871763355,1.6218927921127282,0.07644866410284568,0.710692437959799,0.0
0.18222803886463212,0.8506884949726311,-0.5790338505771014,1.6211792502067421,0.0764012230443989,0.7115875865725902,0.0
0.18222680368176616,0.8497454721294648,-0.5776388764595871,1.6206486652103473,0.07636565807166838,0.7122513667023505,0.0
0.18224949739505003,0.8478286991548074,-0.5748129389308982,1.6195584117064254,0.07629387836978302,0.7135938461763461,0.0
0.18224007660570565,0.8464564436166684,-0.5727629058859348,1.6187844435556649,0.07624240512847996,0.7145468656414435,0.0
0.1822329906691327,0.8451016116643282,-0.5707326541814177,1.618018035663599,0.0761912749875986,0.7154845420283811,0.0
0.1822306134466693,0.8433500750248643,-0.5681025379779,1.6170224497832202,0.07612520109101552,0.7166910018366689,0.0
0.1822139612694642,0.8421129679379837,-0.5662260655176246,1.6163228324714203,0.07607827497936577,0.7175384450172932,0.0
0.18219958204405806,0.8406271106435863,-0.5639679414854911,1.6154790450373664,0.07602177954082254,0.7185529562523287,0.0
0.1821811818411303,0.8390356273828818,-0.5615370181648829,1.6145743137367532,0.07596119453366747,0.719634584882967,0.0
0.18215666299569602,0.8376427755134204,-0.5593941335809343,1.6137837573376708,0.0759079673863925,0.7205770719911431,0.0
0.18213016364768672,0.8362393784405945,-0.5572249045993698,1.6129864106438225,0.07585415635295227,0.7215234566416631,0.0
0.18210005860488931,0.8347630340811781,-0.5549318441981236,1.6121468362785016,0.07579742988753373,0.722515422823741,0.0
0.1820662656251424,0.8334001813804355,-0.5528016394870047,1.6113724540053473,0.07574489200706631,0.7234278317460635,0.0
0.18194730913222745,0.831929060789453,-0.5504412375649174,1.610559702955596,0.0756909221238906,0.7243945241370435,0.0
0.18178477932672887,0.8304310960614673,-0.5480011482622995,1.609742749993145,0.07563716298336412,0.7253688347137908,0.0
0.18159101221275956,0.8288172281446071,-0.5453485379537863,1.6088661113726186,0.07557970108216222,0.7264123882067607,0.0
0.18142112737680277,0.8275245983371895,-0.5432039458718769,1.6081669549367543,0.07553365047691449,0.7272447655604484,0.0
0.18122310204195655,0.8260240881922424,-0.5407038776243385,1.6073538982278082,0.07548015250641164,0.7282085242011432,0.0
0.18102123041730264,0.8245486008390462,-0.5382292253196066,1.6065548356822157,0.07542746829311524,0.7291533300449596,0.0
0.18079139388731905,0.8228951865592264,-0.5354407022057132,1.6056584709449362,0.07536839363991185,0.730209023745398,0.0
0.1805691847229398,0.8213691107192612,-0.5328465884349874,1.6048323225140189,0.07531374473940763,0.7311804179323111,0.0
0.1803040917100998,0.8195606875943364,-0.5297558755655536,1.6038515507520306,0.0752489481440828,0.7323284429365732,0.0
0.1800163016436284,0.8176722717553777,-0.5265018180345002,1.6028280457064314,0.07518125553617452,0.733523173061069,0.0
0.17973528922713397,0.8159132862294264,-0.5234428790386981,1.6018761848961942,0.07511802256814568,0.7346326259714591,0.0
0.17948240462224957,0.8143918936421849,-0.5207745555305688,1.6010540163132019,0.07506305047479102,0.7355900586420374,0.0
0.17922989919634047,0.8129012665128172,-0.5181430435052179,1.6002482794989739,0.07500896918017426,0.7365264639245985,0.0
0.17900527718697723,0.8116165941978377,-0.5158584594870349,1.5995546642270644,0.07496214732424,0.737332094280936,0.0
0.17874797326290098,0.8101539769610221,-0.5132442653282919,1.5987640298481531,0.07490873754699341,0.7382478867350901,0.0
0.1784308389147656,0.808797978508928,-0.5107588004884375,1.598051171081399,0.0748618674569262,0.739084328088218,0.0
0.17803022001255706,0.8072447380689207,-0.5078745218771051,1.5972429252327014,0.07480945807969798,0.7400356961027262,0.0
0.17758876961881684,0.8056430803773381,-0.5048656447022857,1.5964150069927843,0.07475613755650275,0.7410118570022938,0.0
0.1771472427807566,0.8041082727117934,-0.5019535215920128,1.5956245272293381,0.07470527607610093,0.741944340670362,0.0
0.17666196219485875,0.8024592212367548,-0.4987996508871995,1.594775820047958,0.07465070087361925,0.7429440946610609,0.0
0.1762166840334516,0.8009919131933663,-0.4959670682425803,1.5940222139642863,0.07460207672012131,0.7438319398925674,0.0
0.17561158624768372,0.799004596512,-0.4921075274872609,1.5929990976526915,0.07453630844627752,0.7450325391981237,0.0
0.17488433581343746,0.7966775409299572,-0.4875408406599465,1.591801672348554,0.07445956494310983,0.7464346270530154,0.0
0.17427639725614152,0.7948313207260892,-0.48386390951240826,1.59085630335698,0.07439857160315895,0.7475440998050649,0.0
0.17374254278336318,0.7932468396324108,-0.4806763929743101,1.5900456511814,0.07434587350831398,0.7484954110628713,0.0
0.17308034942009334,0.7912924537834752,-0.47671616951472123,1.589043726831694,0.07428075146385527,0.7496676663996985,0.0
0.17237419374029017,0.7892637931845963,-0.4725590539940049,1.5880049879218057,0.07421313033169147,0.7508822967194828,0.0
0.1717373137995557,0.7874964537008026,-0.46889142477302886,1.5871025234836755,0.07415404113177612,0.7519388057503908,0.0
0.17099755979375325,0.7854723116282348,-0.46465110635548384,1.586068200625016,0.07408623484423998,0.7531475533399892,0.0
0.1694915262738503,0.781280401031095,-0.4558054915693821,1.5839096804067998,0.07394757239184815,0.7556451984420228,0.0
0.16829487786050465,0.7784244494746844,-0.4495512467956742,1.5824712589988603,0.07385518277741472,0.7573337691725516,0.0
0.16743406950752823,0.7763791603189061,-0.44500614362028773,1.5814373113143085,0.07378661992978014,0.7585466221549262,0.0
0.16651815897698768,0.77423467887203,-0.4401825863038313,1.5803524125588564,0.07371415481925475,0.7598181892966012,0.0
0.16536589035885108,0.771587317288894,-0.4341478088858673,1.5790127490795707,0.07362468562199853,0.7613863579736676,0.0
0.16437142091365595,0.7694248760030447,-0.42911466336112264,1.5779258707792652,0.07355154068383389,0.7626650247726928,0.0
0.16327728910760486,0.7670953849488537,-0.4236133468633292,1.5767555852236042,0.0734723068786521,0.764042086865924,0.0
0.16245582796159713,0.7654253425307787,-0.41959354349943206,1.575921616669256,0.07341515235319887,0.7650285759127631,0.0
0.16157303833828693,0.7636585786589632,-0.4152906734735628,1.5750396534885762,0.07335432937904551,0.7660722849334616,0.0
0.1607261641580588,0.7620079428365485,-0.4112141279674952,1.5742178605388486,0.07329728332452172,0.7670470642103703,0.0
0.1595083115399424,0.7596618286807099,-0.4053524870159876,1.57304894926554,0.07321632037910138,0.7684319568621674,0.0
0.1584079787861287,0.757646691251577,-0.40020900957010164,1.57205227337379,0.07314691681733926,0.7696199057345723,0.0
0.1571158127222957,0.7553352527361883,-0.39421283019312114,1.5709108771604925,0.07306709817973173,0.7709823530415638,0.0
0.15603582914909692,0.7534919385525176,-0.3893253781326289,1.5700070401474504,0.07300324864134353,0.7720682898282633,0.0
0.15503822125055264,0.7518354174902472,-0.3848598145108798,1.569197469226603,0.07294545187576985,0.7730445112683414,0.0
0.15392338885219992,0.7500238254626876,-0.3799033812990211,1.5683139802507724,0.07288202656580592,0.774112309052349,0.0
0.15349620614776407,0.7493616181353476,-0.3780550780430684,1.5679939114727124,0.07285861929107415,0.7745026889922156,0.0
0.15262487447389947,0.7480063049744667,-0.3742553130002976,1.5673372063344426,0.0728107144930052,0.7753019167717435,0.0
0.151571160738883,0.7463968859849923,-0.36968449594693725,1.5665588786014557,0.07275377705260387,0.7762510930480343,0.0
0.15032258255485376,0.7445388977531334,-0.3643210185927269,1.5656635031109414,0.07268813962147525,0.7773467382121434,0.0
0.14921800500989,0.742959472626486,-0.35966604586253903,1.5649077219968652,0.07263229155881236,0.7782780447972121,0.0
0.14784776912077274,0.7410426071147849,-0.3539234131026427,1.5639928907631515,0.0725644228082098,0.7794087640906617,0.0
0.1462345687463324,0.7388622676627177,-0.34724908664972015,1.562958063148994,0.0724874174463381,0.7806949991922473,0.0
0.14482837015154063,0.7372886578753618,-0.34219175266573876,1.5622491295080583,0.07244074077961614,0.7816087516431939,0.0
0.14261757728891172,0.735478669580091,-0.33593691690028094,1.5615291057902514,0.07241947175126162,0.782621705619986,0.0
0.14066011765431896,0.7338631322760988,-0.33026324591441897,1.5608878308867145,0.07242449272926181,0.783572416451247,0.0
0.13875484696971568,0.7322676006343727,-0.3245803244547306,1.560256409221625,0.07245715474382286,0.7845624503481535,0.0
0.13706729706614204,0.7308242040164443,-0.31936691915774496,1.5596885190309278,0.07251866310268702,0.785514636809069,0.0
0.13579566201190946,0.7297069397449437,-0.31527986772355937,1.559252855081192,0.07259516679396306,0.7863009959769408,0.0
0.1339350672615107,0.728007968906476,-0.30901598971425664,1.5585935153522759,0.07275417156325814,0.7875670091494029,0.0
0.13302373493440342,0.727123887989888,-0.3057086624762338,1.558257848413111,0.07288015396256708,0.7882953455028152,0.0
0.1314683812129299,0.725516756278048,-0.29967024235974205,1.5576526129034056,0.07316252888880037,0.7897022559158776,0.0
0.13063992878974573,0.7245980060024124,-0.2962425892192038,1.557238808068427,0.0733886668294036,0.7903153750403518,0.0
0.12944939717039025,0.7232486731073203,-0.2912436234683446,1.5565494106483782,0.07374070785278809,0.7909553195564131,0.0
0.1283070567225991,0.7219783284468948,-0.28643708443258353,1.5559031575805775,0.07408101793140559,0.7915602922373236,0.0
0.12693769267014082,0.7204772945527502,-0.2806423274299401,1.55514218204806,0.07449323079229876,0.792278185644115,0.0
0.12557115870506536,0.7190128738037674,-0.27484246045526955,1.5544041997448408,0.07490825722457534,0.7929820840259689,0.0
0.12411647938714307,0.7174879894321713,-0.26864307997059783,1.5536406320120644,0.07535439633491021,0.7937188786206436,0.0
0.1227783802671703,0.7161238803959996,-0.26293233354884976,1.5529634205459948,0.07576792099948874,0.7943816763926552,0.0
0.12128438397721732,0.7146347349038981,-0.2565257382050703,1.552229848415158,0.07623426406852865,0.7951092242589433,0.0
0.12026987168115708,0.7136596625898382,-0.25218993292940173,1.5517554861232794,0.07655193704140335,0.7955884561658415,0.0
0.11893918189592811,0.7124004374302987,-0.24646821309110448,1.551146922684659,0.07697262856722886,0.7962102148321083,0.0
0.11820168473425634,0.7117276136426566,-0.24331326518133534,1.550826223400323,0.07720593774280493,0.7965443170892079,0.0
0.117487828843058,0.7110867093060924,-0.2402561017003308,1.5505228432888354,0.07743263467705615,0.7968636696373674,0.0
0.11659241108797037,0.7102930929218486,-0.23640752644943172,1.5501495305316086,0.07771869451407885,0.7972605173362942,0.0
0.11578906991567142,0.7095961552059472,-0.23295311966724028,1.5498248942618913,0.0779763102099537,0.7976105510595718,0.0
0.11464680133582648,0.7086185895121686,-0.22801360706600166,1.5493730521462397,0.07834557836298625,0.7981036304994915,0.0
0.11359651344935034,0.7077451264406424,-0.2234683533224479,1.548975138785481,0.07868676814944868,0.7985468496517161,0.0
0.11187565432344294,0.7063375376340632,-0.21594686192970686,1.54834130241489,0.07925296525651851,0.7992654688560671,0.0
0.11060442294508696,0.7053500936343715,-0.2104069819874835,1.5479091899636666,0.07967264496029858,0.7997745891755934,0.0
0.10944714306558796,0.7044834193431473,-0.205361351888071,1.5475385268840003,0.08005651127550373,0.8002249974891648,0.0
0.10815716880518007,0.703547251054501,-0.19971945901375993,1.5471469965429288,0.0804872483331463,0.8007153009646372,0.0
0.10693602607092502,0.7026955558608211,-0.19437403400335018,1.5468010160813173,0.08089700995959008,0.8011654419420157,0.0
0.10594017843998417,0.7020291587029085,-0.1900195201833177,1.5465388087844765,0.08123211591611934,0.8015208984471826,0.0
0.10474418299316447,0.70125251729207,-0.18477185181446892,1.5462415086878811,0.08163703953570306,0.8019385157618749,0.0
0.10334936393473823,0.7003810530113651,-0.1786303221852259,1.5459202650199237,0.08211245541935798,0.8024119787224628,0.0
0.1023570757688615,0.6997946943195013,-0.17427452332123597,1.545715561201377,0.08245108718995334,0.8027346920681282,0.0
0.1008544646277369,0.698934309639076,-0.16763587801920407,1.545427266378656,0.08296829509540543,0.8032130014742777,0.0
0.09993127729933719,0.6984403803761691,-0.16357740368217558,1.5452746644410993,0.08328591793644485,0.8034921483807712,0.0
0.09914284738993473,0.698035386921951,-0.1601136820970607,1.5451565784010657,0.08355765566818585,0.8037235799577747,0.0
0.09848921818903648,0.6977116057788054,-0.157244447668989,1.545067377302975,0.0837832152437302,0.8039104790202093,0.0
0.09718987013579408,0.6970822414895229,-0.1515001710862472,1.5449023234769506,0.08423521254422663,0.8042769916440606,0.0
0.09609116918255452,0.6965836813693438,-0.14664935401371226,1.5447873368890082,0.08461815133970832,0.8045729238734315,0.0
0.09439663587754285,0.6958523182534683,-0.13911952708061673,1.5446400804727496,0.08521373309703996,0.8050148367421821,0.0
0.09327738054169189,0.695415947107952,-0.13417138179489957,1.544576459029036,0.0856067922638328,0.8052869516182105,0.0
0.09191519666548563,0.6949185651279792,-0.1281335873882529,1.5445249873480917,0.08608742359162264,0.8056045611345509,0.0
0.09035514034383522,0.694397062954614,-0.12120488503097149,1.5445028507111505,0.08664039861335288,0.8059487487396341,0.0
0.08879557446925991,0.6939324233491607,-0.11427880476283371,1.54452342399293,0.08719483773026832,0.8062694743012913,0.0
0.08712624863294895,0.6934953756526567,-0.10686003998930615,1.5445913052473468,0.08779036458193155,0.8065880737454205,0.0
0.08627545252442838,0.6933071845985066,-0.10310731937292625,1.5446506056775324,0.08809267758544202,0.8067357731216218,0.0
0.08495884912534277,0.6930405930568206,-0.09727859737554685,1.5447622244994414,0.0885626963999729,0.8069546479728102,0.0
0.08404126761100829,0.6928832601297219,-0.09323206294527646,1.5448608173661798,0.08888977229647413,0.8070952987859166,0.0
0.0826357990985982,0.6926710464864998,-0.0870123062228332,1.5450349578560092,0.08939299719257558,0.8072993798348974,0.0
0.08165109585266404,0.6925546830519227,-0.0826729995402975,1.5451806083411401,0.08974488839928162,0.8074289098673678,0.0
0.08055495373078735,0.692449736654159,-0.07784180063326457,1.545361580011365,0.09013714601183967,0.8075631456580158,0.0
0.07903714038132911,0.6923422024676759,-0.07113696174943049,1.5456419693735428,0.09068212166196618,0.8077339600103915,0.0
0.07787299885007555,0.692300260656704,-0.066015378438878,1.5458868782838053,0.09109926945882776,0.8078482659204564,0.0
0.07690854455260958,0.692290909586754,-0.06178346955969169,1.546108596214497,0.09144444047384975,0.8079325841510473,0.0
0.07592118311047552,0.6923027383197331,-0.05745501609008043,1.5463517681190824,0.09179782900042714,0.808010270021848,0.0
0.07473236909565148,0.6923433747394482,-0.05224259432041725,1.5466648787776678,0.09222373958365523,0.8080932643248482,0.0
0.07392240912250958,0.6923923346464013,-0.048705665797385375,1.546893667342463,0.0925131241429252,0.8081411288190761,0.0
0.07282092877433714,0.692478871445293,-0.04389208664843183,1.5472203646230884,0.0929071586115512,0.8081983459543357,0.0
0.07136094817750135,0.6926295500379435,-0.037508278293121845,1.5476812852538835,0.09343007874164432,0.8082599687702989,0.0
0.07025662328041704,0.692778489367337,-0.032701572715841315,1.5480554196737337,0.0938243136098452,0.8082924848323537,0.0
0.06919580830733739,0.6929468642596446,-0.028094213706415468,1.548433623944428,0.09420247556409102,0.808313661023751,0.0
0.06822361595014184,0.6931231770676569,-0.023881975869622273,1.5487964764609474,0.09454843503811292,0.8083243442548379,0.0
0.06698008653775919,0.6933749081561948,-0.018496128472837454,1.5492806064939095,0.09499094768432298,0.80832777737119,0.0
0.06634422944166433,0.6935196955326464,-0.01575781376321041,1.5495394502880195,0.09521613112303934,0.8083231320837188,0.0
0.06462473388563819,0.6939370872614913,-0.008321525850666898,1.5502613822417812,0.09582748788671028,0.8083009066833843,0.0
0.06353295510492148,0.6942399717160173,-0.003632711840779953,1.550746578511592,0.09621332573618013,0.8082718838353617,0.0
0.06246191544113717,0.6945608700560952,0.0009549738717811928,1.5512399244215553,0.0965909571764575,0.8082342287619059,0.0
0.0614116499935884,0.6948981311368139,0.005441686488866865,1.5517401388054257,0.09696036498869676,0.8081886242784257,0.0
0.060587488679284644,0.6951796232975972,0.008949901174942591,1.5521446346230554,0.09724928344862428,0.8081463798486934,0.0
0.05941954926243825,0.6955981874195148,0.013918169132495512,1.552732616540164,0.09765842442745012,0.8080791051117402,0.0
0.058363325360864596,0.6960004512978749,0.01839524298823949,1.5532812883894136,0.09802715901364172,0.8080092762832453,0.0
0.05730486041771312,0.6964249626394649,0.022868866706352547,1.553846449221381,0.09839561196528814,0.8079312678951175,0.0
0.05592252888595813,0.6970078412122083,0.028700553574162124,1.5546053663332229,0.09887584303115333,0.8078188059147834,0.0
0.05495081450094987,0.697441770953073,0.032777480317046775,1.5551554914130448,0.09921157425691492,0.8077307589378612,0.0
0.05365349254759014,0.6980448815147571,0.038210290183317265,1.5559071510519624,0.09965884860281078,0.8076045085067801,0.0
0.052607149300494385,0.6985551786772801,0.04257095136546001,1.5565297609876994,0.10001778746203475,0.8074939785685533,0.0
0.05144193834340545,0.6991451472530422,0.04741241472693836,1.5572382810447654,0.10041618158446128,0.8073630705096677,0.0
0.05018011088352617,0.6998096670384681,0.052636540523385324,1.5580232897155297,0.10084590198981228,0.8072121436180648,0.0
0.04891416754545687,0.7005034261252053,0.05785531136788113,1.5588293031638971,0.10127499106857997,0.8070511399221847,0.0
0.04771436256733564,0.7011859781099873,0.06277889095715385,1.5596100249301323,0.10167960791169679,0.8068897855755068,0.0
0.04641641751211332,0.7019497832510405,0.0680835243945141,1.5604716883961027,0.10211529269798039,0.8067064401882008,0.0
0.04530287506136742,0.7026276487224117,0.07261135976753359,1.561225681885988,0.102486946353936,0.8065414386812787,0.0
0.043877397869715076,0.7035205356566323,0.07838665689130961,1.562207622567588,0.10296067821080458,0.8063217341635308,0.0
0.04294631978361854,0.7041231775654033,0.08213552156166568,1.5628612202718963,0.10326794932514051,0.8061717875527863,0.0
0.04158238140452576,0.7050253407306071,0.08761083105585886,1.5638313679953961,0.10371643011558146,0.805945775727652,0.0
0.039493106978775505,0.7064496034554344,0.09595904486231537,1.565344762935126,0.10439954924618465,0.8055858399030584,0.0
0.03775177326631742,0.7076864635714124,0.10285451320236427,1.5666363756774349,0.1049629693906772,0.8052701279407061,0.0
0.035927378789820406,0.7090243493928827,0.11002606200701953,1.5680147484680806,0.10554814482804972,0.8049264671586974,0.0
0.03448301833579234,0.7101166775567933,0.11565817394039266,1.5691251551495111,0.10600701104552249,0.8046445475496535,0.0
0.032982205163381434,0.7112780457450674,0.12147360633729655,1.570293908915135,0.10648019941313501,0.8043440124884126,0.0
0.03162180227474337,0.7123546294868627,0.1267098637661912,1.5713664869851864,0.10690566378180692,0.8040649138877183,0.0
0.03018015515025916,0.7135175668466525,0.1322248866380914,1.5725149492205661,0.10735318412289128,0.8037631698820407,0.0
0.02880587799166685,0.714647644158636,0.13744776835933878,1.5736209353201438,0.10777638094792884,0.8034698913440468,0.0
0.027675838790275777,0.7155931900908703,0.14171574294392206,1.574538650371305,0.10812170387957684,0.8032245995239409,0.0
0.026212938227561378,0.716833541194751,0.14721082918464115,1.5757344454714355,0.10856577909465139,0.8029031334137084,0.0
0.024919549827137465,0.7179486107578673,0.15203630952709574,1.5768004265677154,0.10895511001975319,0.8026145801573819,0.0
0.023287958023944157,0.7193742063581172,0.15808428447637862,1.5781532981013817,0.1094423755962058,0.802246444732548,0.0
0.022005509366317424,0.7205137439825857,0.1628024237100915,1.579225071372727,0.10982177367398022,0.80195300211938,0.0
0.020174175378657563,0.7221593311773422,0.16949347361376613,1.5807619726137327,0.11035903563447252,0.8015306190610961,0.0
