fotiskoutsikos/xarm7_motion_planning/scripts/logs/2025-04-25_11-05-31/joint_angles.csv
j1,j2,j3,j4,j5,j6,j7
0.03931196109491619,0.7000383327586617,0.0799932782613153,1.5707714302365456,0.0685956270192758,0.8708094140264384,-8.411770087590753e-06
1.1321364817185042e-05,0.7000375304109054,-0.00011982225396511836,1.5707714175845169,6.98146377224873e-05,0.8708097757109075,-8.653774139943948e-06
-0.0014309608468687784,0.7000461443898649,0.006339985541940152,1.5707960101879435,0.0007472687012182178,0.8708576675925528,-8.552257659388829e-06
-0.0030137545739634675,0.700108013795604,0.013391322920307758,1.5708630935913588,0.0015699068248338222,0.8708879001834537,-8.527752040521364e-06
-0.004154370645975902,0.7001947624038998,0.018452125590536994,1.570943071667231,0.0021602423374886826,0.8708912131153648,-8.452910971179506e-06
-0.0054945746581065436,0.7003301237787003,0.024406559880216783,1.5710630747743535,0.0028552992599522042,0.8708809935874573,-8.571086266506711e-06
-0.007299142161715011,0.700569640597231,0.03244708082913306,1.5712676448734033,0.003793190096041066,0.870842954567749,-8.54858901444544e-06
-0.008684926953384853,0.7008100531612129,0.03859579386268486,1.5714672115578434,0.004510570967601879,0.8707898065622901,-8.459187520237776e-06
-0.010293335058059405,0.70114044350652,0.04573555261647133,1.571737921179965,0.0053431064083984126,0.8707061776754221,-8.443479847741742e-06
-0.012235164654008202,0.7016112982588849,0.05436180635833665,1.5721192645104924,0.0063483677734446076,0.870574963318897,-8.427128513233129e-06
-0.013625413846733103,0.7020085501759601,0.06050180727424692,1.5724371339682977,0.007063376631562868,0.8704556043316245,-8.352993454252555e-06
-0.014972644319758643,0.7024340784317307,0.06644083663527667,1.5727758430032308,0.007754930304611385,0.8703233267958401,-8.344478472643857e-06
-0.017011552557634424,0.7031418789296158,0.07544995434253376,1.5733367334384853,0.0088029418903659,0.8700969008515287,-8.334203827509157e-06
-0.018273903744122855,0.7036339944131083,0.08098567659436018,1.5737239064378485,0.009446515636057029,0.8699346724420209,-8.329457397593387e-06
-0.01967275650454159,0.7042176778998179,0.08711218530367582,1.5741815375100678,0.010158203043076242,0.8697394058183132,-8.32563241104367e-06
-0.020826772060533294,0.7047326990034852,0.09214778678405722,1.5745837845019226,0.010742722024501106,0.8695649025737566,-8.323584805403073e-06
-0.02216293047342166,0.7053612479511715,0.09797144325030249,1.575073787893241,0.01141834208781578,0.8693500254300277,-8.456162303716042e-06
-0.023591981001934492,0.7060742150215837,0.10418647591819408,1.5756274646272308,0.012138422338229482,0.8691041419050949,-8.455991594047418e-06
-0.025363078049291055,0.707011317675911,0.11187800838526218,1.5763530702970474,0.01302847737100965,0.8687784357915058,-8.457829267172201e-06
-0.026913146121297693,0.7078865873161639,0.11857636783489767,1.5770277310908583,0.013802351389207601,0.868472086204541,-8.329345926760823e-06
-0.028331151871209492,0.7087294855372699,0.12467851730406476,1.577675660990563,0.014506624751833286,0.868175776243441,-8.334606401483313e-06
-0.03059577231708044,0.710142976068906,0.13441984691033948,1.5787595997315709,0.015629128286471783,0.8676769046461255,-8.346136286085937e-06
-0.033077120942691884,0.7117990232973517,0.14503427721787965,1.5800241735060956,0.01684975321304627,0.8670903490161193,-8.492577660668132e-06
-0.03469820682631575,0.7129518089363591,0.15190090168038228,1.5808993095731987,0.01763744224285091,0.8666816127113375,-8.505091647847962e-06
-0.03602422863286403,0.7139318963362333,0.15748625104694547,1.581640747754549,0.018277054925896152,0.8663342022321698,-8.51648879507394e-06
-0.037749919341607985,0.7152484247782178,0.16473284013913503,1.5826341268229207,0.019105566371613314,0.865867679014503,-8.53316790205838e-06
-0.039436644712709246,0.7165841309443479,0.17177594176674393,1.583638257258853,0.019909170017999855,0.865394980610235,-8.542010983880743e-06
-0.04075525875846342,0.7176637101951862,0.17724746805749536,1.5844467941180822,0.020532220484539287,0.8650137357421563,-8.55741617034056e-06
-0.04203144719740415,0.7187351754073843,0.18251914630308708,1.5852469274029426,0.02113151208598385,0.8646360804232254,-8.573294649316665e-06
-0.04343052755770138,0.7199384321255868,0.18827427119657614,1.586142607546007,0.02178445550419461,0.8642128191919989,-8.468548876372495e-06
-0.0450491282577401,0.7213634949313601,0.19490186303381218,1.58720072397705,0.022535542961982458,0.8637131344354678,-8.570826233622597e-06
-0.04564770805947305,0.7219042110700249,0.19733536334133817,1.5876005329135294,0.02281062542511858,0.8635241403748308,-8.580152666581853e-06
-0.04677464064694714,0.7229326748900968,0.20190908023070353,1.5883601477222298,0.02332704833535182,0.8631648565408971,-8.64043578641116e-06
-0.04804934566039076,0.7241160641066751,0.20706279139669714,1.5892315834178863,0.023908299918994125,0.8627530886716999,-8.618774220536807e-06
-0.04930515345540698,0.7253038452871738,0.21211498032348786,1.5901037002790375,0.024476940307650352,0.8623408986494772,-8.640247942892643e-06
-0.051074821372548485,0.7270075957382804,0.21920170351912205,1.5913508672675443,0.025273102845376094,0.8617516384437254,-8.67192783182702e-06
-0.052416229019245364,0.7283292451657521,0.2245343612116688,1.592314138558459,0.02587053013715579,0.8612966483967393,-8.736506071471695e-06
-0.053959293589895374,0.7298748374178547,0.23063683877487762,1.5934364453679537,0.026553093999690525,0.8607673063690724,-8.726752070309374e-06
-0.0553382783139007,0.7312813972385745,0.23605541752344994,1.5944537956611953,0.02715763003723648,0.8602877754192644,-8.754338028715836e-06
-0.05704567641272629,0.7330495589285766,0.24272524483588587,1.5957279461229996,0.02790018693708962,0.8596878275900188,-8.789406055420557e-06
-0.05876349199193953,0.7348604715450113,0.24938682723837147,1.5970267966080813,0.028639853527271164,0.8590771266008295,-8.826649780857565e-06
-0.059990804463856406,0.7361768448202461,0.2541119400297669,1.5979666183719994,0.029162940433741014,0.8586357635056832,-8.888867158773905e-06
-0.0614249097117856,0.7377321743156307,0.2596034129254541,1.5990729424952113,0.029769820211263287,0.8581170960869846,-8.920720032890017e-06
-0.06276531713780997,0.7392051971845772,0.2647040994716523,1.6001160597297437,0.030331976993871912,0.8576286192874623,-8.837761128255295e-06
-0.06380719217060538,0.740362910415155,0.2686464164511566,1.6009329556461074,0.03076567246241524,0.857246851598024,-8.87620761425012e-06
-0.06510862087451219,0.7418204886903501,0.2735463234501063,1.6019581517833936,0.03130380335364169,0.8567683923276705,-8.90798176023111e-06
-0.06669917293956207,0.7436185987112216,0.27949700475589623,1.6032177229191031,0.03195595190162415,0.8561815918240896,-8.946988231173236e-06
-0.06840313244832252,0.7455656410891836,0.28582413146569596,1.6045751142339197,0.032647768492565454,0.8555508642789587,-9.103884174521681e-06
-0.0700403657959674,0.7474586561764367,0.291855945973146,1.6058874218356998,0.03330519187734904,0.8549423695242009,-9.136842384016575e-06
-0.07153098707239192,0.7492002563424656,0.2973069013255891,1.6070884283101927,0.03389765475327433,0.8543868659699259,-9.164105844838843e-06
-0.07332083082239915,0.7513079294136187,0.3038019680255788,1.6085345234472097,0.03460185460963139,0.8537196504392224,-9.19825824041709e-06
-0.07515041703224767,0.7534826818354805,0.31038353776772354,1.6100174803118161,0.035313294584685906,0.8530375713008125,-9.223469271901763e-06
-0.07627086147060513,0.7548294119629233,0.31438536410982376,1.6109304527588524,0.03574445639511392,0.852618855777874,-9.253361491268208e-06
-0.07828447079215639,0.7572564826900603,0.32152287902603494,1.6125681656145794,0.036511892653908085,0.8518692233289853,-9.213645737915499e-06
-0.07960915163763183,0.7588698471518338,0.3261804793409935,1.6136496531530637,0.037011042007240924,0.8513761229553012,-9.251138044952256e-06
-0.08124119970099741,0.7608650554382246,0.3318774280088377,1.6149804801561638,0.03762058514529354,0.8507713922393441,-9.39005389621883e-06
-0.08255502971185624,0.7624838989404976,0.33642993793419596,1.6160538019794473,0.0381056508546056,0.8502844790411999,-9.380474699227648e-06
-0.08373804749284197,0.7639480519548769,0.340504648547177,1.617019966731295,0.038539119333281135,0.8498476608940289,-9.382981260408485e-06
-0.0860395416075539,0.7667940605528631,0.348358782056974,1.6188880024511496,0.03937345454136132,0.8490059884734107,-9.540944881258895e-06
-0.0878854606590469,0.7690960234242112,0.3545948901844218,1.6203858436575844,0.040033036211455375,0.8483340900444079,-9.593996969314844e-06
-0.08963285308161328,0.7712856099796319,0.3604453411720199,1.621800170215618,0.040649883272225296,0.8477023356328814,-9.615118035988246e-06
-0.0916218976734342,0.7737851454621669,0.3670414490578926,1.623402953554602,0.0413433139108621,0.8469892717996181,-9.697461744728741e-06
-0.09351289666986595,0.7761718705310532,0.37325175454338844,1.6249207473554943,0.0419937422872092,0.8463169751768893,-9.651558168677354e-06
-0.0948974128142499,0.7779280983244856,0.3777636482066118,1.6260295271434506,0.042464884763162125,0.8458281452708407,-9.693095273100027e-06
-0.09643594960832047,0.779881288100043,0.38274025883426877,1.6272552123598931,0.04298372551730445,0.8452901533584383,-9.826462683548698e-06
-0.09795571811933534,0.7818152414251189,0.3876175258202119,1.628460550261826,0.04349060237408686,0.8447627459467268,-9.789120080760938e-06
-0.09924920951157379,0.7834653368452962,0.3917407242115418,1.629482843108116,0.043917800214597236,0.8443170370165722,-9.921361598941303e-06
-0.10084707764112988,0.7855031321074621,0.3967951877543827,1.6307368190242215,0.044440772420906605,0.8437726733453106,-9.87235416172183e-06
-0.10233648348723445,0.7874054138805704,0.401470532570106,1.6318997583019073,0.044922924551299204,0.8432697442575625,-1.0012625778266226e-05
-0.1037753203991052,0.7892450508980868,0.405954259211712,1.6330164939579852,0.04538433519870555,0.842788931934197,-1.0056108688871745e-05
-0.10522324189025145,0.7910971263935105,0.4104334971942434,1.6341332476834696,0.045844210612604464,0.8423101108708888,-1.0099595585622012e-05
-0.10704687951934222,0.7934259603267906,0.4160254176751659,1.6355267468038113,0.04641722206658372,0.8417155558845897,-1.006167364714372e-05
-0.10888520282839931,0.7957733452503408,0.4216103912273388,1.6369193700586138,0.04698770697579935,0.8411245169941131,-1.0121563390974586e-05
-0.11123668591693026,0.7987668176761513,0.4286732717250086,1.6386778540457794,0.04770720871075351,0.8403829181620077,-1.018841245237212e-05
-0.11332903887162438,0.8014326779758996,0.43489091618204156,1.6402264420686867,0.04833782857655233,0.8397341455068084,-1.0294579160685657e-05
-0.11512339199173027,0.8037197614072262,0.44017438170011935,1.6415415367559136,0.04887226166124492,0.8391870928669167,-1.035110877189993e-05
-0.1174117204857712,0.8066248797205073,0.44683791308184695,1.6431950061098792,0.04954458826897579,0.8385039533622383,-1.042218446478671e-05
-0.11943185528952682,0.8091887433143388,0.45266092764651855,1.6446375121861738,0.05013004286418976,0.8379124972096941,-1.0482597851968478e-05
-0.12143714198652322,0.8117291252496459,0.45838410398596174,1.6460514370408736,0.0507037458899422,0.8373369650023967,-1.0544749523333508e-05
-0.12322991874678202,0.8139977395384985,0.4634555170393817,1.6473007497846641,0.05121100213841512,0.8368324319679985,-1.0547693086948584e-05
-0.12497050790261532,0.8161966840628745,0.4683372247915534,1.6485003599645136,0.05169748087644699,0.8363507291692294,-1.0690543979841038e-05
-0.12652428023361306,0.8181582577345896,0.47266190704651834,1.6495600774204666,0.052127231293852994,0.8359277991339598,-1.0701499943088777e-05
-0.12795458930955128,0.8199608715682647,0.4766152965081254,1.650525751895973,0.052519451233994374,0.8355449464853173,-1.074557181546254e-05
-0.12935996293488472,0.8217287012018373,0.48047345146554754,1.651465077741742,0.05290146493549397,0.8351747010415673,-1.0788699554176162e-05
-0.1311126008603276,0.8239240910301007,0.48524486883916573,1.652621081851259,0.0533730679211013,0.8347220555599435,-1.0842100273578126e-05
-0.13322055038681668,0.8265516553562593,0.490926303173298,1.6539891379125455,0.053933378317950975,0.8341907910227784,-1.084050041999518e-05
-0.13558953229284754,0.8294895950463124,0.4972399916163974,1.655498478805968,0.05455438663579493,0.833610518425413,-1.0910344807157912e-05
-0.13665893610917035,0.830821011731186,0.5000755172374429,1.6561749922889621,0.054832290247667004,0.8333524352264741,-1.0943061574231194e-05
-0.13959048904506322,0.8344217037855461,0.5077430470553708,1.6579829554602448,0.055583729551688776,0.8326698480194539,-1.1027474693392492e-05
-0.14145468711679943,0.8367149301885402,0.5125766697459131,1.6591170670303184,0.0560548495839619,0.8322458808629092,-1.114678839364558e-05
-0.1434402845604854,0.8391464225836245,0.5176781475046326,1.6603045725692898,0.05655140587069862,0.8318066786343952,-1.1145688540992182e-05
-0.14580266915034024,0.8420211410088809,0.5236822371551515,1.6616888869682835,0.05713453835584126,0.8313006315077889,-1.125192549800147e-05
-0.1480418312155054,0.8447350232275941,0.5293156826836611,1.6629758438610223,0.05768014345422312,0.8308359944499291,-1.1337247068254896e-05
-0.1506693075909613,0.8478962607765723,0.5358480773973593,1.6644505807920922,0.05831158176292561,0.8303113257351606,-1.1397561380022125e-05
-0.15291493635326603,0.8505905195546006,0.5413763394891395,1.6656864629178703,0.05884410243056859,0.8298774654127028,-1.1487711915059151e-05
-0.1551804411803861,0.8532947424591875,0.5468980211135763,1.666907345030503,0.05937472815714706,0.8294549484273137,-1.1517522078285936e-05
-0.15765502920686458,0.8562303279849335,0.5528644470372637,1.66821041503289,0.05994678766696371,0.8290108441341353,-1.1593538856935481e-05
-0.15996223058554992,0.8589555669785733,0.5583728119415747,1.669399307685059,0.060473566023697245,0.8286119725604184,-1.168502620529921e-05
-0.16225128250556242,0.8616453878545416,0.5637847526837962,1.6705528672770402,0.060989956060226724,0.8282312985452629,-1.1712168639377296e-05
-0.16475420478579217,0.8645682129784698,0.56964021123044,1.6717836295399948,0.06154762991721707,0.8278323533311136,-1.1752607785631142e-05
-0.1668496866495346,0.8670071673207449,0.574500645814469,1.6727932599928241,0.06200914029933546,0.8275104936231861,-1.1871770815297111e-05
-0.16983123733753835,0.8704423750041244,0.5813298816896086,1.6741866717978482,0.06265679095074717,0.827076103451664,-1.1915117443805912e-05
-0.17127891938590167,0.8723963819503346,0.5850841117686887,1.6749431929889944,0.06305414955186261,0.8264367961058197,-1.193909314345376e-05
-0.17217090917349687,0.874090362620537,0.58817161234784,1.6755749333438175,0.06345249329233571,0.8253404976259313,-1.2028160648824837e-05
-0.17257064772652964,0.8754113375449473,0.5904397924121794,1.6760571003891451,0.06380931916812838,0.8240658409542565,-1.2096182214094142e-05
-0.1727531345575395,0.8765844509153053,0.5923984950685659,1.6764308510275585,0.06416362480033122,0.8225219989893633,-1.2153621868904452e-05
-0.17281197694278827,0.8776909078588666,0.5942330357590855,1.6766935504697749,0.06453239321025794,0.8206095531378361,-1.2126852953819878e-05
-0.17278346249189713,0.8785990792003835,0.595719398434543,1.6768706036545682,0.06485678020445462,0.818803010646973,-1.2197501015442924e-05
-0.17271804381143685,0.8794335652599754,0.5970637936824268,1.6770274553942732,0.0651649902038951,0.8170714460489554,-1.2240395717455499e-05
-0.17262385588213913,0.8803278054032919,0.5984882952124737,1.6772003070993877,0.06550418631197452,0.8151993129541104,-1.224098610297375e-05
-0.17252845674735529,0.8810860631320034,0.5996774526365449,1.6773614788815205,0.06579493979395235,0.8136374692808204,-1.2316072378837362e-05
-0.1724354337897953,0.8817860353439091,0.6007610796178469,1.6775237051123604,0.06606436983049946,0.8122362943248529,-1.235393288379072e-05
-0.17235464623554453,0.8823797066703722,0.6016731952030696,1.6776719119702816,0.0662945834922688,0.8110817899932465,-1.2336661104228597e-05
-0.17228552763358707,0.8828876583907119,0.6024477732847018,1.6778069597351122,0.06649128218948874,0.8101195303489916,-1.2399150070230291e-05
-0.17219517506776594,0.8835853044794169,0.603508245208209,1.6779976257622522,0.06676298791666735,0.8088239260151866,-1.2430747562852673e-05
-0.17211288275594328,0.8842272360449899,0.6044778216998932,1.6781813414920856,0.06701409103940215,0.807661037564924,-1.2459269949083307e-05
-0.1720103682714802,0.885081247944048,0.6057639197455611,1.678431116781459,0.06735060270109283,0.8061424057502755,-1.2530313290071149e-05
-0.17190445651267883,0.8859948155283632,0.6071351595791956,1.6787052205969495,0.0677154257299657,0.804545953383605,-1.2570017959845359e-05
-0.17180439451270857,0.886872346783667,0.6084473736425968,1.6789741338740098,0.06807105572914729,0.8030344131063378,-1.2614510214170593e-05
-0.17173333927680723,0.8874821558533066,0.6093523129650258,1.6791664487085676,0.06831985690444764,0.8019989564105252,-1.258681897109426e-05
-0.17165388563861228,0.8882127690323243,0.6104356341038422,1.6793966944903156,0.06862102446261442,0.8007676852225547,-1.2628491158572785e-05
-0.17158994712817766,0.8887991726383211,0.611304182202292,1.6795823067761733,0.06886667912403954,0.7997825219533201,-1.261573148791939e-05
-0.17153559658370554,0.8893055503814455,0.6120527613801645,1.6797433518739195,0.06908044211476039,0.7989332545665002,-1.2678790310083343e-05
-0.17147998325639868,0.8898454584824709,0.6128494058870722,1.6799135782994448,0.0693105126918061,0.7980281460626832,-1.2696319864780037e-05
-0.17142363975228836,0.8904135917144256,0.6136903800628346,1.680089987169306,0.06955742235197171,0.797070017253982,-1.2668745879906851e-05
-0.1713728280706892,0.8909298654084585,0.6144539803669558,1.6802488519435466,0.0697846018116719,0.7961925015169626,-1.2722805469600473e-05
-0.17131620096104516,0.8915379913800221,0.615353508698206,1.680431350291605,0.07005647608358778,0.7951500722388243,-1.2769788324540343e-05
-0.17127403773557326,0.8919665798873728,0.615987565253203,1.6805579699106419,0.07025231611671234,0.794405942221676,-1.2735092079552146e-05
-0.17123570820738276,0.8923625249325626,0.6165732648856252,1.6806738323714079,0.07043509525867009,0.7937130714588498,-1.2784179545199947e-05
-0.17119239064853708,0.8928350567657848,0.6172733907427519,1.6808083586677842,0.07065684694021357,0.792878739570595,-1.2804826690526738e-05
-0.17113755770196892,0.8935037744901191,0.6182696292122891,1.6809895684575746,0.0709788039506698,0.7916759899313908,-1.2834776819126148e-05
-0.17108617130156745,0.8940907512294576,0.6191427229235043,1.6811410277042533,0.07126954781901151,0.7905900739509475,-1.2882944050218725e-05
-0.17103255684617036,0.8947298226120122,0.6200979843026158,1.6812962715108117,0.07159699336955061,0.789377478572387,-1.291228487154683e-05
-0.17098693788271202,0.8952293707227801,0.6208437755202381,1.6814118958579094,0.07186096730387526,0.7884045727872238,-1.2935791590784618e-05
-0.1709384932152851,0.8958090890822703,0.6217148407787736,1.6815370971007155,0.07217781433670645,0.7872507420059911,-1.2941011854117335e-05
-0.17089416368293442,0.8963166732976617,0.6224770800609809,1.681639369221597,0.07246453694189547,0.7862129290762994,-1.2966624710841756e-05
-0.17086555704737805,0.8966051543385554,0.6229071481493262,1.6816963073230058,0.07263067795823108,0.7856145469680662,-1.3002994896815778e-05
-0.17082627314697874,0.897089376001424,0.6236388231084398,1.6817827514838157,0.07291958799991871,0.7845917923249468,-1.2974314443248147e-05
-0.17079303172363325,0.8974677471352148,0.6242103128158423,1.6818456585177213,0.07315267560648575,0.7837704329990975,-1.3025281245582221e-05
-0.17076364363505014,0.8978002147867752,0.6247127786924427,1.681896927668408,0.07336336477822236,0.7830361093837608,-1.3041829593163357e-05
-0.17073416737661606,0.8981536354297379,0.6252478702838768,1.6819463670509833,0.07359349632656986,0.7822412531721712,-1.3081748208243482e-05
-0.1707067160899225,0.8984848872434998,0.6257521056053186,1.6819873150459133,0.07381728757900774,0.7814774551221095,-1.3099343395772678e-05
-0.17068076514913866,0.8988024307853619,0.6262381652401254,1.6820203601091368,0.07404018113844835,0.7807255311961345,-1.3062728625889974e-05
-0.17065331464406874,0.8991824032159652,0.6268242554974792,1.6820493171010105,0.07431789760277141,0.7797933911251755,-1.3083574016192756e-05
-0.17062559350900042,0.8995720416840216,0.6274304849670189,1.6820656022571745,0.07461897727599531,0.7787903762732702,-1.3137722082667835e-05
-0.1706024900191565,0.8998288648287627,0.627827966407354,1.682070171022647,0.0748264574201043,0.7781024286631464,-1.3174493198597759e-05
-0.17058068289867379,0.9000906810397744,0.628238833175268,1.682066336433775,0.07504873476037943,0.777375005314453,-1.313642194933351e-05
-0.17056246021973553,0.9003009026558138,0.6285699896854453,1.6820583036857304,0.07523417147415135,0.7767702123537497,-1.3181391327776737e-05
-0.17054397026697554,0.9005348358933363,0.6289401581549976,1.6820416957326545,0.07544858604064775,0.7760758221810082,-1.3218025324057692e-05
-0.17052717574876652,0.9007401515365769,0.6292692131488193,1.6820192883440335,0.0756477415121024,0.7754391843489365,-1.3177441467782103e-05
-0.17051125028121294,0.900944538864695,0.6295995730452351,1.6819896655388566,0.0758553014234824,0.7747785631471347,-1.3223612074675373e-05
-0.1704952983441208,0.9011605236397848,0.6299508296388998,1.6819482797935486,0.07608631878996075,0.7740493077608219,-1.3260306649165443e-05
-0.17048046125935556,0.9013448047543191,0.630254297051982,1.6819034741209133,0.07629685306361011,0.773392033523491,-1.3273582024631025e-05
-0.17046694850098731,0.9015054195394736,0.6305222104045223,1.681855791929448,0.0764922406312678,0.7727895962807869,-1.323202034964055e-05
-0.17045390941366279,0.901731260239492,0.6309081082500914,1.6817703889724323,0.07678809700521416,0.7718849866929913,-1.328232123043449e-05
-0.1704400647911566,0.9018763547314093,0.631156935311818,1.681704323653694,0.07699547365786419,0.7712579741037677,-1.329433660046675e-05
-0.17042804561701352,0.9019998402195499,0.6313701451091775,1.681640190698105,0.07718250584295472,0.7706972134658576,-1.3327199798851552e-05
-0.1704168289055401,0.902133188198623,0.6316082508766483,1.681557086452285,0.07740306384100748,0.7700470047171235,-1.3285726000233922e-05
-0.17040635596973797,0.9022598035080396,0.6318393565126321,1.6814641922051274,0.07763164253472699,0.7693789851449546,-1.3330887039586514e-05
-0.17039652221405266,0.9023605975559645,0.6320265297596643,1.6813780513440495,0.07783092656364321,0.768804120542292,-1.3341639967912045e-05
-0.170387554795421,0.9024489047839293,0.6321928461216952,1.6812921749980685,0.07801975222335145,0.7682645340207621,-1.3373685050055428e-05
-0.17037948528544433,0.9025480758146225,0.6323903343892319,1.6811746346184089,0.07826048068154368,0.7675892135505453,-1.3331967736007755e-05
-0.17037139626121345,0.9026174928774182,0.632530732876555,1.6810797768331032,0.07844774988295988,0.7670675482577911,-1.3395865144261165e-05
-0.17036428091165945,0.9026951806240238,0.6326993557049017,1.6809485819056418,0.07869141252938583,0.7664024830101823,-1.3353714126473903e-05
-0.1703590152589216,0.9027795407530164,0.6328994765971494,1.6807607009267187,0.07901748227448202,0.7655260592039772,-1.3369461560941431e-05
-0.17035001729728982,0.9028245920818572,0.6330164832630283,1.680625492592485,0.07924445116804257,0.7649266382919002,-1.3412556503666906e-05
-0.17034229673949852,0.902862670571456,0.6331247732147745,1.6804804051262447,0.0794797728875638,0.7643153207243092,-1.3445071193274316e-05
-0.1703387130245444,0.902887471319052,0.63320767508187,1.6803576878260964,0.07967373082781037,0.7638225955614661,-1.3399601744623624e-05
-0.1703438252577394,0.9029107761866886,0.6332943135586087,1.680229345667036,0.0798714935582554,0.763324781264755,-1.3440942564280078e-05
-0.1703537315502226,0.9029297739276556,0.6333749862055758,1.680103532454841,0.08005992348677005,0.7628557415907151,-1.3449211219374035e-05
-0.17036734062675496,0.9029454751717072,0.633453348902048,1.6799713347649838,0.08025236952226766,0.7623793500469143,-1.3479127931148582e-05
-0.17038744971336062,0.9029565376204864,0.6335399970960189,1.679808361832098,0.08048144895560583,0.7618180370508556,-1.348885105567632e-05
-0.17040924226476406,0.9029597216380898,0.6336176775974431,1.6796399899876056,0.08071053226807656,0.7612621946349565,-1.344425656046866e-05
-0.17043268187468552,0.9029556767511604,0.633687354926483,1.6794641242555883,0.08094319233943992,0.7606990929719855,-1.348647441545836e-05
-0.17045472551772178,0.9029464016898823,0.6337438847677888,1.6792949680045561,0.08116162113498859,0.7601727794030078,-1.3516695630322317e-05
-0.1704739316705126,0.902932406015581,0.633786989298522,1.6791436147244791,0.08135313808403577,0.7597164832510783,-1.3470250213920565e-05
-0.17049244553097687,0.9029154235397323,0.6338228242684885,1.6789979737687464,0.08153474610039879,0.7592839551731689,-1.3510100900226973e-05
-0.17050984444556772,0.9028971529224972,0.6338522045486359,1.678858109054242,0.08170690803732317,0.75887515628086,-1.3537979548061685e-05
-0.17052898467645417,0.902872916959705,0.6338798894683793,1.6787045916181906,0.08189320269486622,0.7584378799683344,-1.3491181447555789e-05
-0.17054900865760025,0.902844661542141,0.633904124377235,1.678542430650543,0.08208790569659108,0.7579814409706058,-1.3498718202775706e-05
-0.17056720263406167,0.9028156636739082,0.633922560805324,1.6783904838751287,0.0822688160238183,0.7575594261136445,-1.3505520887413525e-05
-0.17058769325472856,0.9027800171650302,0.6339394427956684,1.6782185215066256,0.0824719865850243,0.7570873993796203,-1.3545818015714417e-05
-0.17061370832743528,0.9027315898971855,0.6339556225760798,1.677995557411747,0.08273343622696494,0.7564828427683139,-1.3576546829874303e-05
-0.17063245620287848,0.9026907142715537,0.6339641098951327,1.677821844929567,0.08293666315414683,0.7560183186031537,-1.3530124863159187e-05
-0.1706481603018961,0.9026543629128438,0.6339693606138201,1.6776721228079365,0.08311209811414866,0.7556176005460049,-1.3569220156384176e-05
-0.17066436643008753,0.9026156065210804,0.6339732355630705,1.677511453415037,0.08330072124668852,0.7551881467791857,-1.3596982956443071e-05
-0.17068121287033566,0.9025762461731146,0.6339780147367549,1.6773515314373357,0.08348982473262101,0.7547643180538035,-1.3549887650121661e-05
-0.17071046263989498,0.9025388015157603,0.633997507381693,1.6771730681442092,0.0837091192460262,0.7542890398758342,-1.355776009415166e-05
-0.17073949147339107,0.9025136006813828,0.634021055858895,1.6770372189285583,0.0838826903712695,0.7539272513321853,-1.3596563826823171e-05
-0.1707759517613905,0.9024880421560084,0.6340514410889773,1.67688507676222,0.0840820311726107,0.7535234211968591,-1.3624220014385457e-05
-0.1708140335100623,0.9024633996760913,0.6340831691024933,1.6767399528930316,0.08427674070379698,0.7531444819067863,-1.3577081697135895e-05
-0.1708527252049299,0.9024398923242014,0.6341139274899694,1.6766023301126083,0.0844655794352116,0.7527867762258289,-1.3616036995678371e-05
-0.17089117703364742,0.9024176138298801,0.6341423057018227,1.676470954088046,0.08464903272752444,0.7524492559708422,-1.3642666583990604e-05
-0.17092843803195645,0.9023943255087996,0.6341675109013494,1.6763473073349138,0.0848236897608432,0.7521398685116703,-1.3594492605406572e-05
-0.17096820230769527,0.9023688269204335,0.6341909849884271,1.6762196434005237,0.08500586328473059,0.7518250899770722,-1.3600050947637499e-05
-0.17100847064980762,0.9023417915884222,0.6342107571230855,1.6760938912938599,0.08518681623416313,0.7515206446453249,-1.3658591002219111e-05
-0.1710577678616536,0.9023051442927628,0.6342294104162969,1.6759437226674647,0.08540225244288724,0.7511727105939157,-1.3611424210857592e-05
-0.1710865857470525,0.9022822613271702,0.6342367815187053,1.6758559171363432,0.08553018495635634,0.7509713663762891,-1.3668062570637574e-05
-0.17111895224796125,0.9022542584442821,0.6342424655012255,1.6757583351070222,0.08567140271235374,0.7507571286528512,-1.3618752539912293e-05
-0.1711444208057813,0.9022316756923923,0.6342443912374263,1.6756826882005358,0.08578154242462066,0.750592002230456,-1.3674963121879102e-05
-0.17117449239364202,0.9022028452347017,0.6342444724629752,1.6755940604612265,0.08590923830392683,0.7504074452882721,-1.3624871966655405e-05
-0.17120498749556834,0.9021729585399267,0.6342414189625414,1.6755061849991622,0.08603570819775097,0.750226746272669,-1.3680656119952062e-05
-0.17124043087545626,0.9021354459121467,0.6342346549905864,1.6754048895252058,0.08617955374720143,0.7500292309902994,-1.3631391027502104e-05
-0.17127086966175753,0.9021013349162006,0.6342254248608503,1.6753188814114237,0.08630135392396543,0.749865437693745,-1.3667003810446943e-05
-0.171307392347404,0.9020590402500961,0.6342106549913602,1.6752166653471345,0.08644407362088913,0.7496794275571688,-1.363735359483087e-05
-0.17134004062637231,0.9020185385726007,0.6341938597618109,1.675126271364201,0.08656935412316358,0.7495205378821197,-1.3672838282907662e-05
-0.1713766798931804,0.9019719552826917,0.6341710395478728,1.6750258402809033,0.08670665160945479,0.7493510304042896,-1.369633036674145e-05
-0.171417884511051,0.9019159055633414,0.6341413188010332,1.6749139121742873,0.08685673805482264,0.7491739847952585,-1.3645961105090976e-05
-0.1714651217060057,0.9018490107279771,0.6341015188112014,1.674787914083745,0.0870224900060208,0.748984704283238,-1.3649091941125846e-05
-0.17152588996808404,0.9017587637100171,0.6340429703867274,1.6746297453276355,0.08722467451378169,0.7487641207919982,-1.3685254330653152e-05
-0.1715835701730395,0.9016669809072084,0.6339763918258603,1.6744784407513107,0.08741352195114871,0.7485687630309643,-1.3708950030277833e-05
-0.17163718267822325,0.9015750515557768,0.6339062105392284,1.674336861493523,0.08758598861599776,0.7484018149039136,-1.3658329507393319e-05
-0.1716954545144329,0.9014713365751099,0.6338228925796949,1.6741855744022525,0.08776545772635735,0.7482364774963788,-1.3693314915741439e-05
-0.17175382436423536,0.9013625347482286,0.6337311577748945,1.674034059441838,0.08794036962302165,0.7480854121908029,-1.3695654105028154e-05
-0.17181229210857474,0.9012489281404221,0.6336314476058797,1.673882333870094,0.08811078308871956,0.7479479405612137,-1.36646181232436e-05
-0.171875912409309,0.9011210840028623,0.6335162737494535,1.673719146649625,0.08828858961217101,0.7478142426201941,-1.3666691813796206e-05
-0.17193199246216206,0.9010023601902617,0.633407378908454,1.6735715109252371,0.08844158684188042,0.7476973584847091,-1.3700558500140403e-05
-0.17201715600820489,0.9008236703736374,0.6332425061079352,1.6733495177884343,0.0886543891092586,0.7475260946072186,-1.372269203603338e-05
-0.17207878598820692,0.9006844772421196,0.6331134015913431,1.6731783081369764,0.08880715744297607,0.7473919936540723,-1.3671057220498994e-05
-0.17215924890964462,0.9005050040598412,0.6329470766868948,1.672959047463105,0.08899097802556,0.7472225868576894,-1.3705036556288519e-05
-0.17222966375172177,0.9003442184915631,0.6327960506350401,1.6727624522690334,0.08914621015391688,0.7470695520109594,-1.3726445124540021e-05
-0.17231017208478594,0.9001596531159315,0.6326244296609937,1.6725383912816145,0.08931368687916752,0.7468993353465185,-1.3675389612721744e-05
-0.17236878799660893,0.9000216131543404,0.6324952491339602,1.6723718135115915,0.08943254037060289,0.7467704858712931,-1.3708799335709898e-05
-0.17245447422314442,0.8998242099989868,0.6323109552359689,1.6721334984185434,0.08959479189541941,0.7465909305096856,-1.3709990940746763e-05
-0.1725636906596355,0.8995745166694276,0.6320773431845037,1.6718324832276963,0.0897878016841549,0.7463668739871538,-1.3731369429947904e-05
-0.17266792846494283,0.8993300344319399,0.6318490318614245,1.6715393499759816,0.08996509292951593,0.7461493710020148,-1.368026496351149e-05
-0.17276656208910435,0.8990961714589822,0.6316295650504813,1.6712596168433054,0.09012566081266549,0.7459406752141726,-1.3681369667395415e-05
-0.1729007354806411,0.8987827410707672,0.6313364406514861,1.6708856515396011,0.09032857554997076,0.7456669775057589,-1.3682597856501388e-05
-0.1730504090719931,0.8984300516999069,0.6310060427166366,1.670466008043035,0.09054221350093794,0.7453606879997317,-1.3683933747898891e-05
-0.17309492269063753,0.8983178340045672,0.6308987999400024,1.6703326510194918,0.09060752903357105,0.7452578393655243,-1.3736169275802013e-05
-0.17349163758766561,0.8974567464760428,0.6301072305513369,1.6693126129455953,0.09106618787895293,0.7445715670510946,-1.3737500731636487e-05
-0.17369576833940847,0.8969141943956647,0.6295866601817908,1.668673010763703,0.0913215491524717,0.7440794222741856,-1.3738609307090144e-05
-0.17388344777586617,0.8964332045718839,0.6291281627049186,1.6681065007516205,0.09153725671345025,0.7436544229562729,-1.3739351765629237e-05
-0.17409961855854217,0.8958932952315912,0.6286165575262164,1.6674713793803715,0.09176701735402482,0.7431888515842662,-1.3688894023644593e-05
-0.1742869854423823,0.8954215215877239,0.6281684242970531,1.6669175017502065,0.09195726605089227,0.7427802692988497,-1.372133730903613e-05
-0.17445387275122215,0.895000539341825,0.6277669017123317,1.6664226442770431,0.09212021841953799,0.742414640613478,-1.3740189332978048e-05
-0.17464044579208338,0.8945332672522692,0.6273234110687991,1.665874470169526,0.09229402308571988,0.7420146824526288,-1.3688919084486884e-05
-0.17480747096033422,0.8941122739121932,0.6269225884813974,1.6653808889694384,0.09244434477992591,0.7416522999380755,-1.3689409026795829e-05
-0.1749755557567214,0.893688947582227,0.626519428141159,1.6648848640666287,0.09259018045991851,0.7412887060237674,-1.3689298230978864e-05
-0.17525973510725734,0.8929932456444467,0.6258606756788376,1.6640708713410595,0.09281832561236492,0.7407047630831931,-1.372118736497896e-05
-0.1754580476682701,0.8924878377462937,0.6253776165078735,1.6634795978092276,0.0929763515762474,0.7402690421738587,-1.372113120634566e-05
-0.17571393589581685,0.8918453224497735,0.624764911544565,1.6627283420178918,0.09316894602995074,0.7397214481367937,-1.372128389398597e-05
-0.17591544516852498,0.8913300618187447,0.6242704268793888,1.6621255875960408,0.0933172147256478,0.7392755853757373,-1.3740010427198968e-05
-0.17625478345622536,0.8904867896287927,0.6234667125308704,1.6611406174945662,0.09354892445920537,0.7385633752498935,-1.3739697648951221e-05
-0.17651872303330407,0.8898091150468534,0.6228159638795407,1.660349443982196,0.09372602108425099,0.7379780427250502,-1.3739296827353087e-05
-0.17679154612735104,0.8891098094707424,0.6221440192264165,1.6595332573069053,0.09390151034653726,0.7373744918304048,-1.3739154152148103e-05
-0.17720788933448883,0.888066314731847,0.6211452671147537,1.6583159996768142,0.0941506265245673,0.7364891860181197,-1.3689132758898381e-05
-0.17746724520479074,0.8873860322243425,0.6204864748522851,1.6575224815222107,0.09430481323889772,0.7358910542610282,-1.3738265952412121e-05
-0.17771643274524962,0.8867343369707159,0.6198562595713843,1.6567624436644177,0.09444843388453883,0.7353207581757326,-1.3688999872307761e-05
-0.17821179847476198,0.8854913849671133,0.6186605771938174,1.6553133065016157,0.09470849810953119,0.7342591939254728,-1.3712583954550439e-05
-0.17848732838292314,0.8847581918291354,0.6179471564786452,1.6544585538377596,0.09485490296414856,0.7336084799624585,-1.3715391308011249e-05
-0.17893777112854536,0.8835990974297969,0.6168238244806146,1.6531074610120928,0.09507630357212449,0.7325984815378845,-1.3694308070633099e-05
-0.17926064692638555,0.8827766187006549,0.6160278205406327,1.6521459036428636,0.09522746584318842,0.7318745063321508,-1.3693651705004584e-05
-0.17968225125616755,0.8817903050152207,0.6150910654403798,1.6509855586247077,0.0954035772648032,0.7310289531457688,-1.369311959287245e-05
-0.18027790214145423,0.8805527175004864,0.6139516028623664,1.6495119277899732,0.0956162077945315,0.7299982166801717,-1.3707686949082643e-05
-0.18084801934599248,0.8795362611968409,0.6130647648952632,1.6482719820550162,0.09578493587459302,0.7291612929436955,-1.3740903386683101e-05
-0.1817203932931566,0.8782223344650326,0.6119999600527377,1.6466212599881613,0.09599307329767282,0.7281010090427111,-1.3739456700356811e-05
-0.1824711052246899,0.8773307665988579,0.6113786227579805,1.6454337331593276,0.09612742327805357,0.7273667447646561,-1.3739233874154877e-05
-0.18342051364120504,0.8764210774025738,0.6108620588728897,1.644145383726447,0.09625675957651403,0.7266051655092047,-1.3739867487316815e-05
-0.18448176705587294,0.8756429209161256,0.6105818659152922,1.6429352624477334,0.09635881782321487,0.7259232585281694,-1.3741408185552473e-05
-0.18589663762776443,0.8748749067130053,0.6105445990745935,1.6415809064503364,0.09644767831384993,0.7252036039129237,-1.3776007238952559e-05
-0.18787219348598416,0.8741661251661466,0.6109480719803067,1.6400360729799983,0.09650996508826992,0.7244438944453524,-1.3761343217844058e-05
-0.18976282594724214,0.8736174899885842,0.6114878225936424,1.6386968830453492,0.09651998471086642,0.723852443571948,-1.379034561388437e-05
-0.19043233841599783,0.8724690094961476,0.610421044404525,1.6374422333574667,0.09650677426913301,0.7233947615984331,-1.3795753686096646e-05
-0.19083976112345713,0.8713194116603509,0.609171702828613,1.6363130642687533,0.09649051043403212,0.7230071525789681,-1.371463612276358e-05
-0.19126463091716506,0.8699610800959023,0.6076524355106239,1.6350110061812044,0.09647063686788915,0.7225793454155438,-1.3689981122944062e-05
-0.191628066513303,0.8687126467476451,0.6062327710002116,1.63383092490903,0.09645206808007423,0.7222033738722322,-1.3763512829001456e-05
-0.19192526604100468,0.8676657717094844,0.6050317272896981,1.6328469157037695,0.09643651038680634,0.7218964270103738,-1.3679769923058416e-05
-0.19249451620043967,0.8660195384731297,0.6031991199202569,1.6312711088083205,0.09640887922750441,0.7214515959942611,-1.3648675963651158e-05
-0.19314775145263585,0.8642662259904839,0.6012593839555125,1.629595696374885,0.09637261164197941,0.721045443512673,-1.363791560393679e-05
-0.19354449582354416,0.8627378443731057,0.5994429942324375,1.6282271489795601,0.09633881628470853,0.72077360757355,-1.37041390813053e-05
-0.19392246332431373,0.8608071587695276,0.5970538549617164,1.6265610523500724,0.09629501722886591,0.7204786469795303,-1.368245923050182e-05
-0.19414396353948948,0.8593198511636606,0.5951588961892602,1.6253087931452948,0.09626097348034968,0.7202651864950056,-1.3664588407458211e-05
-0.1943670943944431,0.8578138760183291,0.5932309853548796,1.6240432838990193,0.09622664821151528,0.7200563363099919,-1.3559968745191497e-05
-0.19460809314198002,0.856170702863368,0.5911176394552289,1.622666413515005,0.09618926905577396,0.7198376288846013,-1.3540799736588838e-05
-0.19484981292629477,0.8544740130566657,0.5889208876696292,1.6212501327122286,0.09615074838979876,0.7196206785906512,-1.3520053011362165e-05
-0.1951353618531746,0.8524515201814058,0.5862878545849028,1.6195668109668508,0.09610497201832047,0.719375094149906,-1.3492312920249105e-05
-0.19534111896491702,0.8508541631593776,0.5841846268688613,1.6182466995455709,0.09606864690540196,0.7191856952463374,-1.355216229992351e-05
-0.19557520291674457,0.8490550625238527,0.5818061957941971,1.616760926210782,0.09602799363110837,0.7189803858352732,-1.3536486264342784e-05
-0.19578599420732257,0.8473579714374369,0.5795449507884953,1.6153648805978973,0.09598965728900932,0.7187922882497872,-1.3518198216821986e-05
-0.195918780031775,0.8462092320237913,0.5780002296286195,1.614423572047345,0.09596338830694595,0.7186651323985682,-1.3475739222279515e-05
-0.19619115767864237,0.8440362174154448,0.5750822296614793,1.61263992350092,0.09591448775542766,0.7184398638520815,-1.344710274953087e-05
-0.19638287005318666,0.8425560412650404,0.5730850996004433,1.6114260860306713,0.09587964881915578,0.7182972575208382,-1.3427373029450962e-05
-0.1966697032172826,0.8408725826093102,0.5708436845796907,1.6100302316510282,0.09583662235985546,0.7181683444419784,-1.335248044131987e-05
-0.19693311161521532,0.8390984349949999,0.5684387415302217,1.6085875692069083,0.09578707788650132,0.7180781724150824,-1.3399357756682662e-05
-0.1970183089306543,0.8375057319704666,0.566169044572165,1.6073560753038425,0.0957420147772643,0.7180313642514031,-1.3377006510495448e-05
-0.197035544395459,0.8358370720281645,0.5637335247634256,1.60609281174896,0.09569425549361643,0.717988795049501,-1.3327838352950039e-05
-0.19702101908772995,0.8339678244697035,0.5609723069706423,1.6046905055727017,0.09564135373204241,0.7179468354370213,-1.3246702534885912e-05
-0.19699015905135386,0.8327826274307899,0.5591984398846028,1.6038081663324597,0.09560737744223413,0.7179186336341408,-1.3232145026798037e-05
-0.19694865384874571,0.8309553098767237,0.5564575091465827,1.6024463233162756,0.0955550699821659,0.7178793620407271,-1.3205773802482668e-05
-0.19689123255756602,0.8290408554875262,0.5535617152307628,1.6010239676461477,0.09550016041775766,0.7178398601806455,-1.3177831979405141e-05
-0.19681771224651357,0.8270030886358697,0.5504540423581377,1.5995136855205496,0.095441592365348,0.7177993156806535,-1.3162899342056278e-05
-0.196743349230176,0.8254220891589359,0.5480176912593215,1.598346499581,0.0953959574329204,0.7177661050334638,-1.3142778959363e-05
-0.19664608246486637,0.8232864223046699,0.5447125831063095,1.596769100913483,0.09533417242716435,0.7177241868721635,-1.3180479959018498e-05
-0.19651913132725607,0.8208761848751092,0.5409458202861082,1.5949932488262233,0.0952641314935212,0.7176786860536337,-1.3124137603348629e-05
-0.19641210783162677,0.8193360747799705,0.538506752035687,1.5938654008288182,0.09521951458063516,0.7176463826675787,-1.3094629188969975e-05
-0.19635270332816912,0.8173466879531048,0.535383975579589,1.5923894730259995,0.09515772896514108,0.7176321771718825,-1.3104334196434309e-05
-0.19631972391322616,0.814747383119041,0.5312965096992839,1.590462351866675,0.09506989707429714,0.7176718335949639,-1.3055890281776783e-05
-0.19609183873902225,0.8133349065970821,0.5289219127763083,1.5894893297655575,0.09502116251956405,0.7177180101104668,-1.3005393459053494e-05
-0.19551226484465722,0.8098356877311099,0.5229999333383377,1.587085168276107,0.09490057902109594,0.7178464131924702,-1.2988259073587471e-05
-0.1949742865977866,0.8074231647233754,0.5187846280965376,1.5854647362389782,0.0948161313674909,0.7179270852652291,-1.2949223139102628e-05
-0.1944868620279978,0.8052525476558152,0.5149598549536751,1.5840028442525513,0.09473960006644422,0.7179938620718147,-1.2916536499041342e-05
-0.19391010623751104,0.802719672352044,0.5104592943934803,1.5822950275425471,0.09464991368957332,0.7180691534450983,-1.2885179509147804e-05
-0.19333767006919889,0.8003403888267719,0.5061735825567624,1.580694791410151,0.09456446106510175,0.7181333559276721,-1.2786154155897123e-05
-0.19261122910876605,0.797393074682673,0.5008108091473016,1.5787125461890144,0.09445841869382399,0.7182104794927779,-1.2718472052419827e-05
-0.19183138584755088,0.7944353855237853,0.4953400336415701,1.5767307108119848,0.09435089402611307,0.7182800576099684,-1.2698860321513905e-05
-0.191299195819024,0.7920641214356987,0.490954035726185,1.5751240726309694,0.0942552322044401,0.7183847612859973,-1.26606841162058e-05
-0.19046065981608695,0.7893018254820827,0.48565347598337283,1.5733289614520132,0.09414043936804273,0.7185645095217135,-1.2692742993536399e-05
-0.18943728009589478,0.7867371594030637,0.4805267654202465,1.5717251686101088,0.0940320478005292,0.7187260521647509,-1.264935918054988e-05
-0.18813093961381888,0.7836192205598698,0.47419364217232385,1.569782919690069,0.09389897131228331,0.718915940256049,-1.2603067729877182e-05
-0.1868363219685003,0.7807099729827618,0.46816195466857113,1.5679788770726706,0.09377239055904418,0.7190800384524074,-1.2471034618322108e-05
-0.18568184173962443,0.7782258514964759,0.4629216070639304,1.5664409383097073,0.09366301432925273,0.7192093805366842,-1.242853280025713e-05
-0.18449759461631388,0.7757503335891522,0.4576239277655958,1.5649080999275071,0.09355268616952728,0.7193295127640686,-1.237922305108441e-05
-0.1830804787404947,0.7728675894685777,0.4513649277990863,1.5631226909856295,0.09342271972749039,0.7194606516662239,-1.2330708368146759e-05
-0.18193320585791373,0.7706551795629535,0.44646314975515633,1.5617574157247098,0.09332133298191359,0.7195497044138808,-1.2293529257689784e-05
-0.18055055147117738,0.7680419177048661,0.4405974925555718,1.5601427503385006,0.09320029546604225,0.7196470903533401,-1.2249854544066352e-05
-0.17909681828684043,0.7653985655164783,0.4345573080510805,1.5585120013516427,0.09307613916263602,0.7197345175365122,-1.2205809476917295e-05
-0.17770660420438933,0.7629724499870036,0.4289081351225814,1.55701796078566,0.09296046562340798,0.7198031596291363,-1.2165366682026502e-05
-0.17613793297940994,0.7603162400135801,0.42262132784049644,1.5553825435303592,0.09283252973410239,0.7198682729469583,-1.2197337065700253e-05
-0.1748769501559977,0.7582812900426896,0.41769961733323324,1.5541332425178078,0.0927321952437774,0.7199054232689592,-1.2086493473617566e-05
-0.17364094301917188,0.7563382404357304,0.4129318078508861,1.5529404364489192,0.09263560050723818,0.7199334923326335,-1.20539977555012e-05
-0.17210081889531725,0.7539701565447912,0.4070387899398469,1.551486010106296,0.09251660155652885,0.719959840472157,-1.2014734991794285e-05
-0.1707717949088572,0.7520119527422962,0.402067388957275,1.5502865427011585,0.09241666946733051,0.7199710402772554,-1.1982105659669173e-05
-0.16875318065917178,0.7488648843965517,0.39405909677417306,1.5483199302080282,0.09225475120134874,0.7199757599800867,-1.1930486471634083e-05
-0.16774122277125425,0.7470842146494308,0.38952246401928825,1.5471648490451049,0.0921614081775628,0.7199544687899371,-1.1901986640694417e-05
-0.16659072852877266,0.745099972848597,0.3843972143295735,1.5458769847057168,0.09205664610686703,0.7199223736110199,-1.1950863923360089e-05
-0.1652059925958973,0.7427746446570724,0.37828617080983395,1.544367840481268,0.0919317835696658,0.7198720171555895,-1.1916934864686368e-05
-0.1642768425040897,0.7412922169402636,0.3742992538266421,1.5434084335390272,0.09185061238271253,0.7198278053820788,-1.1809763314829524e-05
-0.1632740450770056,0.739716021136883,0.37001032439525616,1.5423876052908279,0.09176411242260496,0.7197746046416169,-1.1865268122690509e-05
-0.16232417739026417,0.7382596524996927,0.36598528123081575,1.54144467153505,0.09168280054709221,0.7197168305817279,-1.1843463199490145e-05
-0.1613388450993476,0.7367809022455223,0.3618421687600284,1.5404872012235682,0.09159951851319903,0.7196513389346864,-1.1822965194419055e-05
-0.1603617010567051,0.735349453600203,0.35777213912736094,1.5395608125677853,0.09151802202608117,0.7195805134399995,-1.1800671660289197e-05
-0.15937032923262429,0.7339313199774464,0.35367911217367975,1.5386432279491231,0.09143616836761126,0.7195026985657176,-1.1693355232544889e-05
-0.15770759054746009,0.7315807400757786,0.34680933948048853,1.537121043789032,0.09130007878509083,0.7193660213772768,-1.173605920534726e-05
-0.15663860157995035,0.7301611726335819,0.34253823519097004,1.536206595348916,0.09121583229532959,0.7192680340882927,-1.1732139481246406e-05
-0.15528986223897778,0.7283966906161368,0.3371526065252066,1.5350682326339804,0.09111013582991134,0.719136924285988,-1.1704855961802707e-05
-0.15431891840216583,0.7271741332417774,0.33333866523692723,1.5342806658194883,0.09103546607053392,0.7190352471911083,-1.1597699843157727e-05
-0.15285696373009916,0.7253549618162447,0.3275913885535875,1.5331076981529943,0.09092374167631245,0.7188760467434872,-1.1569940280509172e-05
-0.151257553004581,0.7234346083907042,0.32138698688945766,1.5318716855305645,0.09080418113083777,0.7186923057356296,-1.1630265041695509e-05
-0.14985959280210803,0.7218268645384791,0.3160546566442122,1.5308386759571828,0.09070174023843336,0.7185214239634412,-1.151623534934032e-05
-0.14790499727895146,0.719629984888071,0.308622240726792,1.5294267428778818,0.090560158443731,0.7182715461579656,-1.1482999572542951e-05
-0.1468380908594451,0.7183800612533515,0.30431454122646784,1.5286156462255711,0.09046704688568497,0.718135298913035,-1.1535240719062756e-05
-0.1455897673370128,0.7166804609100437,0.29843337260232694,1.527529542566862,0.09030471215457414,0.7181205324374664,-1.1507186443715511e-05
-0.1445673196524977,0.7154512709390604,0.29395562796226304,1.5268192367976257,0.09016758002256875,0.718304249496331,-1.141074674482212e-05
-0.1433709224416475,0.714032316859357,0.2886934802733556,1.5260005878681522,0.09000629742847277,0.7185116682376984,-1.1384647224943478e-05
-0.1426585367601394,0.7132114637058891,0.28557599225410524,1.5255290382413582,0.08991033293083817,0.7186271979812817,-1.1368389054133843e-05
-0.14152987072532763,0.7119182305455212,0.2806007815178271,1.5247865655389035,0.089756939752065,0.718806042693009,-1.1343337096292316e-05
-0.1403588100133879,0.7106021478385669,0.2754265786432093,1.5240334026358093,0.08959722564342343,0.7189820456910061,-1.1390109202480403e-05
-0.13925446840886924,0.7093902797322871,0.270542652567606,1.5233426494956133,0.08944568099105421,0.7191369267123449,-1.13665743572966e-05
-0.13786927814436467,0.7078960019463283,0.26438172455181075,1.5224938616654127,0.0892539452914276,0.7193200075955888,-1.1360974458973772e-05
-0.13676744776841954,0.7067463328658965,0.2594915216521283,1.521844809632345,0.08910107007041557,0.7194519674856519,-1.1244040935665112e-05
-0.13592834873079251,0.7058938464025646,0.25577524177056254,1.5213664875455555,0.08898475291168229,0.7195444499058681,-1.1227479279618535e-05
-0.13474165673586125,0.7047033692657863,0.2504885497481819,1.5207007145128992,0.08881907919844423,0.7196682383626536,-1.1204728122216068e-05
-0.13329699260948402,0.7032864854794223,0.24402065907654347,1.5199130289616027,0.088616007673326,0.7198055017189926,-1.1177320103250565e-05
-0.13232966157919623,0.7023751725054641,0.23971079640117932,1.5194116843266308,0.08848060778633116,0.7198848837196747,-1.1232316084353045e-05
-0.13108156936882587,0.7012233892285913,0.23412253654038917,1.5187817789338336,0.08830413453088504,0.7199764721233795,-1.1137876184896811e-05
-0.1300508441003636,0.7003038599398295,0.22951509079689014,1.518284012608392,0.08815862765290117,0.720040986017354,-1.1120253232022037e-05
-0.1285680002129892,0.6990074434797471,0.22284139604471953,1.517587557075542,0.08794773616351392,0.7201217626665208,-1.1097398719073226e-05
-0.12700074587304755,0.6976895010751498,0.21577199623605203,1.5168895954171564,0.08772427031885677,0.7201869740088434,-1.1171037679780227e-05
-0.12537053869779058,0.696379468687315,0.2084050478824775,1.5162072909613364,0.08749071038255618,0.7202313058487233,-1.1046601970932102e-05
-0.12397693407703692,0.6953162245622702,0.20212042183515955,1.515665416276172,0.08729176175913178,0.7202490453921389,-1.109917915442793e-05
-0.12303696453139246,0.6946350417349327,0.19790090584462128,1.5153256523007776,0.08715788085473175,0.7202484038930406,-1.1088011692805821e-05
-0.12207588484790932,0.6939598947476373,0.19358291027356955,1.5149941788890704,0.08702078618976739,0.7202393974915529,-1.1102198374857153e-05
-0.1211366633074702,0.6933216719316606,0.18936301145138046,1.5146860124904684,0.08688693472885678,0.7202227844992173,-1.1096635812890554e-05
-0.1202192728502176,0.6927188989653654,0.18524133736614257,1.5144002127314664,0.08675631474556944,0.7201990338682718,-1.1057960612070872e-05
-0.11917256104097174,0.6920532894376228,0.1805299031174048,1.5140909299081091,0.08660700178663117,0.7201630374319876,-1.1020239215397964e-05
-0.11814782665322099,0.6914277212010589,0.1759170632699565,1.5138078392864172,0.08646075177818613,0.7201177650669139,-1.102312422140983e-05
-0.1171662958193016,0.6908530294174549,0.1715010642973933,1.5135546403177367,0.08632114320990869,0.7200659051527145,-1.1023280121591483e-05
-0.11612019507815674,0.6902651403041853,0.1667906267017205,1.5133035395313428,0.08617222772869315,0.7200009922953781,-1.098619549289026e-05
-0.1151174961451753,0.6897274465813377,0.1622774047407587,1.5130824884037883,0.0860295595874696,0.7199289658081485,-1.0992823156641407e-05
-0.11413635020263513,0.6892260377393029,0.15786291660828233,1.512884305197061,0.08589017116197528,0.7198496220489865,-1.0917524511988574e-05
-0.11330660024012928,0.688821179239123,0.15413682773266224,1.5127315051393522,0.08577311848207092,0.7197760413060887,-1.0978442352538309e-05
-0.1123254904137232,0.688362545782371,0.14972393558197528,1.5125662631079937,0.08563423804303216,0.7196806729561853,-1.1005944685393843e-05
-0.11143070545161393,0.6879666273456042,0.14570447396252106,1.512431955786349,0.08550782362511455,0.7195858030604834,-1.0893754039287273e-05
-0.11053568118618617,0.6875886977303276,0.14168606427086683,1.5123119385059782,0.08538217751539001,0.7194846201576013,-1.0955947284507772e-05
-0.10964072124943502,0.6872312552527626,0.1376685267902822,1.5122074991039485,0.085256386657929,0.7193754189022057,-1.0985226523985148e-05
-0.10868038280860404,0.6868689406981234,0.13335744847386177,1.5121112678003978,0.08512157780559715,0.7192505497706119,-1.0872785799698192e-05
-0.10778466484444138,0.6865508154796434,0.12934203579904846,1.5120370932602638,0.08499679141921224,0.7191273637437652,-1.0937277329148287e-05
-0.1069974758250245,0.6862895239909328,0.12581782274467557,1.5119857382862332,0.08488713751022559,0.7190121660148447,-1.0968556130031004e-05
-0.1059927395564122,0.6859750786375827,0.12131422337220155,1.5119346242883216,0.08474727021384876,0.7188580577733159,-1.0876700352824287e-05
-0.10509603787736577,0.6857160504354898,0.11730230425486443,1.5119057667184936,0.08462317863667668,0.7187129849083904,-1.0867202424158506e-05
-0.10415530475522594,0.6854638742955492,0.11309590059041508,1.5118908085437255,0.08449370649782928,0.7185539731023436,-1.0920696329463908e-05
-0.10254336534590003,0.6850685762705941,0.10585295237002335,1.5118947748166942,0.08427074770198395,0.7182653544414119,-1.0850345761426183e-05
-0.10118846295083106,0.6847890718528804,0.09979112278136704,1.5119386155693553,0.08408557294047725,0.7180051539883783,-1.0954372769766962e-05
-0.09957214030445893,0.6845098396953135,0.09255792765805815,1.512032540629848,0.08386522654288964,0.7176746962193503,-1.0839983079158344e-05
-0.09849631930974478,0.6843653719810474,0.08777565945807453,1.512126548258708,0.08372074271430385,0.7174416039918627,-1.094872807971825e-05
-0.09759415108701397,0.6842679854606306,0.08377706322883505,1.5122230986771257,0.0836002604782724,0.7172381528305953,-1.0947394385674158e-05
-0.09623234137316317,0.6841497496851492,0.07773002805928009,1.5123919859289305,0.08341880658739065,0.7169200190230711,-1.0946086381302678e-05
-0.09480274669014843,0.6840716485476328,0.0713947560296786,1.5126048014462823,0.08322984348384743,0.7165702103673972,-1.0945709567167228e-05
-0.09326112448980783,0.6840391564376862,0.06457707680753089,1.5128742732453198,0.08302784365351812,0.7161752539423318,-1.0946296525204957e-05
-0.09186933560100385,0.684059594134462,0.058447971333830395,1.5131553784993876,0.08284758515896762,0.7158024449284088,-1.0947621598589308e-05
-0.09054037370028922,0.6841212977784057,0.052616207918267044,1.5134557781287619,0.08267737299329792,0.7154329295123416,-1.0897492395578467e-05
-0.08938526527972268,0.6842097053557294,0.04756737822234047,1.5137434410859303,0.0825308774529745,0.7151003023047942,-1.0951718490304074e-05
-0.08756570851331791,0.6843969045921021,0.03960693907651347,1.5142345679203641,0.08230160768366801,0.7145594023077635,-1.0956784902482752e-05
-0.08651549689977056,0.6845463689132041,0.03505328321063672,1.5145483542129377,0.0821717812563989,0.7142352279971576,-1.0960386841674108e-05
-0.08521827928176506,0.6847608714854836,0.02943687562234132,1.5149590016935806,0.08201269587338089,0.7138249778112558,-1.0965266211471203e-05
-0.08393996939714743,0.6850084129616141,0.023922506731056004,1.515390563760901,0.08185755832452202,0.7134094469408341,-1.0856892198596313e-05
-0.08285962184312456,0.6852449825608966,0.019284195510542723,1.5157760880189048,0.08172861031834877,0.7130506018389848,-1.0923023865849757e-05
-0.0818668642301601,0.6854854158198238,0.015036158924141674,1.5161474960044927,0.08161098976645409,0.7127134604787626,-1.0980836755436485e-05
-0.08109733462211377,0.6856876816970816,0.011756432574768105,1.5164465749390459,0.08152065890585103,0.7124476991202346,-1.0870436157439656e-05
-0.08010054128024091,0.6859639631699768,0.007514233488135957,1.5168456932150836,0.08140493204319998,0.7120991816986075,-1.0990851517789224e-05
-0.07923728480494763,0.686221497620263,0.003853470058962749,1.5172041117886454,0.08130539540610382,0.711791982317469,-1.0880744016894539e-05
-0.07844025587203607,0.686471245121564,0.000484340395394689,1.5175443344645885,0.08121485522081606,0.7115053997508385,-1.094779481558561e-05
-0.07750532676732824,0.6867799308716949,-0.003460192607546375,1.5179549390995062,0.08110913685406196,0.711164198677511,-1.0954101242965919e-05
-0.076727938983713,0.687050551716462,-0.006728436201293597,1.5183066192082961,0.08102206407577572,0.7108764527981686,-1.1012604079319033e-05
-0.076727938983713,0.687050551716462,-0.006728436201293597,1.5183066192082961,0.08102206407577572,0.7108764527981686,-1.1012604079319033e-05
-0.0746653067013634,0.68781870534949,-0.015372733729875243,1.5192762967269928,0.08079410030856504,0.7100989399946496,-1.0912037297750032e-05
-0.07443449213741538,0.6879101691697089,-0.016331360086937252,1.5193888137359268,0.0807694573997173,0.7100110135771525,-1.0976516580107898e-05
-0.07353588531374644,0.6882753224508606,-0.020071020127322647,1.5198331416271262,0.08067205812228373,0.7096639243475735,-1.0920955311632952e-05
-0.07284250664663006,0.6885674168269356,-0.02294511578378078,1.5201834293708663,0.080597985292445,0.7093937864330293,-1.092638151423131e-05
-0.0719859233476079,0.6889381973538038,-0.02648792882699702,1.520623588626151,0.08050751920108468,0.7090577107403613,-1.099667057591347e-05
-0.07098856625550276,0.6893863836681096,-0.030602496082024366,1.5211479126990888,0.0804027794993809,0.7086613629092016,-1.1059007754887773e-05
-0.06996499779919318,0.6898638469775618,-0.034809152139453126,1.521698278700799,0.08029673437454132,0.7082504264929179,-1.1067921882990106e-05
-0.06886846041654238,0.6903945620998115,-0.039298686721985554,1.5223014510825141,0.08018454719729284,0.7078053498033325,-1.1034881147509168e-05
-0.06781491620554725,0.6909234585939865,-0.04359286927652306,1.5228940565279814,0.08007849102900444,0.707373481202433,-1.1031965274632682e-05
-0.0667815732651098,0.691460960373262,-0.04778761264247944,1.5234882759566997,0.07997549896427714,0.7069448679479944,-1.0993337284048721e-05
-0.06574466892950692,0.6920157663559134,-0.05197824825257413,1.5240954577987038,0.07987417155442245,0.70651194535853,-1.1045373653928436e-05
-0.06416199803537559,0.6928915191226928,-0.05835452661383389,1.525042198879179,0.07972080804759152,0.7058431288584064,-1.1025623582128219e-05
-0.06311626186745833,0.6934933537934533,-0.06253495328448633,1.5256831950305552,0.07962231190127245,0.7053972071681942,-1.1078643431972068e-05
-0.06206704489966253,0.6941143335085291,-0.06671128488941402,1.526337821696809,0.07952458824421704,0.7049456144319111,-1.1168680495998728e-05
-0.06108581633536048,0.6947107006967927,-0.07059913648280247,1.5269598368493131,0.07943444231877717,0.7045201152560754,-1.1060016849029353e-05
-0.0600291547786016,0.6953659124577536,-0.07476743494047522,1.5276385642306032,0.0793393200671133,0.7040600022019685,-1.1113768404236168e-05
-0.05894468931017727,0.6960551343447685,-0.07902618942252015,1.5283460685495385,0.07924285832892952,0.7035839768507044,-1.1205763215116349e-05
-0.05800112781093425,0.6966692970325878,-0.08271336933500884,1.528970398699184,0.07916016543069837,0.7031671493325007,-1.1096867562621071e-05
-0.05698144663477933,0.6973439556491252,-0.08668040398430499,1.5296523486124638,0.07907265620368609,0.7027154781757918,-1.1150766611400798e-05
-0.055933820159258296,0.6980517469032561,-0.0907379022267163,1.5303621999118961,0.07898380569904795,0.7022483336176002,-1.12437867798576e-05
-0.05490661907574079,0.6987599781531273,-0.09469718145270534,1.5310664887364984,0.07889799058032487,0.701787978460489,-1.1136127890054581e-05
-0.053949104171443274,0.6994313572328297,-0.09836983978664993,1.5317299501043866,0.0788195408552097,0.7013574309438422,-1.1148496372292982e-05
-0.05298811985584617,0.7001152658187522,-0.10203893539719466,1.5324020320217064,0.07874227546782198,0.7009241628749789,-1.1282559256642344e-05
-0.05187538473317943,0.7009213222861765,-0.10626879597131822,1.5331880299876914,0.0786537516304735,0.700419984291873,-1.1176280491298485e-05
-0.04976407047163267,0.7024743088561305,-0.11424916640853677,1.5346930950225683,0.078489701792539,0.6994616530183579,-1.1246226629069156e-05
-0.04858740671258843,0.7033682051552139,-0.11865276100819955,1.5355477680237177,0.07840109253071681,0.6989235568959407,-1.1222152536127794e-05
-0.04632233108897754,0.7051122481407708,-0.12707407909870305,1.5372048449037488,0.07823495714636763,0.6978876159277698,-1.1375790156087362e-05
-0.04406172714986578,0.7069031180103522,-0.13538254129699734,1.538884017606156,0.078075656231273,0.6968499012470684,-1.1409454935495944e-05
-0.04221651405535365,0.7084041234587106,-0.14208901888593406,1.540273688184473,0.077950763119631,0.6960003782814654,-1.1315993822869075e-05
-0.04051226940516983,0.7098164991130611,-0.14822513902949197,1.5415691054062224,0.07783963020680584,0.6952154723915811,-1.1341825395305705e-05
-0.03942075728101724,0.7107368768142646,-0.152123782540742,1.5424060116338456,0.07777075035370729,0.6947122926798004,-1.1358573797082272e-05
-0.037827271476049695,0.7120923911536945,-0.1577791613265953,1.5436316214472559,0.07767242859815315,0.6939787736236589,-1.1383346186555343e-05
-0.03638092999235898,0.7133388100493567,-0.1628702016768484,1.544750010489527,0.07758631979627673,0.693314193744551,-1.1446130136150146e-05
-0.03497884504043203,0.7145619175078561,-0.16776912085662232,1.5458394092068621,0.07750501732595083,0.6926703247771151,-1.1468783652546222e-05
-0.033915026575592755,0.7155012739897559,-0.1714617213263976,1.5466701981633086,0.07744478755571826,0.6921817375109827,-1.1445355501571441e-05
-0.03180050572718418,0.717375208660485,-0.17874396543707327,1.5483189296116011,0.07732856777682429,0.6912162889629325,-1.1479662458846462e-05
-0.02969347558287705,0.7192679279654692,-0.18591862548246674,1.5499673868438766,0.07721798126328316,0.6902584655543711,-1.1514173645643666e-05
-0.028168223789039715,0.7206563384989932,-0.19105989883780605,1.551165259182043,0.0771418316537309,0.68956805875332,-1.1583089619904285e-05
-0.02635776755300334,0.7223172505024218,-0.19710940165734225,1.5525874410866098,0.07705424380603176,0.6887521410227304,-1.1612096700197583e-05
-0.025281180871430387,0.7233169957717642,-0.2006789712339092,1.553436377891808,0.07700393024852925,0.6882678318650388,-1.1588796920314337e-05
-0.02397662750840457,0.7245312677075857,-0.20497558211685352,1.554462808799851,0.07694519674556677,0.6876849130151879,-1.1654254726600755e-05
-0.022860694112032398,0.7255773233518381,-0.20862797610746409,1.5553417483347438,0.07689614668000377,0.6871874794259591,-1.1754314413359168e-05
-0.021907761095929068,0.7264757225892797,-0.21172955313238084,1.5560922653921487,0.076855233624471,0.6867640615079331,-1.1645492844714056e-05
-0.02080951139956877,0.7275123387457043,-0.21528347911110846,1.5569551093726366,0.07680974617280256,0.6862792093786538,-1.1707297254304194e-05
-0.019819628395326916,0.7284516252859161,-0.21846973696491379,1.5577329537475695,0.07676949531568233,0.6858431867613071,-1.180589917026964e-05
-0.018796836937885253,0.7294257760241063,-0.221744014133753,1.5585354034840568,0.07672882346884169,0.6853945266705406,-1.1697960438539212e-05
-0.017597435855684296,0.7305689963444033,-0.2255596617976119,1.5594732884169478,0.07668294182478697,0.68487220684408,-1.1763226066996424e-05
-0.01630539286289867,0.7318052200725056,-0.22964303679233034,1.5604814936440636,0.07663474013327054,0.6843122414463503,-1.1785303677847025e-05
-0.015150692739245741,0.7329143453260691,-0.23326851912863678,1.5613807442904886,0.076593105532484,0.6838145939711335,-1.1805519556595812e-05
-0.013640657091451125,0.7343674262460498,-0.2379755729995141,1.5625519206936564,0.07654008474907847,0.6831680304214478,-1.1786948197922698e-05
-0.011620332150577006,0.7363110362436665,-0.2442103736281771,1.5641072513471093,0.07647283795405357,0.682313297224435,-1.1867526629849579e-05
-0.0097302379170765,0.738137852250234,-0.24998286326386854,1.5655552471797725,0.07641313443766684,0.6815214049664062,-1.190089211089429e-05
-0.008003604019383381,0.739812584625029,-0.2552054673219164,1.566871113493887,0.07636149532280179,0.6808052065380821,-1.1931485346394766e-05
-0.006474598013954669,0.7413002816565442,-0.25979096989651573,1.5680308665970895,0.0763179530047502,0.6801765772910997,-1.2039723737977681e-05
-0.0048440284697157665,0.7428889388328486,-0.2646392070100987,1.5692596422695315,0.07627356069803781,0.6795127839950466,-1.1941410704707778e-05
-0.0033847654253627013,0.7443129433044859,-0.2689427412046239,1.5703530158323584,0.07623598560722566,0.6789246161265154,-1.1966685088182771e-05
-0.0020079736523062053,0.745657148347588,-0.2729721298458978,1.5713781852961475,0.07620247122120727,0.67837531213193,-1.2037741196735396e-05
-0.0005919771122542272,0.747041044191743,-0.27708594787270524,1.5724262963215478,0.07616925494682736,0.6778150862035064,-1.2062939189760868e-05
0.0008639446981293375,0.7484642662661214,-0.2812837445352532,1.573496814844681,0.07613662233571983,0.6772445285245805,-1.2169873360612371e-05
0.002674314805463318,0.7502305215297111,-0.2864560319499949,1.5748150047028346,0.07609823356028045,0.6765441319024799,-1.2201940240430531e-05
0.00427790716366605,0.7517970973706252,-0.2909976484268819,1.5759736638505917,0.07606617085265022,0.6759306929565287,-1.2101790764162956e-05
0.005733903038806609,0.7532191774323076,-0.29508864392133205,1.5770175418421752,0.07603892889645003,0.675380094853681,-1.2127487330815256e-05
0.00739140357880963,0.7548351518108332,-0.29970674456380486,1.5781946494803272,0.07600965117959291,0.6747609680347182,-1.2156689462194947e-05
0.009319470769526106,0.7567101222450079,-0.30502666573679793,1.5795482689402158,0.07597783586455265,0.6740512127197835,-1.2190657229460555e-05
0.011296539753300472,0.7586292487867858,-0.31042620639679797,1.5809198662857753,0.07594777674672848,0.6733346979519528,-1.2225493713380331e-05
0.012830828869638822,0.7601194757001499,-0.3145810632692907,1.581974755294981,0.07592638932229256,0.6727858633068609,-1.2252436555115764e-05
0.015302913605558466,0.7625036184732146,-0.32119782102752215,1.5836459071180142,0.07589443538055995,0.6719183466436309,-1.2295804686424106e-05
0.016964245590302518,0.7641083832675966,-0.32560290651344737,1.5847575831770992,0.07587540854973707,0.6713441849641972,-1.2324944425934348e-05
0.019244392101086305,0.7662977889256553,-0.33158280760257863,1.5862587808406747,0.07585158511073686,0.6705708308269589,-1.236485658484554e-05
0.020798256696086703,0.7677902250489606,-0.3356229486005269,1.5872710637841347,0.07583752880381311,0.6700519210305345,-1.2521892801764523e-05
0.02280735603588635,0.7697114270512229,-0.340796875490029,1.5885610129033658,0.07582065344488331,0.6693917577402555,-1.2426915398933147e-05
0.02594417869042509,0.7726790461730504,-0.34875693460267243,1.5905265524462715,0.07579807620097068,0.6683888461677805,-1.2481296777444584e-05
0.029122987880099593,0.7756666475122165,-0.3566974545264925,1.5924695447906414,0.07578056198718919,0.6674029464890916,-1.258528245529078e-05
0.031239086659445192,0.7776559259209144,-0.3619251859059842,1.5937422918967163,0.07577189420085251,0.6667607614304272,-1.2621589636552244e-05
0.033051667139713636,0.7793551738244702,-0.3663629987415602,1.5948165394060867,0.07576622865941118,0.6662207038213248,-1.2652758232256645e-05
0.034841791646753606,0.7810267166208371,-0.3707081881805161,1.595861720009073,0.07576207637791121,0.6656967936607989,-1.2683371179100789e-05
0.03693546274840731,0.7829701034484593,-0.37574087197166683,1.5970626743483658,0.07575872955787855,0.6650962621443579,-1.2800418103253719e-05
0.0390472794295853,0.7849198264540842,-0.38076612778092045,1.598251474370377,0.07575740005791154,0.6645039992305097,-1.2754826580696488e-05
0.04088131231261727,0.786607587782405,-0.3850929035019526,1.5992678489835415,0.07575758402341215,0.6639991770224327,-1.285581068621866e-05
0.04369889848128583,0.7891721126629276,-0.3916559846478389,1.6007892269149853,0.07576012086145578,0.6632454613567758,-1.2820356378284714e-05
0.04601910294360856,0.7912752739848816,-0.3970022369626598,1.6020158370231066,0.07576451645482152,0.6626405217095233,-1.2858436137186402e-05
0.04885590478128865,0.7938228983906974,-0.4034568242922889,1.6034763633668678,0.07577206355295196,0.661922393699947,-1.29865573041954e-05
0.05106949078780065,0.7958029615035889,-0.40844197205059807,1.6045916069833144,0.07578023641517895,0.6613768613750981,-1.2940592499788295e-05
0.05322431198720956,0.7977196560367972,-0.4132487664553084,1.6056549071964046,0.07578959475145997,0.6608583943247082,-1.2975387437386132e-05
0.055827238191692885,0.8000146155923487,-0.418989972709932,1.6069066795788318,0.07580257412708313,0.6602498454866206,-1.301716336854497e-05
0.05821856507360046,0.8021103849261539,-0.4242097827441702,1.6080292407141874,0.07581629624163888,0.6597063573524373,-1.3055286379959341e-05
0.06095028838774841,0.8044841505439324,-0.4301042651182341,1.60927672071381,0.07583343502252848,0.6591041188617179,-1.3050007463100144e-05
0.0629050940693352,0.8061761290682936,-0.4342861819185959,1.6101504182281312,0.07584763581705989,0.6586849080129449,-1.3129374835330054e-05
0.06613187711584523,0.8089330349328012,-0.44109925730596,1.6115455131030538,0.07587203530582798,0.6580164515185496,-1.3180085617570114e-05
0.0678781593861082,0.8104248482255576,-0.44475926905215424,1.61228605435024,0.07588662278383396,0.6576637500155025,-1.3207337904219685e-05
0.0698820469486714,0.8121253388037646,-0.4489251941312,1.6131175524715236,0.07590412630407961,0.6572687628347031,-1.323847691736546e-05
0.07273098432789649,0.8145166432409559,-0.45478125632757394,1.6142637619165159,0.07593004931394987,0.6567256221660038,-1.3365581519764191e-05
0.0751042566650062,0.8164986934972092,-0.4596137937116467,1.6151933130447231,0.07595293701251116,0.6562871927938883,-1.3270978909574183e-05
0.0769062158155922,0.8179970680639768,-0.4632565715825514,1.615883985134932,0.07597161355742887,0.6559633380512464,-1.3346854613516257e-05
0.07888856994529103,0.8196363243071225,-0.4672342078075564,1.6166274870570918,0.07599236179420465,0.6556152323726616,-1.346021916148743e-05
0.08037262532546396,0.8208598768024036,-0.4701946672334758,1.6171740050443013,0.07600862157800758,0.655360509828097,-1.339912415510014e-05
0.08233521507009467,0.8224669069504857,-0.47408131859631375,1.617881067351906,0.07603033369573797,0.6550314382300408,-1.351266096705217e-05
0.08526372626954526,0.8248373907803304,-0.4798172677365251,1.6189003623060119,0.07606371608960583,0.6545586459167829,-1.355688086945861e-05
0.08778216639986258,0.8268649497653682,-0.4847049425751493,1.6197507481853473,0.07609338481792793,0.65416615180464,-1.3463588725670661e-05
0.08961690835337421,0.828337189905004,-0.4882422013723664,1.620356151749549,0.07611584698593621,0.6538882932538623,-1.349124823857295e-05
0.09172777828775214,0.8300187259498628,-0.4922806833605957,1.6210344648875656,0.07614249311489463,0.6535783850435308,-1.3569019410297756e-05
0.09394154698984014,0.8317719802514141,-0.4964835189370671,1.6217269810763506,0.07617071721830637,0.6532629291244776,-1.3601437039767461e-05
0.09630514235810228,0.8336310934559288,-0.5009340406634948,1.6224447233446284,0.07620147675936728,0.6529374311434077,-1.3636118886495296e-05
0.0987762742265561,0.8355613849651782,-0.5055478562446751,1.6231718590063204,0.0762342981989379,0.6526092941801549,-1.3672162595845805e-05
0.10149367421557987,0.8376675679099339,-0.5105754559495441,1.6239441928849718,0.07627098619545958,0.6522624815990934,-1.3796880565131175e-05
0.10395726349528722,0.8395670239631778,-0.5150967407013587,1.6246219643939632,0.07630484683374306,0.6519599008779222,-1.3704992208651845e-05
0.10629986916749612,0.8413625239167937,-0.51936337923902,1.6252464238634516,0.07633778637407485,0.6516829594955205,-1.373638023594026e-05
0.10823989999101347,0.842844172675199,-0.5228752581607754,1.625750066084505,0.07636549873290033,0.6514608962401054,-1.3764497140300591e-05
0.11028400695598695,0.8443970120276738,-0.5265517149854944,1.6262662033669093,0.0763950195915859,0.6512344466572824,-1.3793952812868326e-05
0.1131872111467862,0.8465813729988234,-0.5317256544197413,1.6269710202118013,0.07643731268703036,0.6509268848462426,-1.3835547232332601e-05
0.1159711304827935,0.848662348255929,-0.5366451137841004,1.627620563449499,0.07647876935484099,0.6506460999632129,-1.3918079361907587e-05
0.11848870659446487,0.8505359398413326,-0.5410615061071189,1.6281875690397722,0.07651648426844648,0.6504026854357905,-1.3953754492312953e-05
0.12145661928216445,0.852727269022652,-0.5462225990962093,1.6288282546153603,0.07656135174226897,0.6501298308633858,-1.3995312784231828e-05
0.1241558762976247,0.8547107191094279,-0.5508812740200897,1.629388433341191,0.07660253690090091,0.6498934642043928,-1.4120136587081333e-05
0.12653206741319156,0.8564506059358132,-0.5549557330128962,1.6298643237701498,0.07663904045054881,0.6496944084978189,-1.4024098102360938e-05
0.12882431906918157,0.8581211225369323,-0.5588616852730155,1.6303075800811389,0.0766747094468565,0.6495108624440453,-1.4056488375047138e-05
0.13122832279965557,0.8598634666377878,-0.5629312538064433,1.630755298691832,0.07671264247277154,0.6493275330300765,-1.4130809924850496e-05
0.13344755113507123,0.8614672075934537,-0.5666670684374324,1.6311551468383545,0.07674751116926704,0.6491649767135028,-1.424937000482629e-05
0.13597781067417447,0.8632854772788452,-0.57089817730985,1.6315931515094668,0.07678755018485717,0.6489888610486716,-1.4284458128344113e-05
0.13812173859161803,0.8648230571305158,-0.5744646604453765,1.6319518847543932,0.07682148145974299,0.6488460341228519,-1.4185582620562798e-05
0.14083087889739865,0.8667520739562606,-0.5789399088473157,1.6323853090053415,0.0768650217354887,0.6486761480081613,-1.4262668051934213e-05
0.14304908637701352,0.8683292215843323,-0.5825856992905187,1.6327276554072832,0.07690062427250854,0.6485435328751246,-1.4292773282242877e-05
0.14517616680548073,0.869837348456354,-0.5860645929438144,1.6330446742956735,0.07693478357808115,0.6484221622172264,-1.4410472537029761e-05
0.14767119636270198,0.8715978172731509,-0.5901210708646758,1.6334010485699109,0.07697503862396093,0.6482877721824982,-1.444460091537536e-05
0.15048821804439605,0.8735767071399083,-0.5946718317821826,1.6337846921089785,0.07702037643721305,0.6481453751582391,-1.4355736404070285e-05
0.153269778714197,0.8755234107785013,-0.5991380558693988,1.6341452593281716,0.07706546312509754,0.6480145240648882,-1.43937624397239e-05
0.155598677614754,0.8771503598254311,-0.6028593615667628,1.634434323645662,0.07710362281218774,0.6479121875933922,-1.4462216237909331e-05
0.1583038493754545,0.8790334513188043,-0.607157624627698,1.6347545404267771,0.07714762723742741,0.6478008690284351,-1.4498747995084216e-05
0.160760295243362,0.8807406229142725,-0.6110419485415406,1.6350323237894626,0.07718765303184583,0.6477066990958793,-1.4531779244819631e-05
0.16365030489426768,0.8827411450849594,-0.6155853907140552,1.635341898196903,0.07723473689350602,0.6476047033588168,-1.4570500799671038e-05
0.1664492201021499,0.884674889225125,-0.6199627382917656,1.635625937790742,0.07728036641161129,0.6475142555827329,-1.4607947721678727e-05
0.16995610253490057,0.8870864860956127,-0.6254108903212909,1.6359582060051157,0.07733746555665366,0.6474129112960547,-1.4654775636557815e-05
0.1730536610563842,0.8892158878551903,-0.6301985488875639,1.6362339233848964,0.07738783100690938,0.6473329228707216,-1.4786905890851187e-05
0.17541262199623553,0.8908394515205922,-0.6338312513905544,1.6364334341139886,0.07742636502811973,0.6472780088212957,-1.472758658760398e-05
0.17690749942355222,0.8920724828265607,-0.6363729254141717,1.6367510934921148,0.07746859888148006,0.6474052434046467,-1.47495449249746e-05
0.17713286020588637,0.8926338814706254,-0.6372065832847404,1.637168065036339,0.07750953539449057,0.6477495150844481,-1.4756313513331065e-05
0.17705347335497645,0.8929797759738776,-0.6375635283870027,1.637565528180727,0.07754663640512138,0.6481314260114655,-1.485031910775092e-05
0.17697876140092816,0.8932835127966499,-0.6378703362625782,1.6379278494464442,0.0775812586053597,0.6485078544256941,-1.4852006324339584e-05
0.17693180096608696,0.8934594237424385,-0.6380441320547376,1.6381442913909314,0.07760202547181372,0.6487440831924944,-1.4852920350527654e-05
0.17688157370492075,0.8936598921761663,-0.6382427701370696,1.6383947236221204,0.07762663846440887,0.6490327369505451,-1.4762535774259788e-05
0.17682850968152763,0.8938745612402776,-0.638453753397342,1.638670539198813,0.07765408279918873,0.6493698364873506,-1.4854657723439857e-05
0.17679531030228368,0.8939960106156954,-0.6385698665414612,1.6388319023018632,0.07767021077440805,0.6495751862698977,-1.4854955657561675e-05
0.17675788909849466,0.8941397223389096,-0.6387072594735939,1.6390262905122608,0.0776899576711223,0.6498336909599445,-1.4855249137468718e-05
0.17671259062420486,0.8943223966075493,-0.6388809438562175,1.6392807190941516,0.07771651274997016,0.6501931300589092,-1.4763976078135954e-05
0.17666711352431008,0.8944950754275771,-0.6390403090555381,1.6395333075361327,0.07774319325349932,0.6505722910274478,-1.4763862719924248e-05
0.17662004321406588,0.894670157653314,-0.6391974902927409,1.6398032478974924,0.07777215376887359,0.6510051724003088,-1.485485523655683e-05
0.17657633579295506,0.8948221755611527,-0.6393280519132656,1.640052788617786,0.07779946866884391,0.6514327058107003,-1.47626533673062e-05
0.17653745177808133,0.894950498317967,-0.6394334300471352,1.6402769173728737,0.07782411672059997,0.6518391697646129,-1.476169741909672e-05
0.17649801290377454,0.8950805737078422,-0.6395358271984399,1.6405196775724686,0.07785119743134139,0.6523078907219668,-1.4760336674690677e-05
0.17646266516622067,0.8951851343111592,-0.639611408574372,1.6407317827315993,0.07787490149927123,0.6527406920230394,-1.4758851015095331e-05
0.1764286379989466,0.8952823890301769,-0.6396765469444103,1.6409453776254939,0.07789877088453778,0.6532003546505205,-1.4848571053605042e-05
0.17639907423377732,0.895358897749909,-0.6397218885292268,1.641128928092078,0.07791925234670849,0.6536144262144488,-1.4846804457846474e-05
0.17637370196184232,0.8954203401156713,-0.6397540462567273,1.6412883671514988,0.07793689327281417,0.6539881800266558,-1.484511350380302e-05
0.17634675105965236,0.8954843561618295,-0.6397828386806141,1.6414671893607915,0.07795638000668159,0.6544239428476564,-1.471824556720236e-05
0.17632218934442978,0.895535471526677,-0.6398002648506838,1.6416264279790393,0.07797364719888566,0.6548262203097988,-1.4716193553532264e-05
0.17629923126638225,0.8955795079339364,-0.6398107526739345,1.641776302412052,0.07798960521698817,0.6552161032301189,-1.4714131178372725e-05
0.17627872198047978,0.8956154828625253,-0.6398154096627433,1.6419093368076707,0.07800344445778151,0.6555703736518073,-1.4712199364552703e-05
0.17625605787932574,0.8956529083715452,-0.6398162580717797,1.6420594406957605,0.07801873678833449,0.6559793960614524,-1.4709912568022787e-05
0.17622811406301153,0.89569494001951,-0.6398110764030314,1.6422451348127778,0.07803711119199708,0.6564970505913328,-1.4706945016484951e-05
0.17620163306689562,0.8957287534550495,-0.6398005836896115,1.6424123526422774,0.07805314904491034,0.6569715164560037,-1.4737470657166796e-05
0.17617321259138397,0.8957630382711805,-0.6397868490992744,1.642587291545408,0.0780685904535039,0.6574695512508546,-1.482613857639592e-05
0.1761565884613603,0.8957820876472198,-0.6397781049546634,1.642686824289652,0.07807685371890916,0.6577536259214769,-1.4824453141493166e-05
0.17613200683618135,0.8958101466739556,-0.6397648418877973,1.6428346632059556,0.07808864815734484,0.6581763134003671,-1.482196757685017e-05
0.17611097693462074,0.8958347077188744,-0.6397528297836867,1.6429634249788787,0.07809809748496743,0.658545555008387,-1.4694882944255028e-05
0.17608769944888447,0.8958609801754598,-0.6397374323783351,1.6431120590542303,0.07810871717079948,0.658977860391964,-1.4692298848650864e-05
0.17607050308842265,0.8958788612947117,-0.6397238110020567,1.6432247444404258,0.07811658801237265,0.6593113417821144,-1.4723565688434803e-05
0.17605192490172072,0.8958979086530379,-0.6397063636429472,1.6433518838432093,0.07812461357572609,0.6596919081376535,-1.4812951530274177e-05
0.17603528190351625,0.8959133823558849,-0.6396867117019234,1.6434715927211894,0.07813183620224962,0.6600586495036902,-1.4810687045674342e-05
0.17601986266417935,0.8959263734548237,-0.6396638186038661,1.6435890561605628,0.07813830826009305,0.6604267684769596,-1.4683397053794067e-05
0.17600583952873716,0.8959343016304677,-0.6396361582692744,1.6437054645420766,0.07814487553353278,0.6608055920004343,-1.4714220647249476e-05
0.17599347718907943,0.895939248857629,-0.6396060082933008,1.6438124523747648,0.07814991746076227,0.6611617229987603,-1.467876202276841e-05
0.17598360901044785,0.8959395238963506,-0.6395752311889451,1.6439047056992901,0.0781542178835446,0.6614804723845369,-1.4676467501750778e-05
0.17597936366003886,0.8959380161386497,-0.6395607588334062,1.6439431061864473,0.07815617536833575,0.6616168814593637,-1.4708776441274551e-05
0.17597039352694388,0.8959300235919159,-0.6395078787991855,1.6440693165564646,0.07816128488846186,0.6620832072996228,-1.4672252304670508e-05
0.17596305839340864,0.8959152506771506,-0.6394535397089793,1.644171003850488,0.07816513734868202,0.6624809572911312,-1.466935255223234e-05
0.1759598103967308,0.8958813154041243,-0.6393652658952877,1.6443033463021672,0.0781699134799787,0.6630475126725255,-1.4790120837382403e-05
0.17596211521847938,0.8958197111960828,-0.639235623643196,1.6444443713027965,0.07817398119352958,0.6637307739083687,-1.4692764459312002e-05
0.17596548687337066,0.8957452096323877,-0.6390960220238737,1.6445549669682862,0.0781759449284598,0.6643396513278157,-1.4687546079805713e-05
0.17597358757776416,0.8956621693898965,-0.6389526221518782,1.6446428862638536,0.07817649364767121,0.6648967680748044,-1.4682554668965508e-05
0.17598955069544875,0.8955544124612285,-0.6387781367350849,1.6447229455312096,0.07817558318328555,0.6655051888989751,-1.4643685107174065e-05
0.17600956640909526,0.8954282254458414,-0.6385841446889122,1.6447855328693146,0.07817371961937081,0.6661060895752327,-1.4637780075155149e-05
0.17604052228519773,0.8952639358862893,-0.6383430376633674,1.6448351423178869,0.07817028877760812,0.6667804374758219,-1.4630809963556146e-05
0.17606241533889921,0.8951265394808194,-0.6381434909336736,1.644861233054555,0.07816664753572944,0.6672821671867357,-1.462538623897558e-05
0.17609591860747553,0.894956753753708,-0.6379060638908607,1.6448756353342793,0.07816198275862352,0.6678471442196248,-1.4652141062221347e-05
0.17613026436193113,0.8947812757384535,-0.6376633625274248,1.644877197521506,0.07815628795952456,0.6683822072062284,-1.4737980859713673e-05
0.17616316953819222,0.8946142029163529,-0.6374341271766921,1.644868822013203,0.07815036079829252,0.6688575380652422,-1.4607138538735853e-05
0.17618858532030224,0.8944813016217417,-0.6372543184843753,1.6448567301542258,0.07814590500440488,0.6692135598843274,-1.4635748540214877e-05
0.17621776656778643,0.8943380398793845,-0.6370619191712814,1.6448386219627622,0.07814061962820418,0.6695821898493275,-1.4631105982765291e-05
0.17624543190260322,0.8942031761487153,-0.636881953695581,1.6448175791038775,0.07813552004065283,0.6699150047871347,-1.4626826049024544e-05
0.17630376153479865,0.8939558418596629,-0.63655945361847,1.6447663245472954,0.07812616545562978,0.6704908826572114,-1.471160749044742e-05
0.1763608965979664,0.8936964085633567,-0.6362205212103431,1.644703121589222,0.07811607291998879,0.6710557392020133,-1.457865363985178e-05
0.1764052292131293,0.8934833133721654,-0.6359435411982988,1.6446460247647288,0.07810807819627019,0.6714955945904606,-1.4605298562564428e-05
0.17645344134370866,0.8932600288789079,-0.6356547976278364,1.6445808530565138,0.07809914670641138,0.6719397870579478,-1.4691364365049253e-05
0.1765111562241275,0.8930030289895932,-0.6353244188600318,1.6444990430758253,0.07808867011476917,0.672431348492041,-1.4558947546206014e-05
0.1765499209889736,0.89281916376616,-0.6350886176407133,1.6444383070166655,0.07808152941250768,0.672769936847283,-1.458660061448569e-05
0.17660651902654667,0.8925684789712323,-0.6347693634287781,1.6443501363671267,0.07807135848792157,0.6732185592368669,-1.4579748524035097e-05
0.1766672363185826,0.8923000299806798,-0.6344278012934925,1.6442511235788784,0.07806010062712065,0.6736828796831116,-1.45396956456878e-05
0.17674364296247802,0.8919703153706742,-0.6340118975716642,1.6441227416257407,0.07804670621506382,0.6742308972651161,-1.4531224095115647e-05
0.17680284453355544,0.8917005153608866,-0.6336711052998156,1.644014965051559,0.07803596156308501,0.6746637864693721,-1.455675003825263e-05
0.1768866156658806,0.8913395457524746,-0.6332181311817466,1.6438638674236854,0.07802119987828249,0.6752255796021949,-1.4547439611156676e-05
0.17697115427446608,0.8909686389789195,-0.6327519873559062,1.643703795801014,0.07800567669145142,0.6757833383844716,-1.4505400272923907e-05
0.17705786137450286,0.890586944059752,-0.6322747408583744,1.6435341580573608,0.0779903287977266,0.6763381244713678,-1.4528362727972421e-05
0.177098898006383,0.8903913364041545,-0.6320277415833937,1.6434472867171799,0.07798205151711013,0.6766170523542332,-1.4616478318352222e-05
0.17717979774356607,0.890038973643386,-0.6315870060005428,1.643284816336859,0.07796718718097395,0.6771104622879376,-1.4482307469698696e-05
0.1772681709676318,0.8896546690104259,-0.6311080083245315,1.6431038511693314,0.07795125189287688,0.6776340678568147,-1.4473030727657488e-05
0.17735493193508844,0.8892734830148035,-0.6306336761854521,1.6429212494196275,0.07793575142420206,0.6781402685843432,-1.4495981205620012e-05
0.17744449806398777,0.8888805199150882,-0.6301435452327171,1.642729745337232,0.07791908507346434,0.6786512634617541,-1.4455518146050395e-05
0.1775609979255739,0.8883826165553081,-0.6295270341205201,1.6424813677061474,0.07789882305606088,0.6792815401185521,-1.4474307985068435e-05
0.17761437965609694,0.8881325643743336,-0.6292137096900383,1.6423572492474836,0.07788832907867871,0.6795925414389234,-1.4468493128028115e-05
0.1776821362925407,0.8878265865446799,-0.6288320561854048,1.6422031931957006,0.07787540033354201,0.6799684119481846,-1.455466777855463e-05
0.17784579373554177,0.8871580161372083,-0.6280083207080054,1.6418542076745153,0.07784761052952582,0.6807708633311105,-1.4413605941676622e-05
0.1779334315855543,0.8867491785217201,-0.6274980107286243,1.6416428244789767,0.07783087786140452,0.6812480925155118,-1.45300772844692e-05
0.17802870735154563,0.8863209094586946,-0.6269639382793963,1.64141779613532,0.07781278395321145,0.6817421457002473,-1.439386085166916e-05
0.1781164135044584,0.8859275442563908,-0.6264751074515083,1.6412094653706264,0.07779664895095628,0.6821888808532854,-1.441656678657921e-05
0.1782125276510893,0.885502163245147,-0.6259464737669225,1.6409819072712963,0.07777875124337452,0.6826655389931444,-1.4500606006606631e-05
0.1783173767508952,0.8850426261215425,-0.6253751413912507,1.6407333392941483,0.07775927837102614,0.6831734912617922,-1.4364653643461622e-05
0.1784184681442449,0.8845960726603472,-0.6248201952493977,1.6404903368821824,0.07774057433005854,0.6836595575291069,-1.4354421254303418e-05
0.17852538873423907,0.8841255470946976,-0.6242364492001471,1.6402322529196978,0.07772120144716155,0.6841643996438167,-1.437515127022948e-05
0.17869237495990653,0.883417745185457,-0.6233611532985908,1.6398376965561594,0.07769182762329141,0.6849107048369945,-1.4358995326979596e-05
0.17883543533693214,0.8827814003893568,-0.622569303517154,1.6394824653389461,0.07766533736882586,0.6855682858234529,-1.4438859890830713e-05
0.17901565921278806,0.8819988415703497,-0.6215978261751891,1.6390398665153292,0.07763298178888878,0.6863629891482859,-1.4421272987341638e-05
0.17917055246344216,0.8812582177848327,-0.6206677609547251,1.6386226043511147,0.07760270392158386,0.6870975247468722,-1.4310172778309038e-05
0.17930756027488748,0.8803809874382411,-0.6195366252443373,1.638139051358145,0.07756801174826933,0.6879350573823579,-1.438513731777391e-05
0.17947749348188857,0.8792032044927645,-0.6180079502520481,1.637487052510454,0.07752253471320447,0.6890298760371758,-1.4264153200826968e-05
0.1795917882175626,0.878265978021501,-0.6167759770855108,1.6369716257420093,0.07748627255026719,0.6898819083362948,-1.4243238218192289e-05
0.17974795638014207,0.8770936470992856,-0.6152413748121024,1.6363172206659469,0.07744082835468546,0.6909321100761536,-1.4312401165561539e-05
0.1798675371421421,0.8761181200725119,-0.6139542159660687,1.6357726359576512,0.07740266933606321,0.6917921538219467,-1.4165262319565386e-05
0.1799665531491934,0.8753028912718577,-0.6128776112178471,1.635316154470079,0.07737096802589427,0.6925029748651452,-1.4272863950282044e-05
0.1800835997781043,0.8743797156754791,-0.6116579744485788,1.6347945379565196,0.07733450095230054,0.6933004722486196,-1.4127013319154003e-05
0.18026658868228917,0.8730265107083142,-0.6098770928753963,1.63402094666767,0.07728215156228213,0.6944521771024545,-1.4126812430070856e-05
0.1803712654225329,0.8721086728748189,-0.6086520051329414,1.6335006360140687,0.07724591936103664,0.6952216726221865,-1.4077174809834503e-05
0.18044322224650333,0.8714757795626191,-0.6078067964543994,1.6331412342814247,0.07722119687454843,0.695749189046599,-1.409267295571226e-05
0.18051548162871445,0.870856856773675,-0.6069796045818281,1.6327883030935189,0.0771965172758371,0.6962624742149508,-1.4175298465701758e-05
0.18060640581561582,0.870108830787605,-0.6059799771289534,1.6323589010405346,0.07716653766950987,0.6968794955443487,-1.4033235219201856e-05
0.18070713375282743,0.8692858731069357,-0.6048808954450715,1.6318851795785685,0.07713408384611498,0.6975527040618701,-1.4140686765529153e-05
0.18076931892539783,0.8687464110350742,-0.6041551273907793,1.631575083512053,0.07711227127705023,0.6979917321234614,-1.4003493153502689e-05
0.1808581652128014,0.868009495989325,-0.6031672316915291,1.6311493939956376,0.07708318911554635,0.6985878581613187,-1.4016860808041542e-05
0.1809357322023386,0.8673504556878555,-0.6022794845863206,1.6307683590290933,0.07705650226866112,0.6991179558862646,-1.3972645402482442e-05
0.18102294061352708,0.8666179190529517,-0.6012929139995062,1.6303435866614002,0.0770272047192444,0.6997037361371703,-1.3957212693149756e-05
0.18111939817654843,0.8658091734199083,-0.6002030062068515,1.6298735938330333,0.07699512599554659,0.7003461182306143,-1.406469953746381e-05
0.1812338749916247,0.864856187708904,-0.5989149778546228,1.6293174656611704,0.07695685178908551,0.7010981582436226,-1.3918403499957321e-05
0.18132087351836024,0.8640916301607673,-0.597877810387403,1.6288723046590672,0.07692658009978004,0.7016971651181398,-1.393050230902304e-05
0.18143271057606558,0.863135053741078,-0.5965788497593278,1.6283128910176563,0.07688826515941383,0.7024420810115553,-1.4006325154802823e-05
0.18153822400906883,0.8622113516930892,-0.595319981319756,1.6277720709374197,0.07685137667134256,0.7031568780016535,-1.3889665980926225e-05
0.18164997961538898,0.8612281097015497,-0.5939768343379965,1.6271954783806555,0.07681193601091074,0.7039126211740365,-1.3965628774315064e-05
0.18183425611141146,0.8596994410187291,-0.5918896974331886,1.626291763415642,0.07675089542514968,0.7050782172171584,-1.3806652482628579e-05
0.1819393450726583,0.8586786582169461,-0.5904806167807415,1.6256934088969226,0.07671046230114165,0.7058489879604917,-1.3812219554765193e-05
0.1820667586827467,0.8574991479996141,-0.5888502319428994,1.6249982119169708,0.07666290882431426,0.706735312541845,-1.3758664582752544e-05
0.18212333821107052,0.8565337344977104,-0.5874834739603507,1.624443651744346,0.07662573292300312,0.7074465021002343,-1.3765338555238316e-05
0.18220873333847365,0.8546733630137116,-0.5848277791034917,1.6233778578262603,0.07655551726164322,0.7087967810941374,-1.3724420920624425e-05
0.18221036747420616,0.8534619699698638,-0.5830562730587339,1.622699843323911,0.07651044580201916,0.7096609756098156,-1.379633257592161e-05
0.182222442876955,0.8519921197342635,-0.5809055861967263,1.6218712137817777,0.07645540647794746,0.7107055226408496,-1.3638286234574082e-05
0.18222639905249594,0.8507251662742581,-0.5790413832899093,1.6211576533781829,0.07640796160109087,0.7116006747377979,-1.3610395605212489e-05
0.1822253586942093,0.8497813930277172,-0.5776463447465705,1.6206266686240527,0.07637269062131402,0.7122649780563499,-1.3616452923415068e-05
0.18224804291059282,0.8478646159090539,-0.5748204581930398,1.619536387649089,0.0763009049414336,0.71360746258327,-1.3574277630823417e-05
0.18223861540677966,0.8464923578553387,-0.5727704621831631,1.6187623995647744,0.07624942740950313,0.7145604857745074,-1.354383051843655e-05
0.18223139377156894,0.8451374929971669,-0.5707402149421075,1.6179961260514286,0.07619822394200071,0.7154980147162577,-1.3613634135545283e-05
0.18222893731690082,0.8433867316343537,-0.5681102668711207,1.6170007471488308,0.07613191727437663,0.7167041098609266,-1.344911505274382e-05
0.1822122788396685,0.842149622145473,-0.5662338282749264,1.6163011118251047,0.07608498726612112,0.7175515563926194,-1.3421722200313013e-05
0.18219809172440815,0.8406630150406889,-0.5639756561287648,1.6154569170153188,0.07602878334448349,0.718566591977968,-1.3414467718853018e-05
0.18217968346268254,0.8390715289726938,-0.5615447766100967,1.6145521629355128,0.07596819309762015,0.7196482246914888,-1.3379172417060659e-05
0.18215503077801642,0.8376786349854948,-0.5594018964072838,1.6137617373678026,0.07591489537973839,0.7205905688341074,-1.3448971153628975e-05
0.1821284513734449,0.8362760229573674,-0.557232828493019,1.6129646056079325,0.07586085000304976,0.7215365836251744,-1.3291696787653962e-05
0.18209853812227195,0.8347989294332558,-0.5549397215853213,1.6121246238489677,0.0758044143933807,0.722529073893571,-1.3283215678505655e-05
0.18206473834988746,0.833436075144796,-0.5528095548360783,1.611350222353356,0.07575187192100152,0.7234414861833436,-1.325333732449252e-05
0.18194564957625303,0.8319649059897083,-0.5504491596863721,1.6105375979921321,0.07569783344922865,0.724408039495291,-1.3321918422626311e-05
0.18178303777405702,0.8304677343211324,-0.5480092375306942,1.6097208598043506,0.07564383760142679,0.7253819775496337,-1.3161744184309043e-05
0.18158946224068195,0.8288531190365278,-0.5453565879251521,1.608843810999641,0.075586665377112,0.7264260554869626,-1.314882644720683e-05
0.18141957167542788,0.8275604898650952,-0.5432120338125204,1.6081446355411098,0.07554061037482818,0.72725843636844,-1.3120772456964858e-05
0.1812214157933818,0.8260599247770006,-0.5407119732376655,1.6073317023425249,0.07548704585961463,0.7282220594853879,-1.3189227329846176e-05
0.1810194605508446,0.8245852377338743,-0.538237489271121,1.6065328573004667,0.07543412295236607,0.7291664893745979,-1.3029526559904525e-05
0.1807896169636969,0.8229318245803174,-0.5354490143802506,1.6056364684622961,0.07537504295811903,0.7302221869773735,-1.2992730439087552e-05
0.18056740053579556,0.821405748715665,-0.5328549465195129,1.6048102972685019,0.07532038884261638,0.7311935854465643,-1.2957901164512009e-05
0.18030243757121767,0.8195965563924306,-0.5297642102851317,1.603829101140552,0.07525588626900248,0.7323421492889839,-1.2946923087397977e-05
0.18001457104637453,0.8177081158928727,-0.5265101672561521,1.6028057273780485,0.07518811627005118,0.733536725959202,-1.3002920616678182e-05
0.1797335503036166,0.8159491300102548,-0.5234512823741619,1.6018538403800022,0.07512487695077841,0.7346461836171843,-1.2963209424121658e-05
0.17948072453770347,0.8144277600452172,-0.5207830510082525,1.601031487717278,0.07506997027114437,0.7356037805241264,-1.2827309260998732e-05
0.17922821230601294,0.8129371346111114,-0.5181515849941025,1.6002257283891765,0.07501588391322311,0.7365401904235975,-1.2794620530165446e-05
0.17900344403104018,0.8116532337879789,-0.5158671196843923,1.5995324912512503,0.0749687568318862,0.7373452893041659,-1.2733090775540745e-05
0.17874613296227615,0.8101906182451843,-0.5132529710939071,1.5987418350923779,0.0749153418521713,0.7382610857872303,-1.2700529673281835e-05
0.17842913171617525,0.8088338482769881,-0.5107674728323222,1.5980285569821753,0.07486876727036851,0.7390980668844547,-1.2699974016427973e-05
0.17802843873272423,0.8072805863221362,-0.5078832003618539,1.5972204486234887,0.07481628058842205,0.7400492781311563,-1.2763276526328582e-05
0.17758690769328123,0.8056797282872479,-0.504874498325746,1.5963927418231005,0.07476272501549541,0.7410250691268887,-1.2595424037087355e-05
0.17714551333300133,0.804144148701412,-0.5019623497874743,1.595601838763808,0.07471215835868694,0.7419580941565416,-1.2590521161648383e-05
0.17666022491074518,0.8024950994326208,-0.49880853482008813,1.5947531054644424,0.07465757674263429,0.7429578531229781,-1.2552072156779559e-05
0.1762149397422661,0.8010277938574282,-0.4959760020701758,1.593999476034094,0.0746089468933917,0.743845702849133,-1.2517590628924324e-05
0.17560976578607956,0.7990404586491646,-0.4921164832304292,1.5929764912072457,0.07454309890161248,0.7450461450272137,-1.2570038369297265e-05
0.17488242953369237,0.796714205928458,-0.4875499998456423,1.591779264737836,0.07446611711486373,0.7464478649878741,-1.2382334682925489e-05
0.17427448239110266,0.7948679911245673,-0.4838731316782683,1.5908338673967117,0.07440511640848335,0.7475573426726356,-1.2340398049204282e-05
0.17374061985507083,0.7932835140104562,-0.48068567085415825,1.5900231899386315,0.0743524117737282,0.7485086583454708,-1.2302518185514089e-05
0.17307855720999576,0.7913283543239418,-0.4767254401011005,1.5890208345971892,0.07428758263662516,0.749681458315453,-1.228813616815927e-05
0.17237239114965686,0.7892996982561726,-0.4725683970330561,1.5879820632960664,0.07421995290146732,0.7508960944369436,-1.2239780248002319e-05
0.1717355021434308,0.7875323633406399,-0.46890083139751404,1.587079570594291,0.07416085616327539,0.7519526085268291,-1.2197321389351146e-05
0.17099573759101983,0.7855082267409683,-0.4646605860355404,1.5860452156431686,0.07409304113379012,0.7531613617323654,-1.2148756438179475e-05
0.16948956567415685,0.7813164075679344,-0.4558150897707023,1.5838867802343808,0.07395429360386441,0.755658841159959,-1.2194650904184812e-05
0.1682929031055176,0.7784604640319079,-0.44956095029097654,1.582448314855406,0.07386189093202411,0.7573474184236728,-1.2126704972637015e-05
0.16743209010232363,0.7764152774502833,-0.44501597913057545,1.5814143451411748,0.07379325830456729,0.7585602218777616,-1.2034601130750389e-05
0.16651613458992554,0.7742714340117915,-0.4401925804589597,1.5803295966964237,0.07372062696158999,0.759831525095775,-1.1903922179534732e-05
0.1653639287665145,0.7716232719559448,-0.43415778078983003,1.5789896455743762,0.07363137978704426,0.761400084681898,-1.1977889442960077e-05
0.16436936967865012,0.7694616545417068,-0.4291248571220718,1.5779029531899162,0.07355799377985939,0.7626783943466897,-1.1775746015629807e-05
0.16327536757701644,0.7671313372984354,-0.42362354242728095,1.576732236413891,0.07347905660672538,0.7640560070333313,-1.175924693086472e-05
