fotiskoutsikos/xarm7_motion_planning/scripts/logs/2025-04-25_11-13-48/joint_angles.csv
j1,j2,j3,j4,j5,j6,j7
-0.18314229648895441,0.700037161046609,0.45315045741527893,1.5707714566872406,0.1630777633408318,0.8708083104826683,-1.1818627537962811e-05
-0.0041628738931560605,0.7000373301133962,0.27417178299200895,1.5707711599422458,-5.428437919619e-05,0.8708095658160877,-8.909026346870519e-06
0.000440962715988924,0.7000431707165733,0.08577336363154853,1.5707861951579494,0.000429797743799476,0.8708327905693096,-8.418416732602907e-06
0.0008921561466355143,0.7000844083814384,0.008458786998032153,1.5708384950372478,0.0008608979038271514,0.8708344705494877,-8.625330012002053e-06
0.0012860733921646883,0.7001526664293918,0.012208401769645327,1.5709173519679576,0.0012393983089813432,0.8708164338883773,-8.608335718029991e-06
0.001630659261594225,0.700237959765972,0.015503345843036698,1.571012237865495,0.0015718258252475081,0.870785376647162,-8.460326973214194e-06
0.0019471334717078292,0.7003348925490513,0.018538644248682346,1.5711196551697206,0.0018785975236195185,0.8707454894395417,-8.507406231927916e-06
0.0022079390247853325,0.7004312954783707,0.021055644298637155,1.571225025405404,0.0021326194240671725,0.8707024890697515,-8.580471646979504e-06
0.0025092993373405648,0.7005575835779032,0.02395943266095646,1.5713614497085446,0.0024255242229491714,0.8706441581772966,-8.43280088869136e-06
0.0028235963471443526,0.7007053042294729,0.026991569353815414,1.5715213978108018,0.0027318708573513817,0.8705735104477714,-8.486751745806487e-06
0.00306911870987836,0.7008364983786262,0.02937651233699512,1.5716623148063933,0.002972572380283367,0.8705088808681056,-8.480710937952551e-06
0.00336122262592653,0.7010059211159065,0.032212308993922356,1.5718437559912246,0.0032586884828456064,0.8704239370167048,-8.47376619539375e-06
0.0037676852751813428,0.7012630341507631,0.036144192216347015,1.5721183104524945,0.0036551798285149317,0.8702927729099041,-8.464807211616687e-06
0.004171829753659928,0.7015507252906756,0.040073087342153535,1.5724245385971747,0.004051122914672689,0.8701430280563374,-8.532619137469055e-06
0.00437361387737667,0.7017119236167435,0.04206598352073154,1.5725955179923075,0.004252047409069704,0.870058050150547,-8.528696667120528e-06
0.0047339003141280145,0.7020128256938785,0.04560286248391865,1.5729137180620922,0.004608192017734325,0.8698985046850938,-8.382994925781873e-06
0.004979686220475621,0.7022368548883504,0.04804321486758223,1.573150548745172,0.004854035462991568,0.8697785357734151,-8.378934032826635e-06
0.0054694047706780324,0.7027019227914524,0.05286237797426008,1.573642224337089,0.0053394062164446865,0.8695280842253332,-8.435894141456401e-06
0.005737679898823345,0.7029875654088595,0.055554773480124275,1.5739431127603112,0.005610353116135336,0.8693728437748591,-8.432665747903911e-06
0.0061015822939287645,0.7033945010216591,0.05920749858734098,1.5743713206589858,0.0059777038060158105,0.8691507133618321,-8.428878040867005e-06
0.006385160225156561,0.7037359595601291,0.062087102246028536,1.5747301654604948,0.006267065057741661,0.8689632186038629,-8.500874248973389e-06
0.006865797337112234,0.7043407738705127,0.06694969624526426,1.575364437281923,0.006755208578785421,0.8686303965805919,-8.358108577688483e-06
0.007093883538225043,0.7046562104076752,0.06931074896712897,1.5756948729012503,0.0069922486888236435,0.8684559848015585,-8.35696621681592e-06
0.007345398770680411,0.7050165863414968,0.0719252297636821,1.576072590510627,0.007254926128021033,0.868256419022555,-8.420736731906686e-06
0.007619468061387913,0.7054282188073264,0.0747921300798895,1.5765025984152832,0.007542090836869519,0.8680278579428959,-8.35533893273066e-06
0.007940311913848142,0.7059302901443152,0.07816575718785845,1.5770272307020425,0.00788016229969557,0.8677486577601199,-8.35514572372631e-06
0.00833692356465221,0.7065822954001524,0.0823624359476991,1.5777078640918285,0.008300332012312062,0.8673853839363233,-8.355758036593386e-06
0.008697643193522175,0.7072149574568689,0.08623395718066273,1.5783674171233386,0.008687590550218616,0.8670322403239528,-8.357175687478957e-06
0.009059115244765437,0.707886018208054,0.0901623617217151,1.579066170029014,0.009080165898304848,0.8666571616008136,-8.351840563136648e-06
0.009490953199234653,0.7087322163922103,0.09490705450505388,1.579946301222387,0.009553773023916357,0.8661836443972142,-8.355829675288362e-06
0.00983413452280324,0.7094523080982826,0.09875647943775867,1.5806946355559557,0.009937916795284885,0.8657804296547891,-8.436811005374523e-06
0.010132140331122308,0.7101139205253739,0.10215721107184628,1.5813808945866894,0.010276633286673942,0.8654097335795745,-8.441018596982985e-06
0.010332343262319021,0.7105810802383443,0.10448272122332014,1.58186490950726,0.010508052260141731,0.8651479511222293,-8.444401351503927e-06
0.010622033981559476,0.7112773193548172,0.10787348586811785,1.5825858887772357,0.010845063839433955,0.8647575416413806,-8.511472533001552e-06
0.010954857005682328,0.7121136194775923,0.11182234782777734,1.5834503433574723,0.011237042846212297,0.8642889750940217,-8.380165432697595e-06
0.011171264779631151,0.7126874751925181,0.11444871176733251,1.584043626289633,0.011497932949502854,0.8639675408243912,-8.462282321097803e-06
0.011399653472390803,0.7133160167982942,0.11725847303524795,1.5846923560041937,0.011776422012436782,0.8636154725484042,-8.46816527033667e-06
0.011598969288512784,0.7138868229990027,0.11975192199584317,1.585281033283903,0.012023199000632978,0.8632956523302395,-8.5349228235998e-06
0.01183989926048934,0.7145994190048519,0.12280187744073334,1.5860146666329111,0.012324714541851023,0.8628969162523177,-8.404427738639697e-06
0.012071186491387387,0.7153119913523627,0.12578420445569627,1.5867481063984155,0.012619436501266179,0.8624982900939129,-8.412020354064964e-06
0.012293171534972558,0.7160231664338745,0.12869907587427232,1.5874798573188356,0.01290752693141517,0.8621007847175308,-8.496955987702393e-06
0.012487074569539125,0.7166721322650655,0.1312989463534402,1.5881465559406118,0.01316377181234607,0.8617380155312206,-8.564996637261402e-06
0.012686536749135335,0.7173639583584919,0.13401782452178068,1.5888559546642353,0.013431388773619268,0.8613518946706957,-8.435833089848188e-06
0.012886344513275638,0.718081974372967,0.13679380971067356,1.5895925877971848,0.013704912538946346,0.8609514375194918,-8.521725079368991e-06
0.013063989986108915,0.7187483677800692,0.1393182711300902,1.5902752015354285,0.013952937844711855,0.8605797972863067,-8.590434964261817e-06
0.013263531195797817,0.7195235176753618,0.14220713879444702,1.5910683665373284,0.014236618824389424,0.8601481119649499,-8.599943590148484e-06
0.013437295794724413,0.72022849037279,0.1447832790785375,1.59178834358758,0.01448906497502822,0.8597560247047698,-8.485127420243543e-06
0.013639205737534965,0.7210790180590676,0.14784474072961284,1.5926568125920006,0.01478901535593291,0.8592833065691554,-8.493650547336529e-06
0.013827383722307296,0.7219081864276502,0.1507773318449228,1.5935029354264634,0.015076328097842762,0.8588231377853424,-8.577468751269635e-06
0.014028743732243498,0.7228389466470793,0.15400825471394608,1.594451043574339,0.01539207370205542,0.8583070826267107,-8.583762062031042e-06
0.014193762833525803,0.7236422561241573,0.1567448386551913,1.5952682733296832,0.015659133980396867,0.8578623258674956,-8.58960063787606e-06
0.014367612342576663,0.7245290798958877,0.15971851779502355,1.5961694228126273,0.01594885401766355,0.8573718238319525,-8.663435429490107e-06
0.014576194637530904,0.7256490472683828,0.1634113749063859,1.597305373004791,0.016308092686431408,0.8567535844178487,-8.534568520346397e-06
0.01472295480665231,0.7264889753402919,0.16612791472226274,1.5981562834224645,0.01657207227074764,0.8562907620318416,-8.556429616390915e-06
0.01487058385968254,0.7273758361315741,0.1689590698679142,1.5990541816717263,0.016847198350793846,0.8558028629598899,-8.649596752619004e-06
0.014999860230947348,0.7281990446739401,0.17154306382626494,1.5998855293352445,0.017097292752925597,0.855350546981021,-8.58356129374016e-06
0.015146924329550338,0.72918465164833,0.17460116517219504,1.6008802874429566,0.017393330928439532,0.8548099204990312,-8.61944767294176e-06
0.01536943133782298,0.7307881350662466,0.17950385000399915,1.6024959349319419,0.01786730840838402,0.8539321168994585,-8.617050778703117e-06
0.015523668580301297,0.7320231028127733,0.183195760291321,1.6037378062785814,0.01822371192357508,0.8532581972161761,-8.720120026062261e-06
0.015634359567443745,0.7329935037517457,0.18604504382112275,1.6047114739841746,0.018497855593212265,0.8527296755531255,-8.784616346346752e-06
0.015727578083884808,0.7338722047729416,0.18859090023475034,1.6055911973258343,0.01874229993757215,0.8522522737862843,-8.696892141557555e-06
0.015820863987419997,0.734818742597211,0.19130825077042513,1.6065385924038678,0.019003392839177735,0.85173886342365,-8.803350964647905e-06
0.015900163991438454,0.7356915847395697,0.19378309471174493,1.6074104252712509,0.01924061456896986,0.8512663822896984,-8.818081671968514e-06
0.016027050700330392,0.7372408391937384,0.19813108968299353,1.6089547778225235,0.019656701075799532,0.8504295304191496,-8.748706735950407e-06
0.016114840917989426,0.7384924772819028,0.2015842183524983,1.6101997731883992,0.019986567447340953,0.8497556710484897,-8.770862324425366e-06
0.01618116038753925,0.7395855660310717,0.2045595008392187,1.611284811108841,0.02027024822042023,0.8491688052554549,-8.790634848487855e-06
0.01624070375688369,0.7407300975451045,0.2076423610106488,1.6124190093015667,0.02056413247967903,0.8485560567871273,-8.812026637272652e-06
0.01629549459217916,0.7420157928868578,0.21106296239724553,1.6136898846599799,0.020888835680175966,0.8478692709292321,-8.832615399079202e-06
0.016331561665317906,0.743091974955445,0.21389479458728644,1.6147521022132292,0.0211577109122425,0.847296186939472,-8.954791772097792e-06
0.016367015682638986,0.7445732519635513,0.2177537558584337,1.616210223731458,0.021523282729090987,0.846509745292658,-8.982518749256485e-06
0.016388200968247446,0.7464679865989465,0.22262725299567077,1.6180691840180268,0.021983835586715017,0.8455078414627843,-8.916770623201842e-06
0.016387421412477288,0.7477298789094329,0.2258238019914005,1.6193038437615437,0.022285578515918836,0.8448437467354175,-8.937218668236824e-06
0.01637816434737349,0.7487514998155236,0.22838418373103408,1.6203008831800236,0.0225264735848949,0.844307680490715,-8.957217367822068e-06
0.016360568351309723,0.7498007397469815,0.2309941327336169,1.621323065487239,0.02277153374403529,0.8437584145173851,-9.088015016089912e-06
0.01633604205939143,0.7508090672240799,0.23348337842622957,1.6223030290949207,0.023005047527084876,0.8432323746901735,-9.074632267846994e-06
0.016305570581256923,0.7517758002809005,0.2358530665280849,1.6232406892782931,0.023227028466576982,0.84272937851315,-9.092557078815844e-06
0.01624406443162396,0.7532753685439495,0.23950815733540765,1.624691679514676,0.023569080599687986,0.8419515727996938,-9.119948806812772e-06
0.01617082037317008,0.7546914963067959,0.24292415791320643,1.6260570312064795,0.023887818463871113,0.841220241537787,-9.033491627619128e-06
0.01609330855613056,0.755950030528342,0.24593708724557928,1.6272675816701367,0.024169016968787815,0.8405731668683085,-9.091129317795321e-06
0.016024748844132297,0.7569339741742374,0.2482729910784034,1.6282113448615165,0.024386294391934626,0.8400689610679883,-9.106922346902024e-06
0.015935119482584525,0.7580843347270774,0.2509900785895569,1.6293123547276247,0.024638561882322385,0.8394811731201823,-9.212694912719144e-06
0.015837466058518324,0.7592146550901449,0.25364310321727856,1.6303910214308344,0.024884644389186583,0.8389059332818558,-9.238055361571185e-06
0.01572036669238308,0.7604420266203062,0.25650768085067455,1.6315590865755514,0.025149977203285268,0.8382835781423941,-9.282950363953546e-06
0.015588765629916068,0.7616967243935111,0.2594167475450311,1.6327489738087113,0.02541871409144303,0.837650066021042,-9.180526322261073e-06
0.015444741876052603,0.7629526925587911,0.2623157301363799,1.6339371375767797,0.02568677502940897,0.8370188030354901,-9.227721667670608e-06
0.015325000792539178,0.7639277763740004,0.2645511472143829,1.634856690582028,0.025892764285554648,0.836530548358053,-9.245806258384448e-06
0.01514518439734669,0.7652832125591615,0.2676482857538778,1.6361311428771526,0.026177890364708745,0.83585448352627,-9.272514954083988e-06
0.014986094291482566,0.7664035633922746,0.270193040398957,1.6371810163439733,0.026411706445073513,0.8352982764612316,-9.294635530565643e-06
0.014771304465354795,0.7678097627083167,0.2733755701983549,1.6384942430343816,0.026703778361478747,0.8346033280078924,-9.316301167849872e-06
0.014503133884116615,0.769430325534656,0.27702699855444113,1.6400012899390974,0.027038284358146036,0.8338069605165188,-9.400529369152366e-06
0.014274668525707135,0.7707199738160941,0.2799147052222013,1.6411956079422678,0.027302180024981304,0.8331768293106592,-9.448869168870999e-06
0.014013942092595322,0.7721048749586608,0.2830038200000278,1.6424725072232835,0.027584310484154884,0.8325041716949597,-9.396475245004865e-06
0.013781286111388624,0.7732757085927444,0.2856039049067487,1.6435479748465198,0.02782119506599212,0.831938433296675,-9.42009087534501e-06
0.013378582078579448,0.7751562916831904,0.2897755603702725,1.645267326639547,0.02820083737537349,0.8310351865429348,-9.53800670089322e-06
0.013070297489438332,0.7765159043801555,0.2927712881922746,1.6465029896811352,0.028472551755353237,0.8303871503302069,-9.493459199205745e-06
0.012816030281339152,0.7775880802313004,0.29512823947732336,1.647473978977282,0.028686577775968836,0.8298793248382133,-9.506602509645745e-06
0.012575462387115266,0.7785648675693597,0.29726900433343406,1.648355479019826,0.02888015427299262,0.8294185350393182,-9.606798917261017e-06
0.012351368033026056,0.7794467189512355,0.29919538125955203,1.649147947273092,0.029053999907293182,0.8290045191454691,-9.553685677232693e-06
0.012171126119969955,0.7801363128946424,0.30070206206234573,1.649766466963345,0.029190461069886986,0.8286823331707955,-9.557936692772273e-06
0.011875150845255256,0.7812286587824495,0.3030845473060495,1.6507424187370336,0.02940503830086616,0.82817352747389,-9.591808264985957e-06
0.011609214189724604,0.7821768713838049,0.305150077173054,1.6515864978420272,0.029591194541852772,0.8277344085444112,-9.612149177939955e-06
0.011040356974203469,0.7840834558418921,0.3093118153933947,1.653274029893998,0.029966300473268426,0.826857791661519,-9.653331089154449e-06
0.010621137779695644,0.7854239600995028,0.3122266251456649,1.654452706979197,0.0302283122852538,0.8262470844512411,-9.682486423301384e-06
0.010184457313651585,0.786759323560208,0.3151293385527332,1.655620648966905,0.030489152192713753,0.8256434441017797,-9.777469618832413e-06
0.009763078633349132,0.7879981857355922,0.317817412601924,1.6566976630309327,0.03073008699393842,0.8250876223471479,-9.803680082853816e-06
0.009120748382946964,0.7897855857358742,0.32170231081819267,1.6582406367337548,0.031078104456764954,0.8242930088503702,-9.84161186146082e-06
0.008572442051566043,0.7912437820867488,0.3248649411679905,1.6594893530208559,0.03136052774697884,0.8236514288759036,-9.809175677055748e-06
0.00811343446741919,0.7924198748558249,0.32741501045950194,1.6604903723440074,0.031588080380362094,0.8231385983641051,-9.835084832765517e-06
0.007668436332662232,0.7935226689679453,0.3298063705329142,1.6614235596236187,0.03180121850195139,0.82266150062771,-9.859485802010681e-06
0.007161678863131904,0.7947335987696906,0.332436792691869,1.662442113097769,0.03203591576880882,0.8221422113175043,-9.867555276876772e-06
0.006628819682473974,0.795961896778346,0.3351059428904435,1.6634684642314044,0.032273199619567094,0.8216197269269454,-9.974885814223455e-06
0.006152368565864208,0.7970269613304906,0.33742065198325477,1.664352218589885,0.03247902062573349,0.8211709806899208,-9.917508899448535e-06
0.005641950848478849,0.7981316878300557,0.3398251205360614,1.6652633189659776,0.03269247415668364,0.8207093128718217,-9.941553795300706e-06
0.0050080321875762834,0.7994529395378001,0.3427079838252496,1.6663448442407889,0.03294824855120737,0.8201626432333242,-9.97038099903591e-06
0.004205457487791442,0.8010522491100343,0.34620763202959637,1.6676414935785084,0.033258101394515016,0.8195088962988537,-1.0027084210051385e-05
0.0035150835051727114,0.80237632247636,0.34911055807441826,1.6687049061086707,0.03351509059333946,0.8189749568393179,-1.0056920019430038e-05
0.002669515272589962,0.8039289805234304,0.3525279838854072,1.6699392082215958,0.03381745196123376,0.818357352895017,-1.0091980869653128e-05
0.001908072080968104,0.8052751905574693,0.35549806346662827,1.6709982698147776,0.034079880116474115,0.8178294850828758,-1.0122353940822393e-05
0.001188654342765716,0.8065041796354953,0.35821686488595184,1.6719557304040569,0.03431985873471177,0.8173539730970614,-1.0150293611843608e-05
0.000317167880834468,0.8079344155682744,0.36139727247579145,1.6730580213690542,0.03460092573066387,0.8168089971415675,-1.0157280634359722e-05
-0.0004167722507224525,0.8091010682818709,0.36399692500756853,1.673947597700458,0.03483001479250003,0.8163706718093078,-1.0183588334378157e-05
-0.0011547823653996758,0.810238631696997,0.3665389267083201,1.6748062303694038,0.035053417578406965,0.815948780819344,-1.0235529859237147e-05
-0.001953019800679634,0.8114276139504772,0.3692113014076446,1.675694564592928,0.03528894316955533,0.8155147715144455,-1.0313425282681976e-05
-0.002917353161652869,0.8128125159967823,0.3723369442531874,1.6767155646464502,0.03556372694749044,0.8150175040780203,-1.0294358571805162e-05
-0.00413691356600232,0.8144828799528714,0.37614026131726064,1.677928211609065,0.035898719181093774,0.8144311105377824,-1.0381931109471054e-05
-0.0047888514543155125,0.8153551319760304,0.37812772036079956,1.678553623067942,0.03607327192162657,0.8141301597289239,-1.0401564171758082e-05
-0.0060377027013363005,0.8169539694077015,0.38180487268692254,1.679682606217881,0.036396555934495645,0.8135898038337102,-1.0437625398651562e-05
-0.007111204082731248,0.8182790669404536,0.3848693283078992,1.6806026839680062,0.036665728637283124,0.8131525357392491,-1.0467548044346131e-05
-0.008094434713115994,0.8194541116391454,0.3876016987055122,1.681406151051406,0.03690559843212693,0.812773156585628,-1.0494127637095119e-05
-0.009150434833271603,0.8206743277884607,0.3904578633420206,1.6822273101846532,0.03715630781246393,0.8123880023977383,-1.0522005327473494e-05
-0.01005599192474893,0.821691829416447,0.3928515427553023,1.682901875722747,0.03736630952696274,0.8120737075998985,-1.0544960932890035e-05
-0.011262424980977848,0.8229993114161704,0.39595294342869725,1.6837530935188623,0.0376386960376589,0.8116801388678745,-1.050005903646678e-05
-0.012278961904390151,0.8240694991038495,0.39850451831443134,1.6844379132283747,0.03786208299420757,0.8113656273710506,-1.0558107524261118e-05
-0.013686237415873492,0.8254922679774754,0.40193350059066013,1.6853288646645623,0.03816312297536406,0.8109608881145887,-1.0591973744311645e-05
-0.015128502135622668,0.8268945488226427,0.40534444237523637,1.6861856367397303,0.03846260286772374,0.8105762415963111,-1.0625247853113251e-05
-0.016390742795537427,0.8280813867636239,0.4082551891710935,1.6868941020269697,0.038718569069677855,0.8102623306973609,-1.0619637285991246e-05
-0.017480418093898997,0.8290787169602298,0.41071550848845995,1.6874773406458585,0.03893450032463708,0.8100063468977226,-1.064158903396617e-05
-0.018508093340629195,0.829995677984602,0.4129922380863986,1.6880032981189048,0.03913433274203282,0.8097778865107967,-1.0663484194317618e-05
-0.019510746336288243,0.8308688714223305,0.41517424598090535,1.6884946650128638,0.039325882720908645,0.8095666826582884,-1.0684100378632877e-05
-0.020692870479417813,0.8318698325256566,0.4176958820440877,1.6890456660992985,0.03954736761304023,0.8093327218107627,-1.0707799765086179e-05
-0.021831213170667496,0.8328096120258968,0.42007852335536366,1.689551414438128,0.039756230359382805,0.8091204053850456,-1.076760404927768e-05
-0.023414433678477842,0.8340697628264655,0.42331240192184083,1.690209346209393,0.04004064407984487,0.8088496296990462,-1.079829551375866e-05
-0.024854141560558318,0.8351803059852543,0.42618956319811296,1.6907712954514809,0.04029421880075734,0.808623430168045,-1.0786488538805372e-05
-0.026163583183524963,0.8361639974890389,0.4287566102857845,1.6912548633407862,0.04052011801452249,0.8084322495639995,-1.0810114682513472e-05
-0.02713489490181331,0.8368795356826508,0.4306342459450301,1.691598707786552,0.04068518101305063,0.8082985531566997,-1.0900183023743182e-05
-0.028206825421856152,0.8376527060633654,0.43267673620610303,1.6919611823188756,0.040865015970434015,0.8081601458010024,-1.0916447589437439e-05
-0.029588695588830483,0.8386226669872414,0.4352630866886855,1.6924020863954734,0.04109294336474267,0.8079957024353854,-1.093913629723886e-05
-0.030874063149935793,0.8395035706589029,0.43762990657574097,1.6927900517407402,0.04130162128030879,0.8078547459852778,-1.09601229727474e-05
-0.03224635756379257,0.8404216853104494,0.44011508429027213,1.6931809297006968,0.04152059187875601,0.8077164560061636,-1.095396492711842e-05
-0.03339873187559217,0.8411766620418089,0.44217375738334663,1.6934926540799022,0.041702292383467565,0.8076096461671805,-1.0972647175755412e-05
-0.03439558695438105,0.8418181265005584,0.44393458094979366,1.6937502250726757,0.041858221599850864,0.8075242354887067,-1.0947486837942222e-05
-0.035861784078903725,0.842738608315476,0.44648326635029534,1.694106799675982,0.04208333642154738,0.8074097463889807,-1.1040199502154735e-05
-0.037051579350254826,0.8434719329730695,0.448525536367101,1.694381016642141,0.04226392298806747,0.8073252337468118,-1.1055126073244992e-05
-0.03776006884754324,0.8439041830693332,0.449732600439674,1.6945390136250564,0.04237065741227486,0.8072779280601168,-1.1065666912557504e-05
-0.03926749827883036,0.8448021094172535,0.45226324148728114,1.6948543456959104,0.04259443534436791,0.807187752312263,-1.1064505988755968e-05
-0.040641118407746646,0.8456025153665889,0.4545393549378236,1.6951234836923774,0.04279656124680198,0.8071162476195708,-1.104101657567469e-05
-0.04200329953247195,0.8463816022211788,0.45676829465199464,1.6953747243590227,0.042994185513473226,0.8070535131645906,-1.105929366751468e-05
-0.043122252975849484,0.8470118378882727,0.458580987076993,1.6955707115077514,0.043154811570307317,0.8070077215805798,-1.1140888870109222e-05
-0.04448224755987873,0.8477641153482063,0.4607591495000136,1.6957941308437787,0.043348349863054914,0.8069601402757485,-1.1093406135920247e-05
-0.04693152099747078,0.8490741260845152,0.4646055801405371,1.6961541413922792,0.043690004295848794,0.8068962556117709,-1.117127926164585e-05
-0.04811315306096997,0.8496980630522728,0.46644463361024346,1.6963171037094913,0.04385387118409856,0.806872418316682,-1.1206477988245922e-05
-0.051265044418074446,0.8512985515623273,0.4712419110359196,1.6966918602550614,0.04428161515213702,0.8068389401810485,-1.1245771852408382e-05
-0.053481419864935376,0.8524017830542743,0.47456714444309167,1.696926875772836,0.044578313267698455,0.8068320653598748,-1.1272957889829627e-05
-0.05511634370054708,0.8532046979469721,0.4769959682602636,1.6970858102173798,0.04479531648685153,0.8068354724829669,-1.123019677251591e-05
-0.056902184697623426,0.854068009679497,0.4796217066450721,1.697244435235815,0.04502948693487685,0.8068471487374511,-1.1299016685839547e-05
-0.058869374608688574,0.8550026804434223,0.4824840758054121,1.6974011200663082,0.045285503153285944,0.8068705576649782,-1.1322859182705258e-05
-0.06141598580390362,0.8561874365597202,0.486143673982391,1.697577138953302,0.04561352715079625,0.8069161015855313,-1.136670918278071e-05
-0.06302067830256419,0.8569290972975043,0.488433690676775,1.697678573164814,0.045818690285610586,0.8069506013145329,-1.1384908437328534e-05
-0.06540406724791126,0.8580131083840064,0.4918017413760021,1.6978101477598555,0.04612075850226116,0.8070124653032567,-1.1411837422592441e-05
-0.067029469634722,0.8587486233773163,0.49408559233874083,1.6978916881534705,0.0463258359455061,0.8070599723122447,-1.1370948207911624e-05
-0.06874874146124554,0.8595204704349362,0.49648740774791733,1.6979699385143672,0.0465414588101396,0.8071149716316892,-1.1390659795829094e-05
-0.07041779972730389,0.8602654817546052,0.49880749228290533,1.6980389833020944,0.04674984533572424,0.8071726527491316,-1.1409567030717938e-05
-0.0726446958287168,0.861252170663052,0.5018843668267072,1.6981207672733722,0.0470259338554877,0.8072554248167094,-1.1484498614322547e-05
-0.07432786955953041,0.8619955031916788,0.5042018712794185,1.6981765955057941,0.04723458213242804,0.807322699404426,-1.1510996204222579e-05
-0.07645384366898167,0.8629317575542474,0.5071170096199378,1.6982403465904472,0.047496784727819374,0.807411624512997,-1.1534418038472438e-05
-0.07887903537030372,0.8639981081718355,0.5104307729034891,1.698305743860983,0.047794948253018,0.8075181766498574,-1.1561045570651629e-05
-0.08069407291620401,0.8647997946847772,0.5129068827214569,1.6983520910258836,0.04801747085925534,0.8076001375518347,-1.1576325475104454e-05
-0.08271723956561328,0.8656944789185621,0.5156634976491654,1.6984007723364671,0.04826555131062804,0.80769439728234,-1.1599505254977771e-05
-0.08518272347467892,0.8667897605053119,0.5190211819703832,1.6984582796545418,0.04856772211528071,0.8078115844082072,-1.1627346777842718e-05
-0.08756094852807816,0.8678548767438174,0.5222620736147592,1.6985137226693219,0.04885933323297742,0.8079263051993735,-1.1655225365281296e-05
-0.08900040301634693,0.8685035788458633,0.5242244446928064,1.6985464513652406,0.049036335408557896,0.8079975053656909,-1.1619376767413314e-05
-0.09055876566088283,0.869208451545294,0.5263475236651054,1.6985813153011904,0.049227353781886585,0.8080750651511828,-1.1637573232192722e-05
-0.09197181596850346,0.8698488992939906,0.528270909342452,1.6986117642826404,0.04940026060560854,0.8081465171617159,-1.1705853126819932e-05
-0.09350482046383579,0.8705448273579659,0.5303546720223382,1.6986424059080267,0.049587951415584364,0.8082259147847681,-1.1671315469641286e-05
-0.09483380762674809,0.8711482060517914,0.5321581956033352,1.6986673681409883,0.04975013493707703,0.8082959803405592,-1.1737905639463975e-05
-0.09699642337568903,0.8721265498323687,0.5350823735495993,1.6987014194992485,0.05001348507510528,0.8084140655518421,-1.1762396728620672e-05
-0.09854094722627771,0.8728264100122791,0.5371652093072372,1.6987224808753902,0.05020084780530798,0.80850054678998,-1.1782047115715955e-05
-0.10009019622274273,0.8735255786244949,0.5392475040348952,1.6987390885872058,0.05038854236879775,0.808590464284749,-1.1800208255863254e-05
-0.10161468396448914,0.8742103081156696,0.5412890552291181,1.6987506394480079,0.050572954282025684,0.8086822317779898,-1.1813693676643311e-05
-0.10332512301626462,0.8749760921996357,0.5435687782034222,1.698758143473417,0.05077841550370632,0.8087878099550583,-1.1838181933399028e-05
-0.1058016514530502,0.8760706297527818,0.5468438997656939,1.6987540849616813,0.05107434840847169,0.8089495008605851,-1.1864807073713735e-05
-0.10716582979946576,0.8766725761000886,0.5486408122532174,1.6987474714743866,0.051236833242521485,0.8090415451890758,-1.1880610970571581e-05
-0.10881090815848093,0.8773912404673059,0.5507949612601744,1.6987319974656891,0.05143209123783432,0.809157076788094,-1.189217407926435e-05
-0.11034118370445878,0.8780558563160961,0.5527874618570578,1.6987113711629274,0.05161276110654622,0.809267933945061,-1.1861204074925524e-05
-0.11302793713829207,0.879199667189777,0.5562458649421131,1.6986544018566754,0.05192618823052797,0.8094731498747976,-1.1945306091831753e-05
-0.11530030761404753,0.8801539944442505,0.5591431330376766,1.6985902878735901,0.05218958845015287,0.8096562182679401,-1.1969423502122822e-05
-0.1180044219277141,0.8812654689269932,0.5625477191439598,1.6984899939635083,0.05250022109406682,0.8098875165857358,-1.1942338613124548e-05
-0.11955424358702516,0.8818979778154814,0.5644857072745015,1.6984255835798736,0.052676900334464705,0.8100241122354719,-1.2003724185305487e-05
-0.1214342217619464,0.8826538627239904,0.5668142490303874,1.6983356273509163,0.0528894469239134,0.810195922079787,-1.2033464677152494e-05
-0.12417389807272716,0.8837238601968673,0.5701583814121776,1.698177492154879,0.05319616381259795,0.8104613379280856,-1.2049158222282585e-05
-0.12592687323098328,0.8844014198582153,0.5722795791953246,1.698066341166406,0.05339107971248236,0.8106368611961736,-1.2025420700112477e-05
-0.1279905495026279,0.8851822601941288,0.5747481056574353,1.697920621575495,0.05361822413470296,0.8108513877428223,-1.2042680484825041e-05
-0.12917572580772774,0.8856278206869899,0.5761571562487946,1.6978328925249437,0.053747642045563815,0.8109766694711835,-1.211056843075653e-05
-0.1312696243418383,0.8863944856883341,0.5786158188003867,1.6976609142194823,0.053974727836449965,0.8112074095581274,-1.2130418938660625e-05
-0.13372325950699615,0.887267773096788,0.5814555435654896,1.6974375716771144,0.0542380444447188,0.8114896994247136,-1.2137863262040582e-05
-0.13568996625759056,0.8879555216955994,0.583706262168664,1.6972455087749037,0.05444722067540919,0.8117230120697005,-1.2114831248410951e-05
-0.13822944853359775,0.8888163819639656,0.5865671004658859,1.6969750641626664,0.05471330715089451,0.8120356351854898,-1.2194010788668663e-05
-0.1408348958734278,0.889671970931488,0.5894562263437599,1.6966731071085501,0.054983840453457944,0.8123702269595707,-1.2160179849729502e-05
-0.14372284285480852,0.8905872484773196,0.592601282574817,1.6963101370566323,0.055279036106407275,0.8127557205631453,-1.2187079385661548e-05
-0.1453191685607731,0.8910864356143087,0.5943243749510376,1.696102202799067,0.055441074399954715,0.8129731061269556,-1.223735398525605e-05
-0.14736102967461662,0.8917084938266386,0.596499517414979,1.6958219689791525,0.05564612186046425,0.8132583777787303,-1.227262917158356e-05
-0.148803582180431,0.8921408146685978,0.5980231971014947,1.6956174260184085,0.05579030456342693,0.8134638298187333,-1.2285281034252193e-05
-0.1506594986862959,0.892682527223986,0.599959915002743,1.695342662070007,0.055974066531734756,0.8137342213907726,-1.23007443963985e-05
-0.15253209598611672,0.8932152283100843,0.6018910868396592,1.6950537542185247,0.056158267523323424,0.8140136463116932,-1.2260089338411717e-05
-0.15460900822383294,0.8937893354393438,0.6040043141432614,1.69472026203983,0.0563598756559589,0.8143300430049196,-1.2309467853022227e-05
-0.15636645848672703,0.8942648073188115,0.6057731766735808,1.694428788302587,0.05652926819839088,0.8146029011707894,-1.2321890826783033e-05
-0.15817673538787602,0.8947430981278242,0.6075741411517468,1.6941189030351982,0.05670197766056351,0.8148888206256117,-1.2354661835800584e-05
-0.1599260388539907,0.895193041062365,0.6092954863056308,1.6938096897765673,0.056868231246105516,0.8151710154530534,-1.2311826039557161e-05
-0.16161278129413947,0.8956169028984782,0.6109374350623575,1.6935039863766486,0.05702673287234017,0.8154468108948416,-1.2356326934970241e-05
-0.16315702374441354,0.8959978843660652,0.612426140539112,1.6932175923541068,0.05717069859991408,0.8157025988888877,-1.2387663734791943e-05
-0.16475188415291253,0.8963809548110193,0.6139482547460053,1.6929138428654227,0.05731900376178345,0.8159716971094726,-1.234270177796759e-05
-0.16629694672130135,0.8967181477431962,0.6153777006466195,1.6925850392674606,0.05746383962064705,0.8162066291041778,-1.235136058852504e-05
-0.1677838231817832,0.896916608347655,0.6166008997391144,1.6921358306842604,0.05761314514758098,0.8163108756960193,-1.2392616091538855e-05
-0.16956499640605838,0.8969471926438422,0.6178141275479652,1.6913841542165118,0.05780639163916579,0.8162512244950548,-1.2400997008832348e-05
-0.17049957122297066,0.8967814412362909,0.6182558129980134,1.6907509277298338,0.057916734473868914,0.8158780235168939,-1.2431798741552313e-05
-0.17158900709063385,0.8966542044681045,0.618849637417993,1.6900860556184982,0.05800728630171381,0.8155200602300647,-1.2384552069200083e-05
-0.17277823464985254,0.8965872862876907,0.619582092845266,1.6894384311901627,0.05806566055920559,0.8152048773604532,-1.2423553760854134e-05
-0.17395489117019025,0.8965384896528619,0.6203208131693287,1.6888251629443847,0.05809309702798693,0.814942590559796,-1.246623636763644e-05
-0.17485543090093003,0.8963067353620682,0.620631567892568,1.6882035114077336,0.058105373375429537,0.8147238504523333,-1.243158438501979e-05
-0.17546976989926932,0.8959757939617603,0.6206159190877267,1.6876451583652798,0.058104990479177054,0.814558365460984,-1.245653210624198e-05
-0.17602498745068118,0.8955093014307538,0.6203792621540822,1.6870108324300066,0.058096332263446904,0.8143976167578231,-1.246303538504634e-05
-0.17643219705401325,0.8950005432365833,0.6199869497684558,1.6864174133712773,0.0580826233674685,0.8142703048621236,-1.2409863072271321e-05
-0.17677924911846254,0.894426063832169,0.6194650596222235,1.6858042172557948,0.05806372019854855,0.8141554795511476,-1.2403018271101018e-05
-0.177075174975303,0.8938083443368443,0.6188501948904044,1.6851847265499087,0.05804124702335933,0.8140540676560182,-1.2414492391421561e-05
-0.17738967416551255,0.8930273249388616,0.6180282321381521,1.6844326446964164,0.0580110635057558,0.8139478791236243,-1.2442677955526449e-05
-0.1776257992714303,0.8923235258242199,0.61725512907356,1.683779761162457,0.057983337910125776,0.8138687102991611,-1.2374584124508203e-05
-0.17782933710366144,0.891648321047481,0.6164957171484087,1.6831667365180385,0.05795552835057549,0.8138022380119505,-1.2406217677174425e-05
-0.17804005508214082,0.8909016612090808,0.615642457266099,1.682497184693137,0.057924137877703785,0.8137383281559059,-1.241180390287866e-05
-0.17825428388990705,0.8900967910741961,0.6147138986651353,1.6817843327616933,0.05789061973446774,0.8136808441906354,-1.2426942839205424e-05
-0.17845359786772086,0.8893109234888943,0.6137967948082101,1.6810952655822256,0.057857075955983106,0.813632436224613,-1.2371634066532522e-05
-0.17864524003375948,0.8885283813529776,0.6128756050476065,1.6804137176871308,0.05782316075179672,0.813591281922105,-1.2373877041227388e-05
-0.17886665734126872,0.887610143356028,0.6117918981233066,1.6796187397583138,0.05778392586063941,0.8135537570101361,-1.2386651698115259e-05
-0.17903688763992598,0.8868749385015153,0.6109161827928817,1.6789867744433318,0.05775192702988452,0.8135284645030048,-1.2377616793735058e-05
-0.17922828643769062,0.8860464259770984,0.6099264187527131,1.6782770448400273,0.057715666199639415,0.8135063914762979,-1.2323622485155283e-05
-0.17943046681037078,0.8851628174836028,0.6088657480505022,1.6775225400827267,0.05767659060045904,0.8134894207321812,-1.2323279813486465e-05
-0.17962360562000956,0.8843050194631159,0.6078329971448024,1.6767933938184862,0.0576392222765687,0.8134800297734195,-1.225558154605011e-05
-0.17983364294184856,0.8833690500423623,0.6067022125663746,1.676000794951694,0.057597686604059284,0.8134758513943003,-1.2279296422335051e-05
-0.18002922139172917,0.8824841088918918,0.6056265660256264,1.675253689035455,0.05755801074430522,0.8134770804076368,-1.2241610286345406e-05
-0.18023694919779487,0.881540045480274,0.6044773414529816,1.6744592233393503,0.0575163213556813,0.8134856810561999,-1.2226402701820405e-05
-0.1804461511448201,0.8805817209794968,0.6033056120497893,1.673655394220285,0.057473377102108536,0.813499705268999,-1.220200955120987e-05
-0.18065162200461415,0.8796315281639675,0.6021396345707135,1.672861326181243,0.0574304802950758,0.8135188148364492,-1.2221193889772053e-05
-0.18090744745621024,0.8784579971351425,0.6006960993530628,1.6718819347656835,0.057377509638429025,0.8135510845377398,-1.2210519404476372e-05
-0.18114200845784634,0.8773595727309198,0.5993360709871256,1.6709689636218945,0.05732730251051432,0.8135870005430856,-1.2198893474923977e-05
-0.1813893260913817,0.8761947574973687,0.5978901176144928,1.6700037634105076,0.05727460197915679,0.8136330370591542,-1.2131239000012783e-05
-0.18159966637246683,0.8751829233227566,0.59662687518993,1.669169112675715,0.05722804357555056,0.8136766392227406,-1.2149653287885087e-05
-0.18181418848957698,0.8741879484094381,0.595384523258506,1.6683457871436325,0.05718208439694461,0.8137226607033954,-1.2107638710290303e-05
-0.18203972511749633,0.8731841197897152,0.5941354734271069,1.6675129206859136,0.05713655153827624,0.8137734419388263,-1.2094260768868992e-05
-0.18227947887767115,0.8721467802730318,0.5928446718952065,1.6666514004612534,0.057088901680597104,0.8138288214851199,-1.2133024125837721e-05
-0.18250030779830606,0.8712006303834672,0.5916641643500915,1.6658652451509566,0.05704515102607832,0.8138819596396552,-1.2118431700791632e-05
-0.18276331244702781,0.8700914168638025,0.5902812309734697,1.6649439650723696,0.0569945584523559,0.8139498848800448,-1.211674518586392e-05
-0.1830107024536698,0.8690772880239281,0.5890153457202416,1.6641013626171341,0.056946924383557196,0.8140177844730418,-1.2054780209602711e-05
-0.18330216199773464,0.8679884597171554,0.5876657856925585,1.663191465915995,0.056892673654332704,0.8141072922113128,-1.2069651938340087e-05
-0.1835969332217937,0.8669474402677873,0.5863819397651175,1.662321001931752,0.05683830688512881,0.8142107988519465,-1.2078058655440316e-05
-0.18390149208857487,0.8658728822362818,0.5850478051478545,1.6614278394473638,0.0567786933334995,0.8143337161491413,-1.203456439036188e-05
-0.1841214238061477,0.8649831722733294,0.583919745609502,1.6607047087850662,0.056729256560172026,0.8144486410939216,-1.2035387780606754e-05
-0.18429102791292973,0.8642116670306104,0.5829233662859226,1.6600874749248318,0.05668538904125864,0.8145521762178802,-1.2016250774848913e-05
-0.18446903390334768,0.8633180792807114,0.5817551923361739,1.6593803144940633,0.056634279259790254,0.8146750145488149,-1.2000133162715088e-05
-0.18469606567884878,0.8620759043979564,0.5801126900279963,1.6584065052343933,0.05656242750303164,0.8148504469516755,-1.196468426734043e-05
-0.1848984467119399,0.8608075191743101,0.5784123512600345,1.6574250851217718,0.05648891450561333,0.8150337852012237,-1.1956015010916587e-05
-0.18507313187349084,0.8595764860752988,0.5767403180391542,1.656481280972164,0.056416318471192994,0.8152139331223731,-1.191607908079817e-05
-0.1852023373266336,0.8585615600125376,0.5753490339496778,1.6557091806054949,0.056356680170872586,0.8153642943372947,-1.1831724224364848e-05
-0.18532938517709585,0.8575078003508141,0.5738943471609854,1.655709633125091,0.05629358554519115,0.8155210538647708,-1.1888785688363157e-05
-0.18544734130800045,0.8564727096879317,0.5724583552208173,1.6541300633839242,0.05623204244856694,0.8156771232218798,-1.1889539467624388e-05
-0.18552236040140446,0.8557595342377597,0.5714606285671033,1.6535939306750507,0.056188874059641236,0.8157842252814902,-1.184703071999138e-05
-0.18560272587874937,0.8549812925455518,0.5703703459492493,1.6530097860596422,0.05614242545945114,0.8159026960209879,-1.1774109492712626e-05
-0.18567482898818177,0.8542593856896792,0.5693547632744824,1.6524694547451313,0.05609866917376838,0.8160122926542108,-1.1844854238773905e-05
-0.18574226946775418,0.8535647370963195,0.5683731203761253,1.651949772531931,0.05605626293393762,0.8161181829146438,-1.1808102454047287e-05
-0.18597350703400917,0.8514452368975709,0.5653902090076519,1.6503593032197967,0.055928541854166625,0.8164544286777673,-1.1792501430463176e-05
-0.18603409993035314,0.8507036601798497,0.564327072306015,1.6498091733515512,0.05588315331570204,0.8165700676493879,-1.1696927765925125e-05
-0.1860969842253688,0.8499275805145086,0.5632121577644913,1.6492345210025556,0.05583528080619793,0.8166910522126827,-1.1769312154186196e-05
-0.1861456180346046,0.8493047869875463,0.5623141238278011,1.6487737245722522,0.05579684250841499,0.8167883567662297,-1.1757636899645263e-05
-0.18624998438689655,0.8480496627349527,0.5605036606229223,1.6478434552234917,0.05571910099077382,0.8169873769567291,-1.1706411720879828e-05
-0.18639611198223438,0.8463038198454527,0.5579780986829821,1.6465505052613807,0.05561148554851414,0.8172691266817864,-1.1610343237045129e-05
-0.18651940861781835,0.8448394199255178,0.5558473589848196,1.6454687605084573,0.05551809125709806,0.8175134206568639,-1.1661380298733093e-05
-0.18666722458308005,0.84338024195708,0.5537269263167133,1.644388170238475,0.0554200428014715,0.8177790189806657,-1.1634521731807013e-05
-0.18681642939314447,0.8419163690512583,0.5515861934760631,1.6433099858233433,0.05531683277884092,0.8180665355953236,-1.1583138636694912e-05
-0.18693986034202226,0.8401277813479764,0.5489185672252974,1.6420202803152373,0.05518940249796778,0.8184402749225779,-1.1548642113723417e-05
-0.18696119499279096,0.8387950850192656,0.5468758956672559,1.6410833705747576,0.055093110962202374,0.8187180126981124,-1.1465889113715377e-05
-0.18695691724084096,0.836966116313965,0.5440384860262135,1.6398100485993448,0.054959212134191304,0.81910054403901,-1.1509671412390787e-05
-0.18691770088487303,0.8358006796503803,0.5421974458823797,1.6390100169823345,0.054872789222143226,0.8193426034412594,-1.1443973627400794e-05
-0.1868605021172094,0.83445290549703,0.5400527933416939,1.6380885701532915,0.05477227827671349,0.8196228414593811,-1.1431755258861642e-05
-0.18674790347621073,0.8317876649303839,0.5357914891419036,1.6362671575214405,0.05457266581558162,0.8201839262804986,-1.1333635223209626e-05
-0.18662435105069708,0.8301226919079401,0.533075628642492,1.6351450459318126,0.05444624950257282,0.8205301772209355,-1.1379878634087959e-05
-0.18651026341950683,0.8287715560499462,0.5308502612464325,1.6342373296576485,0.05434266178536529,0.8208096536924234,-1.1288187439006947e-05
-0.18643350826588279,0.8279526698603217,0.5294912997425758,1.63368950883694,0.054279188924811095,0.8209773413044372,-1.1336471261280678e-05
-0.1863176515897571,0.8267010291770642,0.5274092618049551,1.6328510156378382,0.05418219504864208,0.8212349543546411,-1.128349057299971e-05
-0.18618613120114524,0.8253376001163186,0.5251269753603998,1.6319384441830334,0.05407563651278924,0.8215148553344598,-1.1209632168274197e-05
-0.1860089114710064,0.8235315510043746,0.5220904243765743,1.6307301371582437,0.05393466863323049,0.8218871964198087,-1.1182071419035822e-05
-0.18582161768151906,0.8217545721592305,0.5190758987673938,1.6295446333443024,0.05379393914766428,0.8222531714175583,-1.1224923603059267e-05
-0.18568200093293186,0.8202450637848875,0.5165068817281542,1.6285367004019413,0.05366785542848085,0.822584927483665,-1.1154592546525066e-05
-0.18554652061943067,0.8187394765821487,0.5139287413839977,1.6275344455540965,0.05353664232142208,0.8229339323356317,-1.107503773400964e-05
-0.18535494408277753,0.8171763350786421,0.5112047910839879,1.6265138124264134,0.05339940317709413,0.8233117593881678,-1.1056052410474138e-05
-0.18512783150856293,0.8156692178856053,0.5085364322959798,1.6255422033887283,0.05326501878673451,0.8236737782929016,-1.1099314217055678e-05
-0.18484559308893544,0.813966135312814,0.5054872607620471,1.6244500886330888,0.05311171571328721,0.8240815315295675,-1.100557067168495e-05
-0.18455124645743926,0.8122586195493087,0.5024051865673691,1.6233569233271128,0.05295705104567183,0.8244883770533757,-1.0969756915280016e-05
-0.18427108471266607,0.8105922582755785,0.4993844922210444,1.6222860423188763,0.052805544695786466,0.8248836056926532,-1.1000007156702907e-05
-0.18399364079802094,0.8088944303065349,0.49629040818397563,1.6211907532840133,0.05264963318612281,0.8252836013737648,-1.092831908966474e-05
-0.18372977079002073,0.807238810989447,0.49325799797044656,1.6201186773987653,0.05249665692483152,0.825671368263599,-1.0895850341974267e-05
-0.18346318721062183,0.8055152714407114,0.4900843426735042,1.618998242114043,0.05233604219111854,0.8260724910090547,-1.079919016166997e-05
-0.1831653776547677,0.8035019453864853,0.48636129169078224,1.6176838552992479,0.05214761224170861,0.8265391946113825,-1.0800348791306646e-05
-0.18292693829165962,0.8018637191252038,0.48331110275003564,1.6166111002815216,0.05199327311345581,0.8269152543284388,-1.0846755626126026e-05
-0.18269168879767772,0.8001962340049094,0.4801874545119764,1.6155156722736708,0.05183449321563671,0.8272946475545515,-1.0807736622986397e-05
-0.1824923895847146,0.7986165327766654,0.47721976693115487,1.614473224695784,0.05167995240156653,0.8276639106244659,-1.077473660071604e-05
-0.18232738334790977,0.7969873719713352,0.4741571290625828,1.6133920870486174,0.05151334481967407,0.8280651841718294,-1.0661967912106718e-05
-0.1821711366779697,0.7954012245195345,0.47115448685185957,1.6123436723333135,0.051347996193158885,0.8284741363750934,-1.0708132378134394e-05
-0.18203766072311645,0.7939320849267002,0.46835623625922373,1.6113706490384416,0.0511930304917918,0.8288558557652879,-1.0674005978650314e-05
-0.18190708854036508,0.7924340101206537,0.46548567445645084,1.6103758000517692,0.051033694109079875,0.8292424586377951,-1.0563183957756905e-05
-0.18178504624313963,0.7909758203834141,0.4626772376718691,1.6094056664473104,0.05087815288576181,0.8296164269962087,-1.0610883415473893e-05
-0.1816616237598776,0.7894203949008025,0.45966209698538485,1.608368395191052,0.05071055204166619,0.8300120250988998,-1.0566450215243606e-05
-0.18154685200002074,0.7879070905945627,0.45670876872423083,1.6073571835741145,0.050546133526675696,0.8303935109908851,-1.053447669185914e-05
-0.18142409619007793,0.7861599913909307,0.45327773084075496,1.6061869429786473,0.05035474987583033,0.8308304396781301,-1.0498650527601683e-05
-0.18130741103361014,0.7843886112109049,0.4497721216349069,1.6049976910443018,0.05015899927749157,0.8312690261102151,-1.0471587037486074e-05
-0.18120913393660487,0.78283293005122,0.44666632501463344,1.6039515944943883,0.049985276187900496,0.8316493263437659,-1.043280509094302e-05
-0.18110789000835759,0.7810828830747978,0.44314778106339237,1.602772263003553,0.04978820988641619,0.8320731389010652,-1.039629997734437e-05
-0.18101596839523637,0.7793789639699291,0.43969052433822675,1.6016218345072417,0.04959404607589768,0.8324803377719281,-1.0286137261950046e-05
-0.1809292433933969,0.7776185228035866,0.43609097676723696,1.6004314721359547,0.04939218203637097,0.8328963658350785,-1.0324819563756193e-05
-0.18086093398367975,0.7761708640096545,0.4330993316514258,1.5994517922859828,0.049223738076796586,0.8332323944273323,-1.0294607087679708e-05
-0.1807938829455784,0.7746004604399417,0.4298298763917332,1.5983873429970963,0.049039575109925515,0.8335930117679737,-1.0264094354006659e-05
-0.1807351209127912,0.7731067818102968,0.4266922791778116,1.5973738552287093,0.048862615627199624,0.833931043405225,-1.0233458056063682e-05
-0.18067921427607825,0.7714944280747433,0.42327572043538275,1.5962782093156562,0.048669494726967244,0.8342909413122142,-1.0123403604289649e-05
-0.18062905195030776,0.7698291342600809,0.41971684092511996,1.595145688939846,0.048468667818379885,0.8346574377307414,-1.0165266293604702e-05
-0.1805885408709198,0.7683387655133656,0.41649638840729786,1.5941315064647554,0.04828640065165679,0.8349789099695935,-1.0135208896144832e-05
-0.1805561323269398,0.767018872152935,0.41361584176084687,1.5932331571109275,0.0481230739715377,0.8352582503801766,-1.0111447804384e-05
-0.18052568235635835,0.7653941596356839,0.4100425653032227,1.592125946735143,0.047920474573632355,0.8355978174538361,-1.0079072443325288e-05
-0.18050221379053166,0.7636288300375931,0.4061188452595186,1.5909220073821198,0.04769779541947905,0.8359596629612049,-1.0043902987533215e-05
-0.18048622624072586,0.7623445900314678,0.40322674242156786,1.5900467033546422,0.04753344422303574,0.836215681998099,-1.0018556363178277e-05
-0.18048000501419192,0.7603361106612594,0.3986691789473289,1.5886755551015446,0.0472744860053389,0.8366112889327324,-9.97548507175594e-06
-0.18048420710184399,0.7583851085609234,0.3941742722175583,1.5873441041956067,0.04701856551371897,0.8369830741581019,-9.941545949132546e-06
-0.18050276211074134,0.7562806171886702,0.38925523837368203,1.5859077054087427,0.046738491817714944,0.8373720522923547,-9.894025682299912e-06
-0.18051663177810529,0.754825488995948,0.38579144565494516,1.5849164763394699,0.046540929458973146,0.8376288469414996,-9.865944426756812e-06
-0.1805493202002273,0.7529513968381707,0.3812792769179483,1.5836397107891331,0.04628348250607317,0.8379510853412055,-9.829843428121876e-06
-0.1805873989089939,0.7512201600675974,0.37704110024867354,1.5824620677819095,0.04604137676223985,0.8382357807776133,-9.814554708498235e-06
-0.1806194479994332,0.7498797160788797,0.37370575363876046,1.581552016266098,0.04585077307305596,0.8384461348237577,-9.789374025181985e-06
-0.1806588327268912,0.748500171076218,0.37022813144302624,1.58061627459497,0.045651743856488736,0.8386546397843064,-9.677808259667131e-06
-0.18070365747856254,0.7471366046292536,0.3667481721055035,1.5796931383445942,0.0454530658850274,0.8388529772580915,-9.7181234197663e-06
-0.18074494894941928,0.7459810355042826,0.3637547775056733,1.578912488471511,0.04528171571002648,0.8390126071271435,-9.715172525126547e-06
-0.18079141864776105,0.7448117365651239,0.36068976938791053,1.5781236962431482,0.04510633923490559,0.8391677722398718,-9.695134550291584e-06
-0.18084778284928227,0.7435514328757016,0.3573432590927581,1.5772747063588177,0.04491461663680063,0.8393274305786109,-9.584201347223598e-06
-0.1809104533129693,0.7422805103990271,0.3539252156227306,1.5764208157382074,0.044719328370273814,0.8394805421722902,-9.62905323032004e-06
-0.18095113207209756,0.7414644855129904,0.35169449897810345,1.5758744259455595,0.04459152134912259,0.8395717216564931,-9.63291914768405e-06
-0.18102718254154304,0.74014753312954,0.3480634482165783,1.5749932141693863,0.044383715906938015,0.8397141730683204,-9.610629751577449e-06
-0.181088365296886,0.7391271614104138,0.345201207438361,1.574312678820121,0.04421966539901945,0.839815420511929,-9.503910967545437e-06
-0.1811659886443655,0.7379459814960345,0.341847849769108,1.5735270647467292,0.04402776298455002,0.8399254251731927,-9.483263871956638e-06
-0.18126018018845436,0.736635507503772,0.33807270563272507,1.5726583239140712,0.04381209428568589,0.840037736339589,-9.527431506839434e-06
-0.18134905245177002,0.735468445016827,0.334647133519022,1.5718879578468883,0.0436161323565738,0.8401259290872742,-9.50712759628658e-06
-0.18144007204554935,0.734343877585296,0.3312909350385995,1.571148732410375,0.043424186958898936,0.8402007525451216,-9.487670140195803e-06
-0.18162864477776086,0.7329498887525983,0.32709867172125673,1.5702243060274492,0.04316877403066588,0.8402755944290732,-9.463646789775737e-06
-0.18201400925794875,0.7319066084475825,0.3239484754889288,1.5695532656382625,0.04291568222077835,0.840482526308918,-9.44326344320956e-06
-0.18241279083834883,0.7307024981514996,0.3201538074289907,1.5688423486050116,0.04258958543971669,0.8408661275451461,-9.417042747372761e-06
-0.18280569644856293,0.7296362143542732,0.31671144867434364,1.5682299298169902,0.04229144220843395,0.8412385549526364,-9.417436159786519e-06
-0.1833216822839585,0.7282796928003368,0.31223687142995793,1.5674612673016552,0.04190364408454439,0.8417055546517664,-9.3882966210046e-06
-0.18360972042385715,0.7275278930329936,0.3096798956431792,1.5670444620808137,0.04168148697775553,0.8419584906040773,-9.347042988494536e-06
-0.18399547301821073,0.7265468733125431,0.3062852662006934,1.5665072458097082,0.041386255082603185,0.8422840718620925,-9.327431342853743e-06
-0.1842541960717563,0.7258971036596762,0.30397870941415395,1.5661580475465415,0.04118496876543265,0.8424951432467784,-9.241796266046265e-06
-0.1845720319666908,0.7251127478825392,0.3011556934856472,1.5657417606156763,0.040939151576357524,0.8427472108451584,-9.29558991824564e-06
-0.18477925740758572,0.7246077882093589,0.29929469146667564,1.5654784312058716,0.04077634967940558,0.8429060016768695,-9.213499983395934e-06
-0.18500091742380498,0.7240740387896096,0.29730378855915873,1.5652032718227478,0.04060241284862176,0.8430721223426927,-9.202930247198537e-06
-0.18525903960535306,0.7234619010903334,0.2949894438229572,1.5648916672607642,0.040400424171362914,0.8432603976287991,-9.24672080060418e-06
-0.1855615235885857,0.72276031133977,0.2922861374920611,1.5645403026523965,0.040163913012671415,0.843472109594555,-9.273366337048117e-06
-0.18586350294103315,0.7220732558005469,0.28958019100550025,1.5642026833918878,0.039926837511821134,0.843675206033665,-9.176226815732491e-06
-0.186113627413512,0.721511653111726,0.28732452574182066,1.563932885588338,0.03972937399215937,0.8438376616379673,-9.247338097928548e-06
-0.18635605483554762,0.7209768545089243,0.28513164609982766,1.5636805017952211,0.03953689573070207,0.8439891454908048,-9.144551691875336e-06
-0.18659092883727357,0.7204657033912101,0.28300230991844355,1.5634441961011438,0.0393502829990906,0.844131213267036,-9.224209893687885e-06
-0.1868764535441949,0.7198569710198948,0.28041845448594227,1.5631680195914983,0.039123570195006785,0.8442969787050743,-9.18178234066147e-06
-0.18711791312817017,0.7193512291363913,0.27822154190673754,1.5629448429127608,0.038930485335363585,0.8444305972775972,-9.201142050940803e-06
-0.18737330692894982,0.7188260438103073,0.27589363027350267,1.5627182325240243,0.03872567590650444,0.8445660528179131,-9.093731014431228e-06
-0.18765717455154807,0.7182526286215838,0.27330526915336684,1.5624773960073668,0.03849839256001353,0.8447103695479647,-9.146298715734247e-06
-0.18795509375491815,0.7176659367677862,0.2705854217060679,1.5622390328494244,0.03825881227155481,0.8448524436985592,-9.06842398507024e-06
-0.1881582909554469,0.7172699439399519,0.2687078907334133,1.5620839676848561,0.0380937835907984,0.8449452084485438,-9.126190981589843e-06
-0.18836844503000183,0.7168684943686063,0.26676474501722236,1.5619313810667208,0.03792251405780522,0.8450360015788965,-9.149964586008252e-06
-0.18858513278052946,0.7164611346842165,0.26475592144526505,1.5617810579879974,0.03774549687046047,0.8451254606676377,-9.141589409900064e-06
-0.18895262260764945,0.7157902073256164,0.2613811813696616,1.5615416058845222,0.03744818068020983,0.8452678690514732,-9.127978860767882e-06
-0.1893694775010264,0.7150543529198155,0.25754869460171737,1.5612953057148413,0.037110397378450344,0.8454140732666193,-9.113174010977332e-06
-0.18979120734227717,0.7143357857554999,0.25364905498136814,1.5610744721223373,0.03676651462503955,0.8455448420976701,-9.111774528669514e-06
-0.19014551095868182,0.7137513534359812,0.25033445552856026,1.5609128154738086,0.03647389465867068,0.8456401524604438,-9.05824037733538e-06
-0.19048362924701667,0.713211054312727,0.2471492011236336,1.5607785777821883,0.036192679391971794,0.8457191060180778,-9.087791656980926e-06
-0.1908268741340926,0.7126805249325505,0.24389795398524594,1.5606623341350758,0.03590548360040202,0.8457871566476731,-9.077595527706706e-06
-0.19114698030066712,0.7122019112421176,0.24084164116896734,1.5605730305662204,0.03563539971845042,0.8458391249185846,-9.068491887198604e-06
-0.1915280293343855,0.7116537985108478,0.23719800192781637,1.5604889131216426,0.035313403742302185,0.8458877290722233,-9.058199207601092e-06
-0.1918299767531293,0.7112351352893231,0.23427137036550594,1.5604428590255752,0.03505463363858574,0.8459138586948223,-9.050536308841117e-06
-0.1923242500226623,0.710583107706646,0.22951740992005298,1.5603960321811847,0.034634507696015504,0.8459397750487243,-9.038870714128677e-06
-0.19276432512929542,0.7100352112331905,0.22522111180352145,1.560395058099191,0.034254679622192086,0.8459385170360303,-9.02927361856598e-06
-0.19307113762196426,0.7096719626819281,0.22216476597769041,1.5604208978880951,0.0339843280534291,0.8459217732430151,-9.023174897038189e-06
-0.19347579709665474,0.7092180790672931,0.2181309223798351,1.5604801272478612,0.033627418638287665,0.8458846682931132,-8.912834566388028e-06
-0.1939024625601542,0.7087684273710231,0.21383773908223258,1.560577652374386,0.03324813330898646,0.8458252936024397,-8.961903509963065e-06
-0.19417385090108663,0.7085006265640965,0.21104455835864933,1.5606657814732428,0.03300098666964235,0.8457717150990609,-9.003852988520578e-06
-0.19445561228746477,0.7082366740102586,0.2081220971102251,1.560774222636291,0.03274254165754087,0.8457062073956134,-9.000754648269549e-06
-0.1946779046287901,0.7080399686139325,0.20578571411740576,1.5608748062153328,0.032535719097151805,0.8456454502313333,-8.894149340576973e-06
-0.19495480196559356,0.7078061742446806,0.20286542637898375,1.5610137442430227,0.032277855911123865,0.8455623210617151,-8.948783837503527e-06
-0.1952166979458987,0.7076000893540186,0.200076407000779,1.5611634850530915,0.03203125349897551,0.845472547365242,-8.992067172641782e-06
-0.19553773515647777,0.7073651319927654,0.19663907274132963,1.5613671513020693,0.03172758312985646,0.8453508950660336,-8.98993121190017e-06
-0.1957754605734463,0.7072063546803902,0.19404765295240978,1.5615386951214019,0.03149847087587876,0.8452484333476233,-8.88335628523862e-06
-0.19608309828980364,0.7070158117159595,0.19067939909835374,1.5617787628124518,0.031201396918412172,0.8451058814193315,-8.939957318432334e-06
-0.19630952584728867,0.7068913003834885,0.18815609629316032,1.561976287385538,0.03097837172053186,0.844988243412609,-8.88012348454481e-06
-0.19656282357031873,0.7067636453445454,0.18531070434110664,1.5622128918098257,0.03072752606950857,0.8448480671360024,-8.984988727256393e-06
-0.1966922687984578,0.7067054676174029,0.18382530704388866,1.5623445812165526,0.030596583290455115,0.8447701207888327,-8.938357583865297e-06
-0.19680977939425937,0.7066572884573441,0.18246964038324265,1.562469409241305,0.030476716375455126,0.8446958998077774,-8.877195445400332e-06
-0.19693763515541107,0.706606851883202,0.18098546215056377,1.5626092755922079,0.030346143009235327,0.8446134075674587,-8.93894601272649e-06
-0.19705925739281316,0.7065637092203882,0.17956639359750248,1.5627478351621846,0.030220945182889203,0.8445313493974433,-8.985828430674303e-06
-0.19720218014199542,0.7065178558317173,0.17788955187185262,1.5629161681749073,0.03007298108004619,0.8444316894086805,-8.87972347030086e-06
-0.19744398459917178,0.7064479159260566,0.1750518886861805,1.5632101107851142,0.02982336727739554,0.8442584680605423,-8.940341395202722e-06
-0.1976825557107551,0.706394665570774,0.17221656732090018,1.5635202429175425,0.029573803995138093,0.8440756270043313,-8.942172103232338e-06
-0.197896094466536,0.7063607990788467,0.1696416641462264,1.563816631832923,0.02934717895872918,0.8439009691760218,-8.990032200451026e-06
-0.1981766076388567,0.7063336821869619,0.16623133541248247,1.564226617618404,0.029047197594401553,0.8436596536974132,-8.901966231711356e-06
-0.19840954584885306,0.7063286052678839,0.163340024242987,1.564593137338746,0.0287934959367675,0.8434446273458915,-8.94358851688537e-06
-0.19858718783655238,0.7063378526508401,0.16109418738060555,1.564891047417527,0.028596250076600604,0.8432697322854388,-9.019251637099046e-06
-0.19881343573445243,0.7063624288113557,0.15820824704351377,1.5652865302501402,0.028343058604853866,0.8430378721274465,-9.023330114210637e-06
-0.19899561439660385,0.70639582257059,0.1558384266775823,1.5656244640953547,0.02813535570186776,0.8428400020828377,-8.953181040105562e-06
-0.1992295356807361,0.7064533096717645,0.15276622126825323,1.5660772204721365,0.027866216999112403,0.8425750978361304,-8.957239326257138e-06
-0.19956160133316825,0.7065624658986973,0.1483536386404758,1.5667546742625715,0.027480091161151243,0.8421792504421353,-9.078514783489311e-06
-0.19982641716647365,0.7066833685113005,0.14471632053465644,1.5673440456739058,0.02716218994965569,0.8418353375137215,-9.137056448338399e-06
-0.20002045932093804,0.7067928431116774,0.14197758220808332,1.5678068262841753,0.02692297116258846,0.8415655139851328,-9.051627122502737e-06
-0.2002461511444631,0.7069407940446943,0.13873318524239586,1.5683725852594899,0.026639811199647312,0.841235686985236,-8.960497090093611e-06
-0.20056775049221542,0.707183419306114,0.1340309710375598,1.56922183347743,0.02623023004610303,0.8407412035871102,-9.060765597368459e-06
-0.20078771334529222,0.7073863986865909,0.1306726007740835,1.5698582685401394,0.025938053780640402,0.8403708938576315,-9.088294159020904e-06
-0.2009562492129371,0.7075625081921064,0.1280162553855675,1.5703781519951452,0.025707439333042537,0.8400692596387183,-9.021661387720314e-06
-0.201124875119719,0.707758019528641,0.12530053292879817,1.570924040594126,0.025471411442394398,0.8397522526115848,-8.983139164975285e-06
-0.20135489301546627,0.7080479104737236,0.1215162106813299,1.5717034928929374,0.02514354965821841,0.8393005084932206,-9.101824469226472e-06
-0.20153896202922716,0.7083123299829781,0.11836966410488703,1.5723734889563499,0.024870845480707615,0.8389122450514908,-9.300205471518552e-06
-0.2018586008089338,0.7088137325608654,0.11277654060537223,1.5735984656863264,0.024387538950407794,0.8382040118914524,-9.139461943696858e-06
-0.20198457516578472,0.7090509001758765,0.11039827481807585,1.5741435933494374,0.024182640533255473,0.837889162110061,-9.06223199326206e-06
-0.2021757644005664,0.7094354001326826,0.10671022474126612,1.5750050795385766,0.023864829291171397,0.8373921442904964,-9.147539079989997e-06
-0.2023950611334513,0.709926993578013,0.10228233662167074,1.57606856272543,0.02348418226166249,0.836779286029806,-9.231705054624229e-06
-0.2026012798986665,0.7104519853602236,0.09786729420904106,1.577164136636454,0.023105097718635115,0.8361489421385331,-9.205227013531214e-06
-0.20274728484406612,0.710876275118201,0.09451981856491809,1.5780206860960986,0.02281819932944451,0.8356568485224525,-9.162047032162945e-06
-0.20288230003579955,0.7113114487946222,0.09124242368665758,1.5788784996357377,0.022537916688723847,0.8351645759172062,-9.280473237005538e-06
-0.20300384628241197,0.7117476335479784,0.08809675323712174,1.5797198182952839,0.022269846683122374,0.834682423529526,-9.482775286784317e-06
-0.2031192585414372,0.7121980630330969,0.08495751441877619,1.5805766954273652,0.02200205873380323,0.8341915835083986,-9.272045573105459e-06
-0.20320574260246804,0.7125738442442788,0.0824400380483894,1.5812768341126047,0.021787807321377528,0.8337909112430104,-9.245867911289452e-06
-0.20331310518013002,0.7130822284502081,0.0791308913531692,1.582211125343714,0.02150663565035238,0.8332565207443068,-9.26355984542937e-06
-0.20344106432606868,0.7137644533362719,0.07485258635212588,1.583442728893763,0.021143628797975822,0.8325524285907164,-9.185811487455453e-06
-0.2035472809055232,0.7144330392671261,0.07083251545974445,1.5846278988555031,0.02080370031230938,0.8318769894492046,-9.340486407438675e-06
-0.20364881944324242,0.7151898069146254,0.06646133364682427,1.585944940104799,0.02043462289432263,0.8311271090718666,-9.324077193006985e-06
-0.2037219918479538,0.7158662445090167,0.06271134307082882,1.5871006953414595,0.020118979208797683,0.8304702073583536,-9.285592756036465e-06
-0.20378130903540725,0.7165407372645882,0.05909397976639408,1.5882369406247028,0.019814949429115103,0.8298250167883756,-9.359252923779593e-06
-0.20383260286616522,0.7172917076514089,0.055187943725580446,1.5894851148352522,0.019487499302297984,0.829117189247734,-9.3807859338213e-06
-0.2038782851673222,0.7182546065552255,0.05033804327035618,1.5910630845910312,0.019081675024215095,0.8282236598432444,-9.301739055445069e-06
-0.2039050357567671,0.7194203046504644,0.04467693175192,1.5929443001367662,0.018609633804318015,0.8271597937861825,-9.356952424433018e-06
-0.20390309107963045,0.7202725723194048,0.04070509669990319,1.5942961542972887,0.018280056159519553,0.8263970540611139,-9.528794157276366e-06
-0.20388922321523317,0.7210294442617577,0.037279349882727075,1.5954814812701397,0.01799581790624938,0.8257286353229407,-9.511226132019601e-06
-0.20387002081429895,0.7216134504378093,0.03468897792517556,1.5963899846060574,0.017781693258553943,0.8252171765984215,-9.397525579046828e-06
-0.20384645295975634,0.72213886700324,0.032399044935970345,1.5972005223203354,0.017593068955137348,0.8247615691167711,-9.635765207072211e-06
-0.20379876456005785,0.7230104466521201,0.02865107848231041,1.5985376407926069,0.01728424108100235,0.8240098563021476,-9.501131765787818e-06
-0.20375682173937815,0.7236230022912578,0.026083632645961252,1.5994663386553984,0.017072986262541612,0.8234879647846647,-9.54591643509417e-06
-0.20370041184197252,0.7243262059953137,0.023174160608877337,1.6005274932407945,0.016834287778904944,0.8228927615834634,-9.576278320544418e-06
-0.20364052231239071,0.7249819060376099,0.020505508768490444,1.6015100376188087,0.016615664898782967,0.8223420518814795,-9.590155852556848e-06
-0.20358859847362698,0.7254856631997608,0.0184810677096916,1.602262172727765,0.01645078317029558,0.8219209821939284,-9.71987274311914e-06
-0.20351713745847722,0.7261402782706998,0.015883783150702158,1.6032328695826115,0.016238563793256056,0.8213772174280392,-9.533718943188774e-06
-0.20343746329134138,0.7268016313824761,0.013294291245656176,1.6042077792351357,0.016027736611455623,0.8208316647527303,-9.574823013558387e-06
-0.20335832819409294,0.7274102426280233,0.010941596701780298,1.605100298043305,0.0158364183530475,0.8203324612530096,-9.552030560300295e-06
-0.2032453886269474,0.7282032257478619,0.007909147939272998,1.6062574279804043,0.015590728301855705,0.819686973847439,-9.694749589783669e-06
-0.20313479202844498,0.7289296822533702,0.005171650451891274,1.607311030565767,0.015368893973445985,0.819099158226237,-9.732256654793048e-06
-0.20298898094458018,0.72981660800746,0.0018755856235088686,1.6085877829181783,0.015102372149719656,0.8183872180094731,-9.704052289727372e-06
-0.2028497514892491,0.7306037166264705,-0.0010119504517369649,1.6097154618983787,0.01486965537283158,0.8177590394261944,-9.735721970827171e-06
-0.20272999648841505,0.731243290859247,-0.0033260454328098987,1.6106256526012581,0.014683493524920266,0.817252965545773,-9.73294934603075e-06
-0.2025972735281396,0.7319184518716852,-0.005746124701193622,1.611582206122554,0.014489163826506335,0.8167213569291638,-9.771532197611066e-06
-0.20245314320986907,0.7326147259896318,-0.008213868526667945,1.6125630504251527,0.01429176968221757,0.8161767866351237,-9.758232480727713e-06
-0.20235497459111595,0.733073426338068,-0.009837994730998112,1.6132113841619544,0.014161740238861853,0.8158168948348026,-9.744780149034682e-06
-0.20227394725174452,0.733441927642799,-0.011122471433628434,1.6137263774171098,0.014059333052033551,0.8155312183946055,-9.827846099597082e-06
-0.20200305691166154,0.7346086915661214,-0.015187133854742463,1.6153558121370297,0.013734583246967524,0.8146266682930747,-1.0000157579348468e-05
-0.2018819242490819,0.7351100387460416,-0.01690674420040228,1.6160517176237077,0.013597627903503273,0.8142408685130356,-9.881961949176343e-06
-0.20172293300784272,0.7357433409283027,-0.01906511847297665,1.6169269787933578,0.013426274065967192,0.8137567374400767,-9.861795623677949e-06
-0.20154473453746036,0.7364275685902504,-0.021382927703771593,1.6178701756589344,0.013242336757172346,0.8132350811962183,-9.856492791726623e-06
-0.20134569504224942,0.737165138956839,-0.023858306711401767,1.618881133544786,0.013045979017996423,0.8126759157208481,-9.802959926474841e-06
-0.20107132991790788,0.7381342586633819,-0.027091406558072073,1.620204326686177,0.012790339742091206,0.811944672301883,-9.843814324561606e-06
-0.2007006763568917,0.7393707681546262,-0.031180856671559454,1.6218829855079226,0.012467696340126011,0.8110174148466083,-9.869317669775057e-06
-0.20038094497599346,0.7403841148284744,-0.0344909284717847,1.6232490715798464,0.012207394729743193,0.810264550956874,-9.895041552354655e-06
-0.20001657077932933,0.7414842665846564,-0.03805551731883039,1.6247241975344346,0.011927662321044252,0.8094522945715577,-9.920277038943937e-06
-0.19975152050511014,0.7422551754374522,-0.04052944526767366,1.6257523269286676,0.011734360340053485,0.8088871192006755,-1.0058717595740063e-05
-0.19934792106414445,0.7433791744228317,-0.04411694687543921,1.6272435924402266,0.011454211149205307,0.8080672942355545,-1.0046127850493747e-05
-0.19881951238869,0.7447731149691004,-0.0485357231554886,1.629080558072987,0.011109818092859491,0.8070580006760348,-1.0069938944923251e-05
-0.19827310202754234,0.7461371627911069,-0.05282062830506895,1.6308658769748519,0.010777004423933256,0.8060782608918622,-1.0039462220667872e-05
-0.1978211045253424,0.7472190064800932,-0.056187977689618585,1.6322712000045456,0.010516202275333342,0.8053083453527003,-1.0059007410134768e-05
-0.1974322748351902,0.7481153196557644,-0.05896349131170542,1.6334307654824514,0.01030247744533419,0.8046740643873322,-1.0143937080542287e-05
-0.1969529110190411,0.7491809660613216,-0.062247653185374396,1.6348011047295499,0.010049439901882451,0.8039245579483625,-1.0253173456931108e-05
-0.1965115766535357,0.7501285336057384,-0.06515351903884437,1.636012774840517,0.009826244018577235,0.8032625940959184,-1.0194868037771698e-05
-0.19635114024586375,0.7504692542869549,-0.0661886357724244,1.6364459114554144,0.009746661696496517,0.8030259820698085,-1.014820283629092e-05
-0.19547745879805767,0.7522138157409017,-0.07153921693312348,1.6386604646357208,0.009336490415149612,0.8018163336691515,-1.025891923944755e-05
-0.19498838071410773,0.7531575812060458,-0.0744030947202754,1.6398477793068844,0.009117913862013438,0.8011688204940794,-1.0258074456537258e-05
-0.19450245641758457,0.7540668481819761,-0.07715278122821445,1.6409852506038458,0.008908191628920648,0.8005489277592162,-1.0233244501556271e-05
-0.194115246274996,0.7547723889751312,-0.0792831199689994,1.6418647624111316,0.008746497733478797,0.8000703520943651,-1.0386849218058103e-05
-0.19334093505075334,0.7561226958017091,-0.08336889275978177,1.643538865302152,0.008436124222119368,0.7991586296923057,-1.0430293792218492e-05
-0.1926366000640547,0.7573024444327974,-0.08692823718344034,1.644990271464196,0.00816673826551817,0.7983689452630403,-1.044126850491267e-05
-0.19197039446799558,0.7583792654199559,-0.09016984356769342,1.646305038341536,0.007921598637981475,0.7976547191723347,-1.0401314286312413e-05
-0.19145465483829582,0.7591873900530279,-0.09260181538487444,1.647288827988712,0.00773857296867142,0.7971208255879825,-1.0390862178688565e-05
-0.19111268315083052,0.7597163920846759,-0.09418588183589094,1.6479278368318768,0.007618988301163476,0.7967740964409673,-1.034660715237834e-05
-0.19056610216486192,0.7605349985285601,-0.09665087824026664,1.6489157316544505,0.007434162671182243,0.7962386899210818,-1.04633261370779e-05
-0.18991635310407595,0.761480019070186,-0.09949716493792415,1.650048984201149,0.007220399647118292,0.7956241993498727,-1.0567668948802122e-05
-0.18919092637433454,0.7624993289457258,-0.10257268052128232,1.6512637399786962,0.006989929469122025,0.7949657989646495,-1.05957946958668e-05
-0.1883000401340107,0.7637022015461623,-0.10621207333433347,1.652685772862026,0.006717568192201817,0.7941952834111001,-1.0593034645012267e-05
-0.18765491450393768,0.7645469390112076,-0.10877067192297485,1.6536795423424477,0.006526735394433381,0.7936571674893749,-1.056888875528017e-05
-0.18703321126229522,0.7653400668770551,-0.1111750268052063,1.6546061404946633,0.006347440118991798,0.7931561437123209,-1.0661258553312791e-05
-0.18650154157317544,0.7660030076285471,-0.11318694443661848,1.655376501927437,0.006197765825242563,0.7927398778716652,-1.0673953704909422e-05
-0.18531177830704593,0.7674156829924952,-0.11751718636710073,1.6570069612532743,0.0058753790192875854,0.7918581361867121,-1.0711563318110962e-05
-0.1845475752499759,0.7682965262273118,-0.1202140683040529,1.658013385330701,0.005675179071515046,0.7913146082258695,-1.0717691732331502e-05
-0.1837670766651831,0.7691684357934969,-0.12289885776686837,1.6590034387571961,0.005476173879673141,0.7907802240734849,-1.0586726966188564e-05
-0.18333672657053324,0.7696410156329927,-0.12435411850221989,1.6595373033401613,0.005368603903053604,0.790492416495213,-1.0653461237630779e-05
-0.1828305020507761,0.770186579000832,-0.1260391200937523,1.6601507359508636,0.005244090122487499,0.790161714717498,-1.064963170005484e-05
-0.181969556252489,0.7710850862354093,-0.12883427804287262,1.6611550300683806,0.005037511432321118,0.7896200511168763,-1.0673992898446727e-05
-0.1811644056668298,0.7719010181586494,-0.13138421763745178,1.6620600864101833,0.004849318638620481,0.78913218228021,-1.069760278049614e-05
-0.1802067994379497,0.7728387491291349,-0.13433573699752266,1.6630919141505744,0.004631632737993385,0.7885760202484278,-1.0723161011583215e-05
-0.17924346296389881,0.7737508157128543,-0.13722551359307467,1.6640865614981015,0.004418746357147008,0.7880401461223405,-1.0749453970504419e-05
-0.17824352989008307,0.7746649210211354,-0.14014518341701887,1.665074766719652,0.0042040544795973744,0.7875081670833888,-1.090920560997688e-05
-0.17728696921369913,0.7755122261299334,-0.14286818094808051,1.6659817949779274,0.0040038915334843495,0.787020022843949,-1.0960441664487064e-05
-0.17591296908175558,0.7766753556521522,-0.14600836312832932,1.6672127079700667,0.003725594525503695,0.7863573875883567,-1.0850360472325349e-05
-0.17497954214938094,0.777443433413409,-0.14916682886302102,1.6680158854631237,0.0035410052700761696,0.7859253490181901,-1.0851943960332733e-05
-0.17469405675074867,0.7776752561351579,-0.14992768359379305,1.6682574974430011,0.003541217158822718,0.7857959231346312,-1.0992942761411939e-05
-0.1744071178202775,0.7779069247452188,-0.1506875343269103,1.6684977161815358,0.003429913984156485,0.7856670314288365,-1.099993316877601e-05
-0.17401631015156127,0.7782193278414287,-0.15171375079101956,1.6688200025972701,0.0033546053528654696,0.7854938643224294,-1.087573949032361e-05
-0.17320682919236496,0.7788475439549627,-0.1538029632572977,1.669465481956526,0.0032018906918107604,0.7851475821993397,-1.0936633146663155e-05
-0.17229771526796966,0.7795345977346493,-0.15610460655250602,1.670164788238628,0.003033249651261727,0.7847721217739867,-1.1046078397747294e-05
-0.1715180764591704,0.780109964207341,-0.15804481641132107,1.6707450896345497,0.0028912843142281375,0.7844608192285474,-1.1061723007799174e-05
-0.17081907587586986,0.7806158873129414,-0.1597589493257363,1.671250805853112,0.002765722959450656,0.7841894424584899,-1.0943001592877977e-05
-0.16985494894418363,0.7812918974289573,-0.16207836385148955,1.6719212974220543,0.002596350595775121,0.7838301757071626,-1.1006004230651456e-05
-0.16904456875021,0.781847651000267,-0.1639967826979971,1.6724669397095928,0.002456000869885955,0.7835377366450347,-1.1111290807441776e-05
-0.16831827063140548,0.7823360617037931,-0.1656917348621958,1.6729417108879083,0.0023319350415409446,0.7832832491058213,-1.0991731045351116e-05
-0.1676977886782911,0.7827444513387372,-0.1671218077485097,1.6733363717741216,0.0022277854164984845,0.7830723085015707,-1.1047785034357105e-05
-0.16695719921067909,0.7832227399022509,-0.16880669218505595,1.6737945596787114,0.0021045912188935034,0.782827034897041,-1.1150903765688724e-05
-0.16618940855726638,0.7837086022984296,-0.17052924787316215,1.6742552004209381,0.001978546114631108,0.7825803623034311,-1.1031316563325788e-05
-0.16543296611960923,0.7841757511607312,-0.17220324855366442,1.6746948723349897,0.0018564783834866816,0.7823454721539553,-1.117922403359728e-05
-0.16466891189512545,0.7846392283386345,-0.1738721348925134,1.675126077097186,0.0017343708788528645,0.7821147427899042,-1.1058925689866328e-05
-0.16389695996171572,0.7850960515055565,-0.17553562638906417,1.6755476912240885,0.001613183092048942,0.7818897572080505,-1.1117225146684007e-05
-0.1630974891458843,0.7855599282925665,-0.1772363966279622,1.675971239616671,0.0014888507165427,0.7816634797120132,-1.1345736534273954e-05
-0.1623102908380849,0.7860077908458605,-0.17888958302805325,1.676375339434335,0.0013678867781132809,0.7814475276909958,-1.1136928224964038e-05
-0.16151528201841536,0.7864489687320777,-0.1805374829308377,1.6767698898242251,0.001247825671629954,0.781237298479013,-1.1195131486729792e-05
-0.16071301462723753,0.7868857561718654,-0.18218038881495868,1.6771560582272533,0.0011276872246002156,0.7810312927079757,-1.1297016163425155e-05
-0.1600077266937614,0.7872634445048394,-0.18360887922356106,1.677485994293746,0.0010231133696922967,0.7808552390308012,-1.1174054387552701e-05
-0.15917017345987539,0.7877013308625891,-0.18528418597232132,1.6778646292120918,0.0009006746838347013,0.7806535116167952,-1.1187231531373243e-05
-0.15828197484378492,0.788154322434381,-0.18703747806469906,1.6782515723211429,0.0007728381330114331,0.7804477579984841,-1.1246297947131723e-05
-0.15712650134440942,0.7887274851149533,-0.18928260109544048,1.6787331032299022,0.000608474845393836,0.7801913164035712,-1.1352814838438974e-05
-0.15628430233022605,0.7891374093914303,-0.19089920603339117,1.679071982044242,0.0004900051019864904,0.7800109510237991,-1.1230986695309753e-05
-0.15543457855902343,0.7895407372611931,-0.19251088436131436,1.6794014843041465,0.00037246989906325467,0.7798362234094558,-1.1289013340132215e-05
-0.1544892830831719,0.7899800150118335,-0.19428224032317676,1.6797548624298093,0.00024270283410565696,0.7796485715514061,-1.1391605149846384e-05
-0.15362440171591274,0.7903734343774076,-0.19588412717043102,1.6800663771745263,0.000125595128993794,0.779483451753979,-1.1315825190649775e-05
-0.1527526194778659,0.7907618764672462,-0.19748139882381022,1.680369585385237,-6.165946409453227e-05,0.7793227589283909,-1.1416106485029331e-05
-0.15223582387951318,0.79099017378865,-0.19842181415520344,1.680545432677511,-6.0236840226046695e-05,0.7792295307402597,-1.1288562653533063e-05
-0.1512840088728602,0.7913986916290856,-0.20013373782235355,1.680856164270284,-0.0001858409765400637,0.7790654450011267,-1.1347797459038134e-05
-0.15020900524259417,0.7918493854909574,-0.20204308882388133,1.681192160253211,-0.0003258155557572806,0.77888786718683,-1.1361970993384318e-05
-0.14926346260708634,0.7922373006257519,-0.20370379808185923,1.6814759159716672,-0.00044761638794632574,0.7787381593179799,-1.1374542162378987e-05
-0.14800523851928826,0.7927384993752566,-0.2058828264419681,1.6818340255221074,-0.0006076060708055664,0.7785493598273607,-1.1390911586417474e-05
-0.1469002594914235,0.79316802847356,-0.20777317099210713,1.6821338340299494,-0.0007465358038398762,0.7783916047447157,-1.1493838109721821e-05
-0.1454499735897583,0.793714145051343,-0.21021649846709423,1.6825035298729603,-0.0009263971387749592,0.7781971559444338,-1.1377326043948699e-05
-0.14444342952280298,0.7940847956086321,-0.21189394363570635,1.6827483719733438,-0.0010497677572729458,0.7780690109911461,-1.138979377479643e-05
-0.14342914237650195,0.7944493809651387,-0.21356663827417321,1.6829836784618273,-0.0011725945344362998,0.7779464166001251,-1.1447821531618274e-05
-0.14223596544815198,0.7948682791978978,-0.2155119636794831,1.683246488032851,-0.0013158754372808446,0.7778094403788796,-1.1462095636183278e-05
-0.14078498448450638,0.7953621660494541,-0.21784543864289052,1.6835456064878755,-0.0014879399310627761,0.7776539418307724,-1.1479014990989356e-05
-0.13924476255298757,0.7958709010170226,-0.22028810979913604,1.6838414307893999,-0.0016685165145267078,0.777500479991402,-1.145106486077907e-05
-0.13766350277155937,0.7963753170062464,-0.22276046578020559,1.6841221313642212,-0.0018509191475928333,0.7773561739239971,-1.1514461540684806e-05
-0.13606692469475679,0.7968698602600233,-0.22522363449060467,1.6843845608895105,-0.002033103961475824,0.7772217946666764,-1.153209069304495e-05
-0.1346358050450478,0.7973016027237696,-0.22740604952470012,1.6846034994456547,-0.002194740467731826,0.7771104374839002,-1.1636762358158137e-05
-0.13324478198476442,0.7977106357203487,-0.22950413296178063,1.684801416384329,-0.002350178025024796,0.7770105635691893,-1.1651504926213363e-05
-0.1320779861404997,0.7980468147921949,-0.23124825622603407,1.6849572787597866,-0.0024793774830911275,0.776932620339311,-1.1574835163230546e-05
-0.13045735100379385,0.7985009340482954,-0.23364332113733166,1.6851564707857358,-0.00265744675555446,0.7768333757232853,-1.1546272983053996e-05
-0.1283974978300897,0.7990559320571675,-0.23664415486850476,1.6853814988004734,-0.0028802716619367175,0.7767233208148454,-1.1612410864891842e-05
-0.1270418687986119,0.7994147746626075,-0.2386015591970505,1.685518428733011,-0.003025864719944593,0.7766574194807312,-1.1626109530205042e-05
-0.12516580015908385,0.7998963344774221,-0.24127918784622615,1.6856879711744925,-0.003225319720334241,0.7765771562358292,-1.1644630037999093e-05
-0.12381797976382636,0.8002362859509864,-0.24318764392683878,1.6857999977598261,-0.003367648853005001,0.7765253196591102,-1.1747030729480912e-05
-0.12227173148964976,0.8006175862012785,-0.2453578981350324,1.6859162214517873,-0.003529564558966136,0.7764728489497497,-1.1762009295424036e-05
-0.12093555615023988,0.8009415592311377,-0.2472198793520315,1.686008040969857,-0.0036685764514929886,0.7764325984716383,-1.1774811864206924e-05
-0.1192621091017152,0.8013390548107537,-0.24953230429111972,1.686110717916879,-0.0038416017689231197,0.7763889163922508,-1.1656634620216266e-05
-0.1178006556868878,0.8016799465822073,-0.2515375728288536,1.6861911358623036,-0.003991582676074579,0.7763565131749814,-1.1670220104953444e-05
-0.11633217501892545,0.8020169851937098,-0.2535391715509263,1.686263432526184,-0.004141404905261048,0.7763289886722999,-1.1685427637964096e-05
-0.11474500582289959,0.8023744548308578,-0.255687756205929,1.6863319321940615,-0.004302076205360272,0.7763051954554081,-1.1745355332770657e-05
-0.11309474656627838,0.8027420029676389,-0.257907941596514,1.6863947454082133,-0.0044688196613869025,0.7762849828278373,-1.1714974482934792e-05
-0.11202840426039362,0.8029766669612837,-0.2593364293237288,1.6864310896089378,-0.004575652687506704,0.776275196090511,-1.1779833641867299e-05
-0.11030989248720147,0.803350937173354,-0.2616258654092878,1.6864820700231498,-0.004747799897526939,0.7762630291046886,-1.1739168809477007e-05
-0.10847078115412767,0.8037455800624906,-0.2640616661104538,1.6865273481287923,-0.004930774104697555,0.7762560829217859,-1.1756013869046456e-05
-0.10633952018313853,0.8041964751477142,-0.2668678263708131,1.6865691750363068,-0.005141557665659491,0.7762549197491788,-1.1912485202714151e-05
-0.10451486638376206,0.8045815385212398,-0.2692602810771447,1.686598798955874,-0.005321666452659635,0.7762580206623895,-1.1791835405894346e-05
-0.10297144691698357,0.804905042798536,-0.27127744388573305,1.686619480236577,-0.0054732462115625324,0.7762641972046884,-1.1942875603132563e-05
-0.10133865492565253,0.8052468410935969,-0.2734054507487951,1.686637682039187,-0.005633391235594587,0.7762732379892281,-1.1957546295349175e-05
-0.09886855618552737,0.8057612431248335,-0.2766135742211686,1.6866581597681538,-0.005874931264226113,0.7762918327925368,-1.1979839846354423e-05
-0.09757448962081838,0.8060333954362369,-0.2782925779775294,1.6866678604239222,-0.006001504469185015,0.7763030272736744,-1.1854786557741193e-05
-0.0957604583894005,0.8064135430651245,-0.280642579656317,1.686678818429698,-0.006178139031564278,0.7763214458166079,-1.1927644149700711e-05
-0.09417600871308007,0.8067492586786527,-0.282694771278015,1.6866883878522039,-0.006332919495094735,0.7763379949972142,-1.1885645612608187e-05
-0.09305179132915509,0.8069877594939943,-0.28415028220836636,1.6866944905893204,-0.006442175492333391,0.7763512300253907,-1.1950153951723053e-05
-0.09114928822564128,0.8073949291694582,-0.28661417580674176,1.6867055643349902,-0.006627711124078672,0.7763734162077203,-1.2049813000736265e-05
-0.08990908300155365,0.8076630600458437,-0.2882200851305612,1.6867126452165024,-0.006748721311668149,0.7763886436677749,-1.1924784947048295e-05
-0.08875466974616053,0.8079129254675381,-0.2897140128981972,1.6867185417172674,-0.006861123840983474,0.7764038569587655,-1.1935557337139358e-05
-0.08742570702538632,0.8082002329051914,-0.29143182194077877,1.6867238837842544,-0.006990088405703254,0.776422920803987,-1.2001123602445318e-05
-0.08600854592761031,0.8085077740637105,-0.2932614546747887,1.686728358233955,-0.007127781346119022,0.7764441859331024,-1.2014081943512167e-05
-0.08461843334412311,0.8088096330939099,-0.29505329940978875,1.6867309737459735,-0.00726277254836738,0.7764665061730351,-1.2110029500078667e-05
-0.08293503384574397,0.80917386140659,-0.29721725446692737,1.6867303556389643,-0.007425730269847719,0.7764963090839831,-1.2125664118123325e-05
-0.08148076110121139,0.8094879672698516,-0.29908185077759786,1.6867267873616205,-0.007566202496112062,0.7765243814365324,-1.2139096598140497e-05
-0.07996464660560676,0.8098145555986518,-0.3010197541716373,1.686719445788662,-0.007712461681396832,0.7765559590870286,-1.2016958072180728e-05
-0.07841503701412655,0.8101455893418477,-0.30299316599117176,1.6867072785777575,-0.007861316398848572,0.7765915190895853,-1.203131092442078e-05
-0.07715468353741795,0.8104136270230793,-0.30459313068893223,1.6866942228078186,-0.0079820752497346,0.7766226412682729,-1.2042922958421798e-05
-0.0752713516687411,0.810808561086592,-0.3069709096834874,1.6866666673426094,-0.008161738360492166,0.7766738524591021,-1.206012828358638e-05
-0.07352812626643068,0.8111700893809717,-0.3091599946245376,1.6866338824288176,-0.008327329044027998,0.7767258855047396,-1.2076029095808849e-05
-0.07171746925604428,0.8115393710530228,-0.31141954456295107,1.6865909362562643,-0.008498180891187701,0.7767855901123966,-1.2145183079681487e-05
-0.07013803034991728,0.8118589791920812,-0.31338009633463937,1.6865473780940832,-0.008647159286262251,0.7768410026604364,-1.210809627849585e-05
-0.0688818550219521,0.8121099451049982,-0.3149318251333062,1.6865079922920119,-0.008764968194588718,0.7768882574989133,-1.2119520766518121e-05
-0.06629003234642106,0.8126097049170822,-0.3180986598005058,1.6864054943619626,-0.009005971640222654,0.7769970769744683,-1.2142245421564724e-05
-0.06453246254214928,0.8129432389104361,-0.3202304836215353,1.6863265284750133,-0.009168511479042074,0.7770768995052411,-1.2157483950225867e-05
-0.0626113952102525,0.8132984854586471,-0.3225402510048383,1.6862279077864706,-0.009344991834087324,0.7771711596085211,-1.2173914620383641e-05
-0.060677695747290095,0.8136464662193976,-0.32484393430408254,1.6861158443835889,-0.0095214122539371,0.7772733757961374,-1.219027582077814e-05
-0.05901054118597138,0.8139395598121526,-0.3268139987490635,1.6860096244467657,-0.00967260753474175,0.7773671310895356,-1.2204215540378982e-05
-0.057458192960315735,0.8142053062430712,-0.3286339034754242,1.6859019556088723,-0.00981238615418345,0.7774596584931199,-1.2355169768163421e-05
-0.05517245810872051,0.8142059738428413,-0.33128102993618835,1.6857242337035414,-0.010016775217565943,0.7776056924593364,-1.2239828775406636e-05
-0.05286641999001418,0.8149435622594225,-0.3339179856213397,1.685524762686133,-0.010220713107969459,0.7777647296848098,-1.2391858007276824e-05
-0.0514369551470919,0.8151636615343429,-0.335540166206445,1.6853939350003042,-0.010346479406902809,0.7778677000336831,-1.2321114626345775e-05
-0.04899926960039913,0.8155186300404917,-0.33826716348953045,1.685147848421079,-0.010559169079489727,0.7780549008298214,-1.228028761612876e-05
-0.04854949445743717,0.8155843965121319,-0.3387694744462193,1.685102045829022,-0.010598349979267674,0.7780900021735215,-1.2287267453281459e-05
-0.047419725140585456,0.8157439485825453,-0.3400222471644172,1.6849815222300109,-0.0106960432419001,0.7781811632586848,-1.2434264888838698e-05
-0.045925740402330106,0.8159487462372157,-0.34166413808557294,1.6848138078960266,-0.01082483236573939,0.7783056998703657,-1.2306975064824144e-05
-0.04491457893733397,0.816083368638207,-0.34276858498220797,1.6846961326827508,-0.010911217838585507,0.7783928618486646,-1.23680273764748e-05
-0.043899388127758954,0.8162160833645675,-0.34387095641402343,1.6845745604579916,-0.010998010003322456,0.7784819074757188,-1.2459985349266844e-05
-0.04218360901519436,0.8164290437389434,-0.3457133620680093,1.6843567513292115,-0.011143202468240965,0.7786390513357668,-1.2389197811657482e-05
-0.04095669792890799,0.8165772801055429,-0.3470213619397997,1.6841958707295737,-0.0112467398557623,0.778754304251585,-1.2480887924049e-05
-0.03999092368632162,0.8166910261684093,-0.3480446714804897,1.6840655406667038,-0.011327707590626623,0.7788472812132037,-1.240443342087616e-05
-0.039054935341998664,0.816798596856998,-0.3490308088534615,1.6839362277162735,-0.01140610091357619,0.7789388973964435,-1.2494043416744205e-05
-0.03798014029062724,0.8169187041369081,-0.3501553414416323,1.6837832952210077,-0.011495747005564994,0.7790463885610786,-1.2363526558090143e-05
-0.037035835835026454,0.8170208157635761,-0.35113734395821705,1.6836454622767594,-0.011574026969497275,0.779142950910992,-1.2370056533761442e-05
-0.03561027875150913,0.8171666086881073,-0.3526055053567356,1.6834289702660516,-0.011691091998774716,0.7792934165400744,-1.2432256120575857e-05
-0.03372812557227789,0.817347414352624,-0.35452003670102084,1.6831298735054805,-0.011844724014081542,0.7794987309217829,-1.2444396539912361e-05
-0.031934673052741225,0.8175093220851197,-0.3563231130914337,1.6828331346973329,-0.011989996425656457,0.7797008653077606,-1.2455740348471522e-05
-0.029881266336931667,0.8176802434654915,-0.35835932459302455,1.6824776806214157,-0.012154797008668616,0.779940758604976,-1.2468286504585535e-05
-0.027773620370739494,0.8178411050015866,-0.36042012321241845,1.682096837552395,-0.01232240482096092,0.7801957389998284,-1.2481033421885002e-05
-0.02582521074848554,0.8179780432974493,-0.3623008678509718,1.681731747933565,-0.012476205196263024,0.7804386222360149,-1.257687340139313e-05
-0.023895881218503057,0.8181023945104462,-0.36413921594719856,1.6813573974424996,-0.012627333012600772,0.7806860617377787,-1.245145023887062e-05
-0.022276757661201962,0.8181984773402409,-0.3656654738494911,1.6810344961308665,-0.01275318071957443,0.780898839885757,-1.246075761152099e-05
-0.02049982815827356,0.8182936492069919,-0.3673202128087212,1.680669276550229,-0.012890224002239492,0.7811382345924365,-1.247054755459942e-05
-0.018635005869501065,0.8183817370094646,-0.3690345706587852,1.6802740266106593,-0.01303258634435256,0.7813962817907507,-1.2532597219561126e-05
-0.016680578043388294,0.8184629479809846,-0.37080766035840096,1.679847631224657,-0.013180879798614598,0.7816730779609964,-1.2541822973943795e-05
-0.014634226378167803,0.8185350881444879,-0.372638269525023,1.6793877589543884,-0.013334813066346207,0.7819702373071387,-1.2552214824879115e-05
-0.012758998817369971,0.8185912064443013,-0.3742948135594437,1.6789558704867886,-0.013474943875882772,0.7822483518900274,-1.2646246379866e-05
-0.010639216953018504,0.8186414366208421,-0.3761400771090635,1.6784536500143696,-0.013631996964701187,0.7825702072011076,-1.2521124951092588e-05
-0.008961774846432569,0.8186726779275739,-0.37758393092071785,1.6780480884731093,-0.013755064871641132,0.782830067412525,-1.257956249123282e-05
-0.007117459320580721,0.8186978204416189,-0.37915153456338846,1.6775924331148975,-0.01388968456644779,0.7831207916149214,-1.2587088265014756e-05
-0.005414822869494351,0.8187132980954201,-0.38058228217616463,1.6771639519361434,-0.014013272210285699,0.78339353510927,-1.2679895396772167e-05
-0.0038174132067592126,0.8187208681729583,-0.3819100147861292,1.6767547993085872,-0.014128305770737093,0.7836535935685784,-1.2602901191094418e-05
-0.0022093190150833664,0.8187215148331459,-0.38323213488638963,1.676336030373541,-0.014243497890756629,0.7839191523987923,-1.260796986546353e-05
-0.0008289004691111046,0.8187174382276581,-0.3843568027737998,1.6759719437397615,-0.014342010360274493,0.7841497135782118,-1.2698999625193608e-05
0.0011199577547911233,0.8187008878753526,-0.3859227824369409,1.6754469971121466,-0.014479956890754764,0.78448090635837,-1.2578925763229165e-05
0.0027211281476713367,0.818680811300486,-0.3871958457699707,1.6750096537798749,-0.01459252674631717,0.7847567426815756,-1.2585686570254495e-05
0.004739689666015678,0.8186433037811955,-0.3887780628833539,1.6744471083744443,-0.01473294882598708,0.7851108052234057,-1.264594771566152e-05
0.006733497198450955,0.8185980707659857,-0.3903204880447033,1.6738827091761745,-0.014871276730477057,0.7854649440239196,-1.2601053031247034e-05
0.008992395494588301,0.8185320271266354,-0.39204066914687896,1.6732301982539477,-0.015025968972613768,0.7858739791227203,-1.2660660169139248e-05
0.0115228580142821,0.8184438095657498,-0.3939351784788361,1.6724850213367013,-0.015198286949827278,0.7863395028378539,-1.2617950376103693e-05
0.013318612801000107,0.8183749639875666,-0.39526457197775855,1.6719505409533157,-0.015319774958561183,0.7866737161391733,-1.2624004441796899e-05
0.01606345745522475,0.8182495581326483,-0.39725765980421635,1.6711151793863923,-0.01550336399448149,0.787194318255497,-1.2632704208925816e-05
0.019922302297394445,0.8180359624010736,-0.39998575573935824,1.6699070692626474,-0.015757560036804286,0.7879443705568612,-1.2644186232257937e-05
0.02225581046584857,0.8179002595701705,-0.4016134513264573,1.6691706718798738,-0.01591063306869067,0.7884025343484478,-1.2650845402362165e-05
0.024477864292255624,0.8177606842531846,-0.4031410538943252,1.6684607104965385,-0.016055082207484084,0.7888443027338434,-1.2705116943401151e-05
0.02702865054700876,0.8175877205652702,-0.4048654280591055,1.6676342634030945,-0.016219933027741718,0.7893575392720207,-1.2800609192176182e-05
0.028531336277517028,0.8174834634189425,-0.4058726395835901,1.6671453963108949,-0.016316640935899684,0.7896617705636553,-1.2717431515874011e-05
0.03125522365432776,0.8172767621290387,-0.407664050442337,1.666244078249954,-0.01649034815364203,0.7902209232928614,-1.2810262701279385e-05
0.03282587420662697,0.8171553652753527,-0.40868806605563535,1.6657226667208151,-0.01659011638155139,0.7905451655376341,-1.2726660790995936e-05
0.037671874952521556,0.8167206692654121,-0.4117391508249728,1.6640623217339714,-0.016891835461883886,0.7915709951705105,-1.282310159034239e-05
0.0426932252101242,0.8162293530777518,-0.41480207111483924,1.6623094025601182,-0.01719993162815925,0.7926541177029076,-1.283204674429328e-05
0.04437249483301908,0.8160681780564989,-0.41582040053465796,1.6617271929784563,-0.01730334109410059,0.7930160664755714,-1.283528343876128e-05
0.04658146907959715,0.8158473914861704,-0.4171406889824416,1.660954396018047,-0.017438395533519113,0.7934961711032926,-1.283895467363294e-05
0.050730099150958274,0.8153980579620939,-0.41955125037679597,1.6594749424640467,-0.0176881496554655,0.7944128305237053,-1.284503504628276e-05
0.05346874954587477,0.8150965472195599,-0.42111929035787377,1.658496442674041,-0.017852470485950178,0.7950209717669887,-1.2848771017814897e-05
0.05549832537946653,0.8148696818196939,-0.42226824981362565,1.6577695886338564,-0.017973853334926737,0.7954735049611781,-1.2851392074963996e-05
0.05842537102586398,0.8145284240756787,-0.42389407395227074,1.6567107747364327,-0.018147290464893828,0.7961322248301297,-1.2854849424037695e-05
0.062276617809611245,0.8140574343378164,-0.4259816487213284,1.6553018993290296,-0.01837292811609892,0.7970084382771434,-1.2858821165195877e-05
0.06541394507322007,0.813665868283735,-0.4276526276782855,1.654150801325951,-0.018555775596190927,0.7977260530360573,-1.2861724893120652e-05
0.06786996621184294,0.8133551751265138,-0.4289432175365553,1.6532483718386173,-0.018698389678597493,0.7982898622246442,-1.2863807848262354e-05
0.06998710253545859,0.8130844528585293,-0.43004266932369184,1.652469148749316,-0.018821076454226038,0.7987772438605827,-1.2731503026053304e-05
0.0739160475920686,0.8125565450372472,-0.4320310090246773,1.6510052840988,-0.01904545526949253,0.7996919610643962,-1.2734647828693824e-05
0.07612030231349376,0.8122609806582419,-0.43313535271292114,1.6501873117316093,-0.01917133462460452,0.8002051698053148,-1.2736154562098534e-05
0.0819662770279308,0.81142061030019,-0.43595179836901377,1.647975957240078,-0.019498287998695574,0.8015882553151759,-1.2738776223208959e-05
0.08564802141728034,0.8108916149844889,-0.43769503891335493,1.646591317804357,-0.019703957910856218,0.8024593837218799,-1.2740157071533531e-05
0.08898832334342188,0.8104052295115913,-0.43924802102448446,1.645334517553973,-0.01988958690449749,0.8032521797748107,-1.2741196036891722e-05
0.09219415430849764,0.8099321431951605,-0.4407123375087423,1.6441274532472914,-0.020066795459972475,0.8040153575561728,-1.2741923673509348e-05
0.09537064638075243,0.8094564896927743,-0.44213778438468765,1.6429303334213463,-0.020241128157663546,0.8047741543830513,-1.277579538161433e-05
0.09807838567134652,0.8090490645056905,-0.44333597737232733,1.6419117761546946,-0.020389594004072364,0.8054212645741003,-1.2873760224962894e-05
0.10041899667009346,0.8086957524636906,-0.4443592438908288,1.6410326218163718,-0.0205177043236775,0.8059809932699951,-1.2742755442829434e-05
0.1056638074993046,0.8078687265732318,-0.44657642714667833,1.6390410586007578,-0.02079974870552803,0.8072478649755679,-1.2742139268162589e-05
0.10697231894510395,0.8068623641496808,-0.44570277108901646,1.6379886101869747,-0.02088594756724671,0.8080862656794423,-1.2720844387636987e-05
0.1075995276847852,0.8057549172723526,-0.444167497431442,1.637049931091708,-0.020938783450691112,0.8088941217388106,-1.2694193066487003e-05
0.10804191506462857,0.8039831453745894,-0.44130788448016656,1.63569791407767,-0.020992518419094885,0.8101043078492385,-1.2649289018895615e-05
0.1080053424748515,0.8021812988360084,-0.4380397607482891,1.6344516867421754,-0.02102107362095129,0.8112662271567217,-1.2731511465524648e-05
0.10769373784277558,0.8002817236547921,-0.43437758506266455,1.6332067608783065,-0.021036262244757964,0.8124527112509625,-1.2679826341788214e-05
0.10716112169936043,0.7982761628410753,-0.4303397142540444,1.6319414324974169,-0.021040593919823714,0.8136769428081569,-1.2624263281857395e-05
0.10662391520175696,0.7963246968185631,-0.42636350398302003,1.6307130491335302,-0.02103386251602224,0.8148731159573579,-1.2569707040555045e-05
0.10614976058008807,0.7944216499692773,-0.42248588833067036,1.62950215485343,-0.021014321235956146,0.8160582669457606,-1.2516250464500445e-05
0.10572562937973551,0.7924768387829797,-0.4185290361278122,1.6282502722464018,-0.020978085205473285,0.8172919184992047,-1.2461166417843117e-05
0.10545435564792527,0.7912074297756364,-0.4159322585335179,1.627422883403864,-0.020939810955118432,0.8180739160884638,-1.242512036370158e-05
0.10501465670614873,0.7890147261582685,-0.41144854095191263,1.6259710386281103,-0.020856060317204772,0.8193828226655997,-1.223322333387955e-05
0.10466697283346704,0.7872787705230166,-0.4078762953412314,1.6248012854042608,-0.020763350324795482,0.8203570258375645,-1.2183891886508036e-05
0.1043481219142306,0.7856628891784423,-0.40453673737036233,1.6236956797984234,-0.02065709857409992,0.8212168021058543,-1.2138073717693487e-05
0.10401404581323348,0.7839202268316168,-0.4009253275175757,1.6224851030763903,-0.02052163310962385,0.8220954857791627,-1.2161544676203562e-05
0.10373497335282966,0.7824538958738527,-0.397870595877599,1.621450709088637,-0.020388179643815896,0.82278838238945,-1.2101802813191398e-05
0.10345747749940504,0.7809494380494,-0.39473894341312565,1.6203604740542739,-0.020234727260091567,0.8234097979710411,-1.216435310968933e-05
0.10317571278833881,0.7793339393446699,-0.39140265796847196,1.6191303223962636,-0.020055385942161053,0.8238888913432625,-1.2123830700261351e-05
0.10289090778458387,0.7776316034491009,-0.38786482027492486,1.6178282403314705,-0.019865060882240826,0.8243915067168821,-1.1944825992316055e-05
0.1026736693002146,0.7763079700917652,-0.38509479679335,1.6168132560111443,-0.019715221966145613,0.8247795875288251,-1.1938520306564726e-05
0.10242829459398184,0.7747422560712618,-0.3818010853384308,1.6156079104197243,-0.019537153648194305,0.825237001978758,-1.1896625006002637e-05
0.10221014646021942,0.773306795448713,-0.3787600492178216,1.614499449998167,-0.019372495260741474,0.8256534908147364,-1.1958777034415391e-05
0.10197679822433425,0.7716941377394324,-0.3753224293312618,1.6132490245353974,-0.019186214787267453,0.8261194473207905,-1.178077878183359e-05
