fotiskoutsikos/xarm7_motion_planning/scripts/logs/2025-04-25_11-15-59/desired_joint_angles.csv
j1,j2,j3,j4,j5,j6,j7
0.0,0.7,0.0,1.5707963267948966,0.0,0.8707963267948966,0.0
-0.002663802693823765,0.7000079891796361,0.005559299231582206,1.5708197011134162,0.0007160000556044054,0.8708465232156215,0.0
-0.005649355937302007,0.7000435945843956,0.01179204385591774,1.5708574885682338,0.0015188111517270343,0.8708994092187894,0.0
-0.008392609188035851,0.7001037680195399,0.017518345422461112,1.5709041523820848,0.0022565014882718424,0.8709445428009949,0.0
-0.01539549580444983,0.7003226756409401,0.03218218116419895,1.57105203543641,0.004144682213743039,0.8710517666083117,0.0
-0.020067917149039133,0.7005791369955161,0.04195055513377392,1.5711987549546278,0.005403016997311497,0.8711093751565218,0.0
-0.026345672116107985,0.7010233336156851,0.05508979736447735,1.571439524292453,0.007095145349335761,0.871174702859638,0.0
-0.03133812276260229,0.7014822803722744,0.06552999982222443,1.5716769119735896,0.008439602774976336,0.8712140794101438,0.0
-0.036832210411957125,0.7020693153240409,0.07700502856442053,1.5719481438417473,0.009905256293802383,0.8711750780441616,0.0
-0.0405371291705308,0.7025178658538014,0.08460724274348569,1.5721391010108057,0.010771178101934387,0.871111687950013,0.0
-0.04593234850727651,0.7032177042493106,0.09553997430397515,1.5724210500860818,0.011891447557438126,0.8709831321093027,0.0
-0.050343385365259896,0.7038390849322924,0.1042874321842308,1.5726537766877886,0.012628422169902379,0.870843726548271,0.0
-0.05508403882200128,0.7045444435255039,0.11350942258325089,1.5729042712512613,0.01324810172627026,0.8706732682843138,0.0
-0.05858118115627762,0.7050902900335773,0.1201610722039062,1.5730882384766338,0.013563536163212575,0.8705382722397271,0.0
-0.06419739135369266,0.7059939368508609,0.13066849212035914,1.573382663271621,0.013897076595220367,0.870318019805773,0.0
-0.07450370544737382,0.707724692832468,0.14945381030877897,1.573920649243951,0.01401751176421656,0.8699230337117,0.0
-0.07678578078161516,0.7083558950657323,0.15489458516571206,1.5741866827503477,0.013791272587357165,0.8697750738887138,0.0
-0.0835578774419166,0.7101893242343421,0.17035122145348772,1.574925722966232,0.013217563449991901,0.8693251114768656,0.0
-0.0886067555574135,0.7116592699370508,0.18167615450065422,1.5754979077701992,0.012816374802021576,0.8689261277939364,0.0
-0.0949951678479604,0.7137110673343278,0.19636998977718997,1.576305298358197,0.012264329019011352,0.8683336677666732,0.0
-0.0994701710398868,0.7152311725706959,0.20648814725088102,1.576885194878265,0.011901309717899931,0.867868800697796,0.0
-0.10544862033844099,0.7174329191882887,0.2203140681158789,1.5777347325348698,0.01137939353401987,0.867169080593797,0.0
-0.1116781285896523,0.7198527238600523,0.23458339207307066,1.5786484255846218,0.010856897635649463,0.8663708353296172,0.0
-0.11634032154266287,0.7218405617495712,0.24550057288099453,1.579404974540028,0.01043683273684472,0.8656898647726394,0.0
-0.12018939141736848,0.7237654800617671,0.2557016661394411,1.5799543748316065,0.0100138036098093,0.864242431521107,0.0
-0.12008197085481025,0.7249604127740336,0.2612603890485414,1.5800130584054684,0.009869568497436903,0.8613569207509739,0.0
-0.1253772323351815,0.7270303972410422,0.2729167369616908,1.5799951315434546,0.010062140635627168,0.8583826944898719,0.0
-0.12543042639215304,0.7281147207746211,0.2775680518637285,1.5800941141362184,0.00997102026167444,0.855947029451807,0.0
-0.1296774562545299,0.7302092656646145,0.2881431347870376,1.580176982146271,0.010094405712761503,0.8528711025525734,0.0
-0.1303587217648756,0.7314302379471832,0.29324656584839703,1.5803259056286678,0.01004371007207231,0.8505419115882094,0.0
-0.1331374800976885,0.7331317966138625,0.3010295778045694,1.5804701615518357,0.010102784069095469,0.8480350099951938,0.0
-0.13487908239518298,0.7348702080009782,0.3082357812069401,1.5806990537284757,0.010090983166804035,0.8451900813145405,0.0
-0.13794459846281493,0.7371157395767785,0.31766367106272775,1.5809781761224562,0.010134816647196543,0.841932072870844,0.0
-0.13952289053543168,0.7388819670717385,0.3244248465994953,1.581277711387229,0.010116967098587462,0.8391941314831766,0.0
-0.1418949446249285,0.7408087979602607,0.33193249427755966,1.5815795326079645,0.010142930166281964,0.8365250666478165,0.0
-0.14386345837198838,0.7430003082484518,0.33988980730965473,1.582000225936788,0.010127818496124931,0.8333397979590218,0.0
-0.14636548808467692,0.7452701567364185,0.34813540743581584,1.582422144891852,0.010144922994726765,0.8303124646869968,0.0
-0.1480121742358834,0.7473320382225911,0.3551058573402094,1.5828801054077113,0.010123402686999242,0.8274434370717021,0.0
-0.15002894915705753,0.749347319945544,0.36197011374232324,1.583305911211411,0.010129890584420435,0.8248573850420964,0.0
-0.15106970896427716,0.7506847895589711,0.36627360450438756,1.5836271291477582,0.010117109811205133,0.8230871881042752,0.0
-0.15346629855187527,0.7534996334518282,0.3753145921951473,1.5842939493077237,0.01010419624773472,0.8194923391207016,0.0
-0.15512679800360812,0.7556533752554687,0.3819504710772133,1.5848409205181717,0.010086387437074485,0.8167780500398567,0.0
-0.1567831099261817,0.7577724943707485,0.3883614003792328,1.5853887142318,0.010071862594246831,0.8141806432251021,0.0
-0.15848400296030632,0.7601231712346895,0.39526659834862177,1.5860244231817995,0.01004937842950929,0.8113201231515671,0.0
-0.1601644596291695,0.7624605609340905,0.4019901118476698,1.5866701196463904,0.010028122083293187,0.8085418238193519,0.0
-0.16145214888296133,0.7643805373496309,0.40735792698973644,1.5872216791452123,0.01000677449259117,0.8062825767242896,0.0
-0.16272888572488114,0.7662967465990757,0.4126304057890526,1.5877802003818287,0.009986008044112106,0.8040663720860233,0.0
-0.16393824512129992,0.7681907872049669,0.41773781792468495,1.5883457815422424,0.009963501315745187,0.8018971644032984,0.0
-0.16504691232338436,0.7699671163936314,0.42244752236946864,1.5888853491234483,0.009941847051902266,0.7998889356816453,0.0
-0.16648744875237922,0.772339110416039,0.4286357687366763,1.589617598869278,0.009911564393696327,0.7972339012823171,0.0
-0.16760129615761798,0.7742465527532979,0.4335063024000843,1.5902197302338639,0.009885949442269063,0.7951273861048612,0.0
-0.16901932938110975,0.776726670987777,0.4397426346903317,1.591012998428973,0.009851841333678687,0.7924191267402905,0.0
-0.17048440258203887,0.779398021367133,0.44631837230114974,1.5918850469053425,0.009813093863703127,0.7895373311272935,0.0
-0.17153715654510698,0.7813851365873202,0.4511080387351963,1.5925461016591218,0.009783578346009233,0.7874260730666347,0.0
-0.1724671157406803,0.783113594179953,0.4552330109332991,1.5931222748359664,0.00975931688617465,0.7856214909273649,0.0
-0.1727238939789908,0.7834983717659257,0.45617046344750867,1.5932426596548928,0.009756599541169527,0.7852417908706315,0.0
-0.1733586688995343,0.7844587858253849,0.45850209916044626,1.5935441503224868,0.009749487247208177,0.784294052211099,0.0
-0.17437201721409437,0.7860297497838209,0.46228227848173853,1.5940418112788353,0.009736688284248052,0.7827451085756285,0.0
-0.17506457547844836,0.7871408538803533,0.46491976087794334,1.5943987725848583,0.009726756014509324,0.7816541981992279,0.0
-0.17566522919937244,0.788133453456668,0.4672540943896939,1.5947178191902436,0.009717111806287242,0.7806693313150563,0.0
-0.17635188371004076,0.7893077731438248,0.4699932927854789,1.5950912202698762,0.009704526863408407,0.7794737734231895,0.0
-0.17697391647589494,0.7905800958046529,0.47288225216413055,1.5955034758771158,0.009692800592431206,0.7780954797695566,0.0
-0.17744957324653107,0.7916503603471013,0.4752772913510426,1.5958454990119904,0.009689181025357933,0.7768793102542411,0.0
-0.17794145430827688,0.7927565473762915,0.477744719521116,1.5961896812450382,0.009691423319695691,0.7755949500609306,0.0
-0.17844749694966933,0.7938117799920753,0.48010530867500273,1.5965130452680567,0.009694889128575376,0.7743932557685604,0.0
-0.17890411898199848,0.7947623908641802,0.4822205777371866,1.5968051623728925,0.009697938451209974,0.773318461375565,0.0
-0.17947948238533729,0.7959704154858059,0.48489285817295846,1.5971780209527724,0.009701452874001058,0.771958268924542,0.0
-0.18021761589956184,0.7975448460975669,0.4883479214829559,1.59766722082565,0.009705293694023445,0.7701930117038573,0.0
-0.18107110941585225,0.7994113586170066,0.4923998140018693,1.598252907831437,0.009708633413299266,0.7681105786866252,0.0
-0.18196355381967944,0.8014232109976567,0.49671191832854783,1.5988916673848987,0.009710766633964169,0.7658791688639827,0.0
-0.1827324063663318,0.8032154830013035,0.5005014637865501,1.59946817608473,0.009711392503154151,0.7639046000088374,0.0
-0.18346619996589822,0.8049710008841873,0.5041711706853634,1.600038517805925,0.009711011432949552,0.7619823380314591,0.0
-0.18461789596687295,0.8077796846208974,0.5099833310640345,1.6009563731847523,0.009708716267161693,0.758921037705734,0.0
-0.18534306093717676,0.8096699949540072,0.5138167840968194,1.6015877420748135,0.009705200807968292,0.7568749171744928,0.0
-0.1858817659480311,0.811121290377478,0.5167266931895309,1.6020747204978425,0.009701731195738694,0.7553022714883638,0.0
-0.18642912715772358,0.8127877501416384,0.5200156274614673,1.6026307297046345,0.009695502101651826,0.7534165916652621,0.0
-0.18666235205823428,0.8141373228344119,0.5225514020258735,1.6030994537349816,0.0096945839326065,0.7517295257994248,0.0
-0.18691709418773317,0.8153983084458041,0.5249358658279496,1.6035138752853517,0.009703231537134083,0.750114946633359,0.0
-0.18734869811321164,0.8170642317324779,0.5281232832879016,1.604043084876271,0.009717707649367429,0.7480281287877889,0.0
-0.18777550532924553,0.8186990416813017,0.5312301044232004,1.6045643889605619,0.00973124164217206,0.7459974327745275,0.0
-0.18810459833578502,0.8200218918023751,0.5337169743344128,1.6049915212577452,0.009741250197237344,0.7443596230824284,0.0
-0.18839271736082455,0.821206645277507,0.5359279002977038,1.6053767812047244,0.009749659436925743,0.7428984594540173,0.0
-0.18872282204671995,0.8225899757882003,0.5384931462408215,1.6058288170936972,0.009758873706280705,0.7411967302169811,0.0
-0.18902548092701224,0.8239007237756484,0.5409041021698425,1.6062605455722265,0.00976692149463258,0.7395887652737065,0.0
-0.18931168457442243,0.8251734181337055,0.5432281676810109,1.6066824798697104,0.009774155883775094,0.7380319959742839,0.0
-0.1895597196669178,0.8263082940061067,0.5452857863069981,1.607061294158453,0.009780117886187656,0.7366476933982072,0.0
-0.19000080045894505,0.8283325485772868,0.5489395022163858,1.6077366226992935,0.009789968598375344,0.7341809959388633,0.0
-0.1902846768196923,0.8297482300433132,0.5514600508402281,1.6082165438572327,0.009795773034458192,0.7324598509040592,0.0
-0.19059350991121352,0.8312909239736243,0.5541915763445155,1.608740625804536,0.00980158965672439,0.7305922790993209,0.0
-0.19088205784692153,0.8327911824616655,0.5568256561311449,1.6092539474432606,0.009806516407515177,0.7287797484243952,0.0
-0.19114174979741091,0.8341858971611343,0.5592557311533733,1.6097340903024133,0.009810511386398829,0.7270991247785692,0.0
-0.19133379752784743,0.8355997797334873,0.5616716424210209,1.61022192967544,0.009812709403731867,0.7253166526723268,0.0
-0.19135813123696424,0.8366351347360501,0.5633706561987762,1.6105888864110387,0.009815773156306475,0.7239049817840219,0.0
-0.19136735944634506,0.8379720984712707,0.565549876004532,1.6110510441924764,0.009824411695384238,0.722014525152626,0.0
-0.19138932345675697,0.8394719622761908,0.5679969973076987,1.6115469732863874,0.009840555346518794,0.7198299798042106,0.0
-0.19160171527493025,0.8414441313935535,0.571300635625262,1.6121650865424286,0.009862886778262879,0.7170690183233718,0.0
-0.1916768434627279,0.8429474267563501,0.5737505064013538,1.612655486925496,0.009877683392164932,0.7149264187686647,0.0
-0.1917723388823205,0.844227971596921,0.5758434201594981,1.6130687804110038,0.009889936652240377,0.7131272556238729,0.0
-0.19183893054147164,0.8453212353588869,0.5776132728651003,1.6134254723566712,0.00989970508140725,0.7115871464223199,0.0
-0.19189965251077437,0.8463506678314953,0.5792720710754462,1.6137622366024154,0.009908465922617377,0.7101386654309556,0.0
-0.19194982026445237,0.847259808311566,0.5807296222334384,1.6140608270105354,0.009915829997194564,0.7088600378203483,0.0
-0.19200944805949405,0.848359853014097,0.5824871771631904,1.6144220263206361,0.009924354477551068,0.7073121870951655,0.0
-0.19206358009497837,0.8494503223326703,0.5842199338351723,1.614781248202285,0.009932328745789486,0.7057766124429715,0.0
-0.19209928345865845,0.850255560433535,0.5854920296700613,1.6150480050546498,0.00993788514086605,0.7046432069041951,0.0
-0.19213664032108757,0.8511111781417091,0.5868397278590447,1.6153314742098155,0.009943545784519127,0.7034388468256039,0.0
-0.19216779996999558,0.8518789939258011,0.5880442354959672,1.6155864840316707,0.009948386956355698,0.7023577931261433,0.0
-0.19220739581831991,0.8528588981709805,0.5895776203820368,1.6159113375422316,0.009954300704212589,0.700976504297918,0.0
-0.1922500030297324,0.8539907603480856,0.5913414451030248,1.6162865248972897,0.009960729874783402,0.6993777604265649,0.0
-0.19227962719692845,0.8549248817848963,0.5927884044480369,1.616597548480332,0.009965662686342773,0.6980567924470005,0.0
-0.19231518964795027,0.8560356944573347,0.5945042758980809,1.616966418854277,0.009971194082540269,0.6964838689670432,0.0
-0.19234375980928733,0.8570820413945087,0.5961119677185099,1.61731459779114,0.009976013494240437,0.6949991904759553,0.0
-0.19235611378850717,0.8579838597879983,0.5974864096578615,1.6176154595395624,0.009979801188400615,0.6937066186851764,0.0
-0.19233042375358445,0.859256187352445,0.5993992469742594,1.6180360022767388,0.009984466306498562,0.6918117724282765,0.0
-0.19216597025519183,0.8605827618915223,0.6013131439953233,1.618480336202977,0.009989779555801217,0.6896704029474808,0.0
-0.19195317565240197,0.8617127855199354,0.60290151506776,1.618850536903046,0.009996714669111163,0.6877166378909603,0.0
-0.19179734809801896,0.8627313364545333,0.604353585358707,1.6191601163246836,0.010004974329980716,0.6859183175631632,0.0
-0.19173185612385463,0.8638282193933567,0.6059707371160916,1.619472814982472,0.010013601455157308,0.6840485053877577,0.0
-0.19165868840585387,0.8647681528078769,0.6073417928336,1.6197429911027983,0.010020283003247001,0.682430341500758,0.0
-0.1915850506568246,0.8657636772985401,0.6087919966915274,1.620026621339164,0.010026765748473398,0.6807126412342652,0.0
-0.19150495662402994,0.8668085659152857,0.6103080013563609,1.620322536791379,0.010032894954404575,0.6788993125358879,0.0
-0.19142218858401727,0.867857587933763,0.6118239300489384,1.6206176727658337,0.010038338879187036,0.677068324478941,0.0
-0.19134156371165226,0.8688472146967275,0.6132480882868324,1.620894446694688,0.010042802356779994,0.6753312965801509,0.0
-0.19125700398680334,0.8698821810003171,0.6147332392402552,1.6211808995727661,0.010046811941827341,0.6735034252823259,0.0
-0.19116981128257834,0.8709178973705587,0.6162137132404758,1.6214648025573415,0.010050131400700536,0.6716605054137348,0.0
-0.19107203774972362,0.8720911247797319,0.6178869481121267,1.6217809354306765,0.010053109472474826,0.6695545924750167,0.0
-0.19100218023725113,0.8728322630881471,0.6189353370371357,1.6219813627869453,0.010054420564571656,0.6682149769574252,0.0
-0.19093431302503278,0.8736029565910459,0.6200262236258978,1.6221865355437715,0.010055416431011951,0.6668170523763126,0.0
-0.19083869120984595,0.874752882814419,0.6216550225862706,1.6224839737263368,0.010056329165490424,0.6647082478162388,0.0
-0.19073340126578966,0.8758866817284997,0.6232502125733616,1.6227726591423457,0.010056372876681107,0.662596436281737,0.0
-0.19063800368553518,0.8769584259962466,0.6247563259357272,1.623038788802357,0.010055607988335416,0.6605817164230265,0.0
-0.19053582398734825,0.878085648939706,0.6263358209483183,1.6233106701077369,0.010053996752458104,0.6584310429822368,0.0
-0.19043099964270957,0.8792450169631177,0.6279568681005071,1.6235804654960995,0.010051453983764795,0.6561839106546824,0.0
-0.1903437931531712,0.8801420269052527,0.6292040346399884,1.623784850993664,0.010048780288747559,0.6544203519609505,0.0
-0.1902457943021682,0.8813297034227012,0.6308638800903283,1.6240384453325305,0.010044471478867946,0.6520500035335051,0.0
-0.19014643240741666,0.8822844419070178,0.6321831232988763,1.6242368720606473,0.010040236784607153,0.6500941938295258,0.0
-0.1900699844751005,0.8832183028867898,0.6334834793143572,1.6244182881292877,0.010035409232674371,0.6481663011608972,0.0
-0.18997249330271374,0.8842929759084568,0.6349735663144195,1.6246120744105583,0.010029124414633188,0.6458795797393043,0.0
-0.18990460614626561,0.8850043875287178,0.6359557920563319,1.6247347759979873,0.01002439508494354,0.6443403955783188,0.0
-0.1898415819240062,0.8857629279585375,0.6370080221486495,1.6248548418481903,0.010018905438987747,0.6426745275638478,0.0
-0.18978304768920387,0.8864050784409544,0.6378951068607784,1.6249499734617907,0.010013884865242552,0.6412328805300013,0.0
-0.18973348869769052,0.8869929134343274,0.6387090940900078,1.625029920526487,0.010008968208486256,0.6398934682039261,0.0
-0.1896806815150503,0.8876580783839905,0.639632343533235,1.6251098755604556,0.010003060837719043,0.6383449556703262,0.0
-0.18962743777614485,0.8883207113926025,0.6405519243706362,1.6251786028102315,0.009996792382292275,0.6367619561808969,0.0
-0.189578623891506,0.8889583822719633,0.6414385354345791,1.625233216366433,0.009990369146998941,0.6352006789463991,0.0
-0.18952498455138928,0.88992148498182,0.6427928060089267,1.6252812601053694,0.009979978321624075,0.6327494440697047,0.0
-0.18944912176104556,0.8908124564649258,0.6440333196783088,1.6252942727178927,0.009969590571487436,0.6303281192192025,0.0
-0.1894269959971874,0.8912396855121372,0.6446352741147872,1.6252934801289858,0.009964164941019359,0.6291632677306211,0.0
-0.18940205861189835,0.8916577599375664,0.6452233649930396,1.6252837161727758,0.009958664530251802,0.6279858548975282,0.0
-0.18937945218800445,0.8921202881509408,0.6458782057878247,1.6252601464397314,0.009952319520199938,0.6266448629508241,0.0
-0.18936592575850328,0.8929384840053154,0.6470590856948373,1.6251680492313747,0.00994040668347642,0.6241321647156856,0.0
-0.18931955019478885,0.8934380876787893,0.6477611295661514,1.6250884921585274,0.009932754583470444,0.6224542247363821,0.0
-0.18935058911815703,0.8941000177975268,0.64874806253179,1.6249423238745218,0.009921608287127237,0.6202276765296781,0.0
-0.18929205429368318,0.8945658056625092,0.6494040821576196,1.6247968421963332,0.009913594771284017,0.6183815044649115,0.0
-0.18935319134106096,0.8950299231894141,0.6501250173400788,1.624636871096813,0.009904596894470973,0.616673922948196,0.0
-0.18932182354972202,0.8952417783173454,0.6504244685649566,1.6245421889058553,0.009900569849299162,0.6157233177575109,0.0
-0.18934972310526532,0.8956124277125761,0.6509966945716511,1.6243600076500595,0.009892855066298388,0.6141300989905077,0.0
-0.18937769448408545,0.8960824252858279,0.6517318270656395,1.6240460372958045,0.009882421403537013,0.611798437385926,0.0
-0.18940046125020693,0.8963463337701436,0.652152286574726,1.6238410646754349,0.009876117969966767,0.6103961231630519,0.0
-0.18943116918368155,0.8965884611238628,0.6525482496591358,1.6236221111222668,0.009869971091586648,0.6090130651822468,0.0
-0.18947440352407902,0.896846217787393,0.6529835762865094,1.6233394840075963,0.009862945613338373,0.6073779673740692,0.0
-0.1895033207000405,0.8970165232770319,0.6532763615009868,1.6231202214141165,0.009857997164475994,0.6061801955858547,0.0
-0.18954745478309662,0.8971870353775998,0.6535827349070648,1.622870206154648,0.009852677161835426,0.6048944171960846,0.0
-0.18957095754727354,0.8972859407701332,0.6537625931470057,1.6227036818939689,0.00984942099421916,0.6040672510699971,0.0
-0.18962121510997718,0.8974258824510772,0.6540317355146378,1.622436099524608,0.009844457009398806,0.6028079444999219,0.0
-0.18966375777823427,0.8975372609174083,0.6542546957486934,1.6221772207365655,0.009840147206462894,0.6016431855520851,0.0
-0.18967581382044946,0.8975679145481366,0.6543167043480403,1.622102464978823,0.009838916071975288,0.6013103664176485,0.0
-0.18971904430637648,0.8976511285442393,0.6544948801915458,1.6218755189020195,0.009835341951512696,0.6003365349782075,0.0
-0.1897814307910517,0.8977469146394341,0.6547172258078974,1.6215512223404642,0.009830701455504895,0.5990068877069581,0.0
-0.18982520922149385,0.8978063389944321,0.6548655374929759,1.6213022576926155,0.009827437716019995,0.5980165942586725,0.0
-0.189886158493345,0.8978678062758721,0.6550351321292139,1.6209978682946573,0.009823606078355352,0.5968469855629924,0.0
-0.18994026990657223,0.8979118694907845,0.6551739381812351,1.6207079105147122,0.009820284282584465,0.5957645982829852,0.0
-0.18997485774945921,0.8979357121337864,0.6552557774311373,1.620526574289979,0.009818261653004869,0.5950985062515156,0.0
-0.19002732172716338,0.897963519855981,0.6553658740712346,1.6202655498895768,0.00981546762759536,0.5941610596924418,0.0
-0.19006803513060908,0.897980351782949,0.6554459527711887,1.6200540204860236,0.009813334765003496,0.5934134107697856,0.0
-0.19012394781481212,0.897996748810059,0.6555442369036477,1.619777097519274,0.009810639211365673,0.592453538816871,0.0
-0.19017236533288218,0.8980055635752663,0.6556228310830476,1.6195298007894898,0.009808365969914582,0.5916091533466948,0.0
-0.19022896875835002,0.898010927630657,0.6557063775030183,1.6192486448354113,0.009805862605194681,0.5906637502091918,0.0
-0.190283972172814,0.8980111645612229,0.6557810473136677,1.6189713917185633,0.009803505125486245,0.5897433014886067,0.0
-0.19034291961448302,0.8980074653155657,0.6558549119793173,1.6186769511633197,0.009801073187202202,0.5887768433632031,0.0
-0.19040702555091726,0.897999217531557,0.6559293565826627,1.618355018767289,0.009798498199091444,0.5877304202627894,0.0
-0.1904717484039905,0.8979876948891685,0.6560000638939574,1.6180279857597977,0.009795936271003941,0.5866747568246222,0.0
-0.1905283759126683,0.8979759361813063,0.6560596371442169,1.6177396298879518,0.009793693526676079,0.5857471480990619,0.0
-0.1905771820550292,0.8979652183264204,0.6561101048564788,1.6174899782250993,0.009791744150475179,0.5849448622055147,0.0
-0.1906408983117815,0.8979509492310515,0.6561755672928108,1.6171624828163702,0.009789167254736688,0.5838921829147441,0.0
-0.19069946188337863,0.8979374124247042,0.6562345789650579,1.6168631170230117,0.009786789128979545,0.5829313911840633,0.0
-0.19074242245515924,0.8979266657233921,0.6562765362223472,1.616643443135192,0.009785045680795669,0.5822282703852019,0.0
-0.190781539677907,0.8979161226678178,0.6563133333208785,1.616444940183033,0.00978347771562108,0.5815954466498049,0.0
-0.19082525048513446,0.8979030717160003,0.6563522496805987,1.6162253181130657,0.009781766516725196,0.5808995235090265,0.0
-0.1908660165855969,0.8978893006505325,0.656386115985902,1.616021133893721,0.00978021004627366,0.5802569261256032,0.0
-0.1909173702775807,0.8978696714538759,0.6564248150657747,1.6157686247214138,0.009778340627997649,0.5794704926357228,0.0
-0.19096456729362923,0.8978485139531407,0.6564559878595835,1.6155361922955238,0.009776699436788924,0.578754496971884,0.0
-0.19102469166870206,0.8978179872381422,0.6564894394373791,1.6152483435174125,0.009774768430128755,0.5778817803819558,0.0
-0.19106976403165862,0.8977908320243516,0.656509053679174,1.615028617471993,0.009773408402232625,0.577224340201775,0.0
-0.19111172076283464,0.897763772287409,0.6565240725753335,1.6148289415417505,0.009772228561695401,0.576634700860406,0.0
-0.19115706232355734,0.8977318519890769,0.6565360576397402,1.6146165592047599,0.009771058532956265,0.5760169205534066,0.0
-0.1912122835438051,0.8976890447484283,0.6565444511684609,1.6143629195321547,0.009769792179331828,0.5752931796856822,0.0
-0.19126970926469997,0.8976389674743182,0.6565452635077889,1.6141003406458483,0.009768655550332812,0.5745595094724055,0.0
-0.19131788704008537,0.897592710530181,0.6565400100103012,1.613880110679739,0.009767833682153514,0.5739553696359598,0.0
-0.19136364550217777,0.8975462115505317,0.6565309294872508,1.613674527994974,0.009767162860260819,0.5734013943335141,0.0
-0.19141633151185836,0.8974896069493108,0.6565155080369031,1.6134428520249144,0.009766530894015604,0.5727899888595791,0.0
-0.19147008581102357,0.8974273298034344,0.6564933119603692,1.6132078360922248,0.009766045247869797,0.5721830761473775,0.0
-0.19152380245662,0.8973611091028324,0.6564652739808582,1.6129753422154964,0.009765711746284166,0.5715957064456032,0.0
-0.1915806046989284,0.8972872692968038,0.6564298412413405,1.612733087081346,0.009765517927665954,0.570997781317147,0.0
-0.1916373044698145,0.8972092052412148,0.6563881847371109,1.612493142285932,0.009765488802392662,0.5704192757042842,0.0
-0.1916973263247425,0.8971227145672838,0.6563382486227081,1.612242834400259,0.009765623251348648,0.5698305391415032,0.0
-0.1917727953387369,0.8970095171298017,0.6562682627159255,1.611935827065744,0.00976601686586079,0.5691302371833837,0.0
-0.19185144447317948,0.8968825879168707,0.6561830420418485,1.6116154410700327,0.009766739778979783,0.5684225187082098,0.0
-0.19191658034690665,0.896771178537996,0.6561038819849201,1.611349332065105,0.009767557128809114,0.5678501855221227,0.0
-0.19199805362572064,0.896630886903334,0.6560017883925051,1.6110293641209945,0.009768736522675422,0.5671838245823372,0.0
-0.19206742533727428,0.8965025366014422,0.6559032765314844,1.610752031583975,0.009770020491003562,0.5666221124688674,0.0
-0.19215422940287316,0.8963417239428789,0.6557778831847622,1.610418306348445,0.009771767135664184,0.5659683476711233,0.0
-0.19224902809195976,0.8961568323527818,0.6556281358788916,1.6100542793556891,0.009774027573126549,0.5652804987351794,0.0
-0.19237200062959817,0.8959117866089042,0.6554248519090665,1.6095957675342392,0.00977730005066391,0.5644520539299115,0.0
-0.19249924688258113,0.8956389006728142,0.6551888124692236,1.6091148415058987,0.009781365532299725,0.5636223311392005,0.0
-0.19259531644379907,0.8954236919633813,0.654998111338355,1.6087501864536318,0.009784785884263618,0.5630144239768522,0.0
-0.19273555488739233,0.8951195155222864,0.6547289889815405,1.60825024899895,0.009789749680604736,0.5622187809290772,0.0
-0.19286212637865238,0.8948168287939179,0.6544501981311938,1.6077781957804502,0.00979512507721656,0.5614991573609125,0.0
-0.19297695967256367,0.8945446572259727,0.6541986175676213,1.607363715512538,0.00980007903166376,0.560890044223007,0.0
-0.1930582358768498,0.8943436563408655,0.6540096591109003,1.607065396522077,0.009803877072696603,0.5604629139305165,0.0
-0.19310901592431343,0.894216787356522,0.6538897357825618,1.6068793905787697,0.009806312951971078,0.5602007998982366,0.0
-0.19319074152429752,0.8940179464043276,0.6537025914857254,1.6065908313831698,0.009810145963291899,0.5598042256270072,0.0
-0.19327368354530403,0.893811949437953,0.6535069214833531,1.606297472419791,0.009814208959459822,0.5594110020718474,0.0
-0.19346925126700448,0.8933469341224908,0.6530681249437327,1.6056492120197872,0.009823464080244744,0.5585876837361828,0.0
-0.19363208345696456,0.8928928487644247,0.6526186870445281,1.6050500745593186,0.009833254035064305,0.5578626564814411,0.0
-0.19386304961972625,0.8923157124489325,0.652060117315437,1.604294086793511,0.009845560013444676,0.5569990744056891,0.0
-0.19401800461886107,0.891852795484449,0.6515902399154216,1.603718064972513,0.009856193452495537,0.5563690183472617,0.0
-0.19416904069867547,0.8914499572107519,0.6511906129553794,1.6032144073360786,0.00986528479607447,0.5558373256402015,0.0
-0.19427843215757698,0.891138202736661,0.6508756655023668,1.6028333991169812,0.009872540846478735,0.5554459095774488,0.0
-0.1944433077552069,0.8906869032739304,0.6504227251606048,1.6022860865946358,0.009883053602317818,0.5549049627756163,0.0
-0.19460496153804732,0.8902247550152722,0.6499528660954348,1.6017374674932805,0.009894092415508973,0.5543827781635094,0.0
-0.19477638393404398,0.8897353882753413,0.6494541074400383,1.6011640313605457,0.009905921390877561,0.5538573799795715,0.0
-0.1949838328773518,0.8891410036692722,0.6488460098853489,1.6004781115376723,0.009920491107083944,0.5532564092300366,0.0
-0.19516572044658778,0.8885975134656039,0.6482833640434132,1.5998627926295763,0.009934121102114042,0.5527376739504875,0.0
-0.1953029199579162,0.8881852155185581,0.647855095749577,1.5994003032517206,0.009944572655937078,0.5523583711622055,0.0
-0.19546971471492997,0.887692946225074,0.6473446407084861,1.5988517267902793,0.009957104226492208,0.5519231980407107,0.0
-0.19567329785639667,0.8870876726965808,0.646714557295317,1.5981853452164185,0.009972692637503848,0.5514151916525114,0.0
-0.19582270073028615,0.8866228907211365,0.6462252146931804,1.5976812007820076,0.009984897259939448,0.5510416043447527,0.0
-0.1960416289862263,0.8859686076196245,0.6455404200788236,1.596974100652888,0.010002068802610887,0.5505383235605942,0.0
-0.1964069257965326,0.8848799802099816,0.6443981219529368,1.5958148808766657,0.010030981632984794,0.5497651320074479,0.0
-0.1966492386778149,0.8840548197832214,0.643507179782843,1.5949626254892841,0.01005381862842104,0.5492209502825702,0.0
-0.19689048378171214,0.8833187453208791,0.6427264862279296,1.5941955200238547,0.01007391347335749,0.5487486088458626,0.0
-0.1971375623284063,0.8825243119997229,0.6418733262151729,1.5933812001954293,0.010096042938234497,0.5482674094084579,0.0
-0.19737769311405823,0.8817534690890039,0.641043742669163,1.5925966033722088,0.010117690922852656,0.5478207035393539,0.0
-0.19766559595998962,0.8808329851341006,0.6400514059794792,1.5916667901145207,0.010143742364750314,0.5473142674561994,0.0
-0.19798846659172523,0.8797806166213408,0.6389096854633115,1.590615902036007,0.01017392613615628,0.5467690310609629,0.0
-0.1982956817114712,0.8787604874261372,0.6377959840792045,1.589607532468965,0.010203569768191636,0.546268276992848,0.0
-0.19857301544115613,0.8778337399620778,0.6367803084785666,1.588697926904344,0.010230760392934775,0.545833272022754,0.0
-0.19886914526676264,0.8768472584853152,0.6356969584825849,1.5877352608342628,0.01025991178629101,0.5453910206158118,0.0
-0.19918063495451377,0.8757958827989811,0.6345365881143189,1.586717532884775,0.010291304786424291,0.5449425480223253,0.0
-0.19955280506201703,0.8745437721989192,0.6331513977360418,1.5855131980354304,0.010328981944875654,0.5444370608432411,0.0
-0.19986440835927416,0.8734470567173708,0.6319250854755638,1.584470590558449,0.010362535889763188,0.5440159916308567,0.0
-0.200135460869023,0.8725083168861006,0.6308752458902714,1.5835798488982837,0.010391377445488152,0.5436671246493138,0.0
-0.2003314713405942,0.8718131600452688,0.63009302076064,1.5829242883994878,0.010412945739138466,0.5434158355984169,0.0
-0.20064483410950248,0.8707400890958367,0.6288899906042111,1.5819122242789891,0.010446210125186867,0.543042867219717,0.0
-0.20093471047177458,0.8697020916886617,0.6277146749498265,1.580943244763456,0.010478853108452044,0.5426977432741441,0.0
-0.20123292930326475,0.8686458497708132,0.6265175469700227,1.579959586457883,0.010512216828955218,0.5423587943067759,0.0
-0.2015266541585666,0.8675899527120577,0.6253147708330918,1.5789818369606352,0.010545860400334265,0.5420326729002406,0.0
-0.2020739457504057,0.8657010806964504,0.6231704597975296,1.5772346829021913,0.010606071734727792,0.5414864375109967,0.0
-0.2022361400850701,0.8650167802865809,0.622367385148799,1.5766184633068057,0.010628759886291419,0.541295397880655,0.0
-0.20277284946570243,0.8631190968973804,0.6201903972943673,1.5748818806221752,0.010690349947035301,0.5407901819212929,0.0
-0.20305072608172584,0.861976310336901,0.6188447122057593,1.5738584825400481,0.010728634322575774,0.5404993879548636,0.0
-0.20341852216625456,0.8606659902774965,0.6173280607307705,1.572667862498892,0.010772454830313636,0.5401727172885324,0.0
-0.2038500109034562,0.8595932959006859,0.6161635708367967,1.5716458821413843,0.010820691041447209,0.5399180289092165,0.0
-0.20421016734104855,0.858550514738859,0.614990426746324,1.570685534796091,0.01087999075848496,0.5397042636930327,0.0
-0.204708684320179,0.8569510338509413,0.6131511165466015,1.569247557750138,0.010982625885866707,0.5394249095437251,0.0
-0.2049047575199206,0.8553376857726667,0.611095037429827,1.567935489737558,0.01108758063485447,0.5392102548500508,0.0
-0.20503313992452074,0.8544714567929593,0.6100013945238592,1.5672215665701055,0.011143944792649588,0.539093140187867,0.0
-0.2052105171757984,0.8532631551083663,0.6084714743910512,1.5662281361927655,0.011222293999891823,0.5389361115120113,0.0
-0.2053851624533776,0.8520085306794765,0.6068721856150675,1.565201946638176,0.011303546861026881,0.5387789594578676,0.0
-0.20548466766846307,0.8512506012726729,0.6058993527861052,1.5645846153126712,0.011352745893763987,0.5386850289968924,0.0
-0.2056499617382723,0.8500605547068025,0.6043745450711299,1.5636131958683748,0.011429675142338204,0.5385423497767509,0.0
-0.20579328698315344,0.8489713466478862,0.6029698026021582,1.562728110242221,0.011500098659014735,0.5384152401051508,0.0
-0.20593308542651276,0.8479016626426382,0.6015858345449533,1.5618600717444788,0.011569213100740413,0.5382932968472358,0.0
-0.20605573397713298,0.8469399909455348,0.6003363385478223,1.5610814447220052,0.011631359775545129,0.5381858148502084,0.0
-0.20621583184456171,0.8457038220194494,0.5987276775004196,1.5600808617566884,0.011711066252629057,0.5380519767411567,0.0
-0.20642600926932855,0.8440607396822853,0.5965808808393765,1.5587541264665945,0.011816748134073178,0.5378820116218589,0.0
-0.2066241812622446,0.8423923461164574,0.594382119531492,1.557414544696935,0.011924109347785497,0.5377160831935204,0.0
-0.20678982568252413,0.8409538022135955,0.5924746983963196,1.5562623649274583,0.012016805708357399,0.5375761264662454,0.0
-0.20696765459176236,0.8394082628641505,0.5904174055904241,1.5550258282594012,0.012116352817555487,0.537430260017406,0.0
-0.20707516835730905,0.8383810220341285,0.5890377482514244,1.5542081694509073,0.012182768231283588,0.5373341914730632,0.0
-0.2072122017009837,0.837128133645659,0.587353942495171,1.553209529428254,0.01226366659189762,0.5372197895623063,0.0
-0.2073136257492447,0.8363523046707562,0.5863179148583426,1.552585810210148,0.012316259215887117,0.5371512775551323,0.0
-0.207526550159013,0.835123068565621,0.5847048702489136,1.551581862145879,0.01240649350268863,0.5370539703636029,0.0
-0.20773107794093515,0.8340175886840933,0.5832567751391666,1.5506789584900103,0.012498318103220288,0.5369825595466721,0.0
-0.20796016774874806,0.8325063539151261,0.5812389125818991,1.5494698396342006,0.012633165052233521,0.5369096338871071,0.0
-0.20797801764012275,0.8308817434409478,0.578918139511587,1.548260349682055,0.012777333589007078,0.5368631540042651,0.0
-0.20795725008433918,0.8301599731163503,0.5778648366529808,1.547732876317373,0.012841571711027119,0.5368422764486892,0.0
-0.2079320833620917,0.8286051018380987,0.57560325818557,1.5465902723485276,0.012979383233290568,0.5368007291013641,0.0
-0.2078963102346709,0.8267561020691165,0.5728986443481225,1.5452336116343126,0.013142973979453887,0.5367540554217054,0.0
-0.20784472207805685,0.8248537242219979,0.5700924010968815,1.543842560259149,0.01331122222234066,0.5367078205123617,0.0
-0.2077864680193389,0.8230804724555465,0.5674562513954634,1.5425487183400397,0.013468182177925399,0.5366651974629145,0.0
-0.2077312375894889,0.8216917347130268,0.5653753124191496,1.541537928201152,0.013591378639779576,0.536631177893036,0.0
-0.20767770786299447,0.8204056760731947,0.5634389826135386,1.5406022096326317,0.013705580681501153,0.5365996614141869,0.0
-0.2075885562763427,0.8178029379719957,0.5595168634979201,1.53870333745201,0.013935524582671612,0.5365441483647181,0.0
-0.207520111264861,0.8168916211244124,0.5581100581043417,1.538049786844907,0.014016733551566832,0.5365223009405838,0.0
-0.2074192063002652,0.8151036648708426,0.5553628062796985,1.5367565472516396,0.014175612752764553,0.5364820342026493,0.0
-0.2073049999200598,0.8131956987067436,0.5524110407729016,1.5353779259833027,0.014345335561501681,0.5364396797714251,0.0
-0.20719823484190342,0.8116850994888509,0.5500501469584222,1.534290758836528,0.01448017941587378,0.5364050538132582,0.0
-0.20722063054660383,0.8095005921354327,0.5467273957604021,1.5326665249121798,0.014695548464867175,0.5363800692019414,0.0
-0.20713098900752616,0.8071512873206771,0.5430570175031472,1.5309692710362985,0.014956119382363336,0.5364006293817134,0.0
-0.20660120827292391,0.8048639782359862,0.5391838955562644,1.52946543937684,0.015206575266972458,0.5364478616060554,0.0
-0.20614523752346917,0.802314165395504,0.5349175197911484,1.5277411817327127,0.015487499169051592,0.5364966003687562,0.0
-0.20578118931104863,0.8007209567367226,0.5321811871596147,1.5266856963779443,0.01566364504323335,0.5365237096271974,0.0
-0.20532148642199186,0.7985396709072896,0.5284388084557342,1.5252261724637393,0.015905169751492636,0.5365603513073015,0.0
-0.2047507097329341,0.7959827609321436,0.5240001913388348,1.5235216452773606,0.01618864001175689,0.5366021103528639,0.0
-0.20428089595764104,0.7940229215384574,0.520548507509366,1.5222208638884456,0.016407169817206822,0.5366297229959879,0.0
-0.20374251232908155,0.7917821566892788,0.5165742471364383,1.5207307764848064,0.016657715905661497,0.5366594675832868,0.0
-0.2029418131009831,0.7885557546760422,0.5107903099314003,1.5185886031704627,0.01701870788975815,0.5367026370186871,0.0
-0.20232581021800516,0.7862256424607308,0.5065406547858508,1.5170478293263876,0.017287326096269717,0.5367327868541312,0.0
-0.20196163108316292,0.784258134126117,0.5030148116933643,1.5157062312826473,0.01754500219049105,0.5367868508685696,0.0
-0.20125619591533248,0.7822007709217883,0.49910080963081616,1.5144027618385338,0.01781878293099166,0.5368700778291466,0.0
-0.20002672404428504,0.7791167354328284,0.49308262180583307,1.5124940959432143,0.01822744891894202,0.5369997202226712,0.0
-0.1990158391972772,0.7767518042388872,0.488371470670807,1.511040418876782,0.018543451195378393,0.5370909563392817,0.0
-0.19779493174973156,0.7738924508915579,0.4826229490954312,1.5092743093880532,0.018927706950668397,0.5371965377445166,0.0
-0.19645349059468184,0.7709401404411282,0.4765694580542442,1.5074624863109778,0.01932697111748596,0.5372980750296925,0.0
-0.19546518151273468,0.7688483684459744,0.4722047007469374,1.5061803353787955,0.019613099561785592,0.5373620071711791,0.0
-0.194480017847326,0.7668066955997194,0.4678939323383869,1.504928560818704,0.01989431877963616,0.5374199581626451,0.0
-0.19358923825309446,0.7650203770278505,0.4640711992360612,1.5038358279945345,0.020142138773920935,0.5374664252341206,0.0
-0.19249629675836036,0.762864323926064,0.4594096771351048,1.5025163879594012,0.020442828120133493,0.5375192462403352,0.0
-0.19149216763224636,0.760961838557836,0.45523192079150904,1.5013564198108318,0.0207102684058278,0.5375609383353144,0.0
-0.1902526494973017,0.7586524753182985,0.4501032405404655,1.4999474620601123,0.021036948488975325,0.5376075450344099,0.0
-0.18882907589300224,0.7560997230613699,0.44433919447678,1.4983949095309688,0.02140095856375038,0.5376529884559728,0.0
-0.18744953025751482,0.7537241920811032,0.438875039701382,1.4969543173262683,0.02174338650576384,0.5376875744383957,0.0
-0.18598720360859702,0.7512810796482775,0.4331618017479683,1.495474220318745,0.022099204900430082,0.537716013145171,0.0
-0.18467308406728428,0.7491768707652412,0.42814571597518536,1.4942040254894897,0.022409308813641775,0.5377331585923951,0.0
-0.18323299259429793,0.7469253650583706,0.42269777082757176,1.492845072752718,0.02274446551822328,0.5377453771955931,0.0
-0.18164078839408102,0.7445248134900467,0.4167831884374207,1.4914002447999275,0.023105681619062644,0.5377513299771126,0.0
-0.18016050842408082,0.7423810482004898,0.41139449184564114,1.490114078346246,0.023432549956854176,0.5377486501812908,0.0
-0.1784831343890722,0.7400165521631896,0.4053499030347325,1.488696388460899,0.0237972755740869,0.5377384923230762,0.0
-0.17723290233072334,0.7383372574733772,0.4009606305518301,1.4876947887249619,0.024060241048431803,0.5377239578567935,0.0
-0.17591277598219485,0.7365945793933193,0.3963449253395117,1.4866545820874844,0.02433601709003143,0.5377040337207927,0.0
-0.17450333728927905,0.7347860139584965,0.3914782689055462,1.4855772732934978,0.024625330324762718,0.5376781998079683,0.0
-0.17303091453518613,0.732952261204912,0.386459904276288,1.4844873655215152,0.02492215006558788,0.5376462910578651,0.0
-0.17136994290304763,0.7309425496820262,0.38086436255640227,1.4832950619826004,0.025251424777284946,0.5376050242842163,0.0
-0.16988633622833008,0.7292147916423657,0.3759540672114867,1.4822737674613218,0.025538735491276256,0.5375625601385504,0.0
-0.16857293168984058,0.727727583559197,0.3716540150626512,1.481396070417278,0.02578942106552779,0.5375205067326143,0.0
-0.1671067299091068,0.7261044307264698,0.36689060656706646,1.4804391017079677,0.026066130995701865,0.5374698734922247,0.0
-0.16560900350432015,0.7244949133884843,0.3620838058925278,1.4794925461984456,0.026344097693724356,0.5374141704578544,0.0
-0.16391029702817042,0.7227180518187903,0.3566846460411253,1.4784493706034016,0.026654995092499197,0.5373467121540904,0.0
-0.16252292653133557,0.7213194570919902,0.35234517087255257,1.4776313634994138,0.026903677395315732,0.5372874286064828,0.0
-0.1607610339237733,0.7195777739179154,0.3468592456266732,1.4766128166664902,0.02721712070895401,0.5372083039847352,0.0
-0.15837109679205888,0.7172879834803569,0.33949745951328275,1.4752769137736894,0.027635430276716184,0.5370958813881274,0.0
-0.1564215216519002,0.7155187110921815,0.3336340507078716,1.4742515671665029,0.027966243163834732,0.5369977148972617,0.0
-0.1542205368088536,0.7135715209552602,0.3270441781253336,1.473122600906153,0.02833708904115362,0.5368800474219466,0.0
-0.15296179682098512,0.7121004869464898,0.3222111864405149,1.4721895803854679,0.028627886648143017,0.5367685568827847,0.0
-0.1516482387804506,0.7106668916218121,0.31737657424152277,1.4712909808023846,0.028915729826918687,0.5366532682256169,0.0
-0.15018957108530281,0.7091056262839939,0.31201242407924523,1.4703122368004669,0.029234697448524773,0.5365188456732548,0.0
-0.14889711456164126,0.7077757912445957,0.3073330484129139,1.4694820729220017,0.02951190125467251,0.5363954634466926,0.0
-0.1478181223628653,0.7065124873526121,0.3029067580422617,1.468661905989906,0.029823294925409662,0.5362525526201323,0.0
-0.146896393728673,0.7050543119090252,0.2978942026654887,1.467696942367858,0.030339397246578602,0.5362022201981577,0.0
-0.14451877013967906,0.7033208943592636,0.2910631443766645,1.4667885072080473,0.03101398057573691,0.5363143861173181,0.0
-0.1389852123963537,0.7005226922979495,0.27882106758642444,1.4655610912327965,0.032041350917653616,0.536523181739723,0.0
-0.13499553885832738,0.6984694677956907,0.2695621028035581,1.4646216611803209,0.03284690152738258,0.5366786415762619,0.0
-0.13350377940906838,0.6977709543272654,0.2662461281982668,1.4643120999845611,0.03312773982672824,0.5367289257090615,0.0
-0.13123204340094094,0.696710292584177,0.2611568484862136,1.4638387003474294,0.03356066815908822,0.5368054415275287,0.0
-0.12751730284424223,0.6950001694916239,0.25279242095397764,1.4630716377081758,0.03427310671376932,0.5369285720411657,0.0
-0.12408917071468586,0.6934901761086866,0.2451238682362763,1.4623969822923804,0.03492332220759662,0.5370348677423324,0.0
-0.12098246720749477,0.6921713118209111,0.2381921599988752,1.4618083241710196,0.03551012681818545,0.5371258438983035,0.0
-0.11853660765177063,0.6911695246372119,0.232753954632891,1.4613621171747466,0.03596968780068659,0.5371934271461613,0.0
-0.11533831203262776,0.6898918744617402,0.22564237213275282,1.4607928301542803,0.03656994687837426,0.537278445312283,0.0
-0.11190627736555628,0.6885730892074838,0.2180401736187232,1.460206907002402,0.037209511655257425,0.5373639898596535,0.0
-0.1089323525450712,0.6874780231237368,0.2114790296923455,1.4597219530991266,0.03776013659977343,0.5374327790270562,0.0
-0.10601799530550154,0.6864421793516811,0.20505962942685982,1.4592639373184875,0.038298205461349794,0.537496036079583,0.0
-0.10315970571683916,0.6854627147797436,0.19877782251887313,1.4588318629057742,0.03882385037489689,0.537553987628222,0.0
-0.10007949053248287,0.6844447322282339,0.19202003657816744,1.4583837840689555,0.03938837752812478,0.53761223484757,0.0
-0.09768432902507072,0.6836860869596283,0.18678394618057945,1.4580511993890297,0.03982497148418379,0.5376537382548415,0.0
-0.09493349527832594,0.6828409603532083,0.18077193994048205,1.4576811940208168,0.04032590496157938,0.5376984483522467,0.0
-0.09181681183834224,0.6819190924556282,0.17397162000927785,1.457278781748758,0.04089153204022044,0.5377450526817651,0.0
-0.08861145953364657,0.6810130382814926,0.16699554263677432,1.4568849614033927,0.041470590157141975,0.5377881498764373,0.0
-0.08560577313524163,0.6802032746459112,0.16046951569967488,1.4565346276422584,0.042011444160459134,0.5378239328293754,0.0
-0.08051880944621266,0.6788894299094458,0.14941154655907016,1.4559674231321287,0.04292645624171741,0.5378780816866524,0.0
-0.07592625809250851,0.6778056129658343,0.13951269412073236,1.4555058660402045,0.04374085638754263,0.5379150138211486,0.0
-0.07026564382204908,0.6765628645317636,0.12727790204154457,1.4549791988879037,0.04474847910087175,0.5379494863206539,0.0
-0.06503087666385353,0.6755362803171792,0.11605082976720404,1.4545521160933215,0.04566830580044442,0.5379668808837068,0.0
-0.06091868383460914,0.6748086465340123,0.10722401269794053,1.454253404975489,0.04639296410512203,0.5379709998326225,0.0
-0.0557648773325839,0.6739756747318641,0.09616753523915897,1.4539165110277772,0.047299506202338124,0.5379666663777853,0.0
-0.05057084123863606,0.67323852898286,0.08506570305934985,1.4536262523239607,0.048207465539594395,0.5379500135084517,0.0
-0.04730011394602198,0.6728375545797184,0.07809098375135368,1.4534737189924507,0.048778147929166384,0.5379318827796936,0.0
-0.044185209751666975,0.6724921854070409,0.07144297447265825,1.4533457824192784,0.04932266603915515,0.5379101416358714,0.0
-0.03973523775940728,0.6720485736524141,0.06193803731891496,1.4531867673290546,0.05010088003503232,0.5378729520130436,0.0
-0.034737990988030425,0.6716323950506108,0.05128921346416631,1.4530476549405238,0.05097109860649296,0.5378212411250393,0.0
-0.030105608380381642,0.6713305774309565,0.04142976284163626,1.4529590187556023,0.051776746870636256,0.5377630753343838,0.0
-0.0259967269705478,0.6711313752571108,0.032688346531328745,1.4529133161967693,0.05249149832033741,0.5377031188175968,0.0
-0.02226262046057205,0.6710054027402136,0.02474600378156528,1.4528982742107721,0.053141334334994524,0.5376419046061227,0.0
-0.018009501831219223,0.6709187748754042,0.01569453709384558,1.452908573784293,0.05388228647865294,0.5375651664883513,0.0
-0.013899975037100326,0.6708977611190173,0.006956202838569113,1.4529486948444157,0.05459763838606077,0.5374833927620942,0.0
-0.00875400715509608,0.670947299918821,-0.003999839159823847,1.4530357035971302,0.0554952372522958,0.5373715771387717,0.0
-0.004044021578259664,0.6710793331423965,-0.014011996471039241,1.4531569489804832,0.056315482631642474,0.5372587829238904,0.0
0.00138824553716386,0.6713240857930215,-0.025585867578450973,1.453341894701518,0.057265618032488745,0.5371172357302841,0.0
0.007124261406063308,0.6716943712955924,-0.037799787944386314,1.453590989805678,0.05826866304514841,0.536954242922359,0.0
0.012613098443416682,0.6721630914284921,-0.04950538909252155,1.4538849456339464,0.059232406528346215,0.5367844143675398,0.0
0.01690485984897747,0.6726148740653916,-0.05866022428515401,1.4541559050114186,0.059987792884422936,0.5366415145199589,0.0
0.02190713879501314,0.6732216060318584,-0.06936041286189895,1.4545112215535698,0.060873037082165134,0.5364651470144463,0.0
0.025508612484732247,0.673723735026555,-0.0770603033200444,1.4547982261976584,0.06151115850625451,0.5363305987936587,0.0
0.028723507753272516,0.674215826733049,-0.08394974804856209,1.4550760530420677,0.0620837978303921,0.5362052625196698,0.0
0.032146317331479206,0.6747812567753236,-0.09129523548564782,1.4553921244274406,0.06269544185048644,0.5360668821438492,0.0
0.03505094658200729,0.675298381735703,-0.09753439653498633,1.4556783912703708,0.06321597029672006,0.5359451211662629,0.0
0.03772831271489218,0.6758047596209416,-0.10329318420370817,1.4559567682779038,0.06369737136031059,0.5358294174835977,0.0
0.040469118794222374,0.6763514285840172,-0.1091965011063309,1.456255575887024,0.064191728349446,0.5357076605638821,0.0
0.044062723653785336,0.6771068460285583,-0.11695066449942919,1.4566663892788418,0.06484218203002409,0.5355434177861831,0.0
0.04757255012183409,0.677893382468824,-0.12453394803513124,1.4570912044533972,0.06547966147214515,0.5353774151614509,0.0
0.05099440112997591,0.678707666612883,-0.13194147757726818,1.457528558469617,0.06610400497738277,0.5352101333950611,0.0
0.05659444563845413,0.6801192655071071,-0.1441029410463946,1.4582836733804705,0.06713149907778558,0.5349269047182497,0.0
0.061884580160316664,0.6815697854459365,-0.15561167853272337,1.459053065016413,0.06810719648195912,0.5346463535720362,0.0
0.06753218049979584,0.6832454596417045,-0.1679602573463029,1.4599377841617265,0.06915994593557495,0.5343324435243849,0.0
0.07355350240753536,0.6851733797807094,-0.18116635732173098,1.460949316241906,0.07029067683821756,0.5339822736066219,0.0
0.0785407946950277,0.6869015594267815,-0.19216135321417085,1.4618518169247043,0.0712384665139382,0.5336781032319253,0.0
0.08206271532560219,0.6881982258363298,-0.19995045206304676,1.4625259235474979,0.07191330853316458,0.5334553935698814,0.0
0.08528696794523945,0.6894372990134348,-0.2071059234979119,1.4631687000470337,0.07253587488624257,0.5332460289184059,0.0
0.08968831142476003,0.6911951190419392,-0.21690685706089277,1.4640789353866739,0.07339163342495394,0.5329531235219842,0.0
0.09312373652717748,0.6926371733564868,-0.22458528127328087,1.4648233688163264,0.07406551328652637,0.5327174332218454,0.0
0.09666123642227824,0.6941807242125315,-0.23252072438271898,1.465618745322655,0.07476495559887635,0.5324687622516411,0.0
0.09977899929239391,0.6955947073768808,-0.2395394066489854,1.4663458743493842,0.0753863740722347,0.5322442776753952,0.0
0.1031940881880465,0.697196768437861,-0.24725431447027113,1.467168451820649,0.07607221632472336,0.5319930871366322,0.0
0.10606798090951963,0.6985944939915942,-0.253770766587063,1.4678848350959008,0.07665421766255517,0.5317769182344949,0.0
0.10967971382182319,0.7004051392969686,-0.2619890730557157,1.4688116874738348,0.07739110574858504,0.5314999689076754,0.0
0.11400605226653648,0.7026573564314516,-0.27187924983857137,1.4699629039946793,0.07828255471611532,0.5311602256542638,0.0
0.1184618837758573,0.7050819966101259,-0.28212308182420276,1.4712000829846714,0.07921196838736577,0.530800517652477,0.0
0.12236904164144881,0.7073048556749727,-0.29115768966858036,1.472332118031882,0.08003738715647177,0.5304763537070177,0.0
0.1268921364565392,0.7099791656081138,-0.3016721636105902,1.4736918248355027,0.08100396569223334,0.5300920861219376,0.0
0.13063100368166128,0.7122909698262752,-0.31042401691897903,1.4748655092323404,0.08181493985491664,0.5297656486439414,0.0
0.13332957159699216,0.7140192489332317,-0.31677168415948875,1.4757412330036517,0.08240671240252773,0.5295250815340691,0.0
0.1368753680852516,0.7163490796551921,-0.3251455438086664,1.4769204017416864,0.08319102867571374,0.5292041132183212,0.0
0.13956851973138842,0.7181810428068042,-0.3315458568975859,1.4778467853615997,0.08379468408670541,0.5289552058492085,0.0
0.141953769923772,0.7198441325762643,-0.33723610075480565,1.478686568335377,0.08433387406486972,0.5287315965473448,0.0
0.14527444122106845,0.7222116654848243,-0.3451885998573031,1.4798808947811606,0.08509086591827275,0.5284162719795421,0.0
0.1486013160707651,0.7246615719943195,-0.3532086330819146,1.4811160039126945,0.08585977860010474,0.5280943253743593,0.0
0.1498047424641825,0.7255759485193416,-0.35612735773149257,1.4815764466309695,0.08614147137079906,0.5279757451870108,0.0
0.15454899759562402,0.729214908968766,-0.3676437651969795,1.4834064554104325,0.08725528846835824,0.5275064108076812,0.0
0.15636496000671898,0.7312817271158284,-0.3734766172817176,1.4846013865882814,0.08791523100818519,0.5272504827665313,0.0
0.15712519793049792,0.7329252423216617,-0.3776195338604122,1.4856885721970603,0.08847051625424254,0.5270525004767926,0.0
0.1583550841153881,0.7349783572138674,-0.3829120384643487,1.4869848389380849,0.08914078142973725,0.526802376674772,0.0
0.15944986640133998,0.7370210754076719,-0.3880248099321259,1.4882977859766975,0.08980617398613261,0.52655423892071,0.0
0.16093564559383086,0.739773067571832,-0.3948286957852277,1.4900589066841534,0.0906911724462141,0.5262197456397328,0.0
0.16205120211208976,0.7420009036723225,-0.4001871607242104,1.4914980409306935,0.09140115332147133,0.5259494121582288,0.0
0.16297173153442068,0.743856017112202,-0.40458401214356765,1.492694488105825,0.09198563391725216,0.5257243295199668,0.0
0.16391166733781795,0.7458279104597234,-0.4091825754382782,1.4939717885119579,0.09260339939703432,0.5254855636838203,0.0
0.1650040416702843,0.7481793437198812,-0.41458656345004347,1.495497499700684,0.09333500518043411,0.5252015130232844,0.0
0.1659274321208139,0.7502491183952866,-0.41925711289562173,1.4968452255216496,0.09397425632754046,0.5249521372801623,0.0
0.16678279728521472,0.7522194634625746,-0.42363872383169077,1.4981304292370925,0.09457881746172386,0.5247153711811356,0.0
0.1678380298873275,0.7547200587594982,-0.4291226755726642,1.4997648517281033,0.09534227452960357,0.5244160899875523,0.0
0.16877985623172684,0.7570450566736034,-0.43413139250341254,1.5012894545507158,0.09604776434191034,0.5241390316451545,0.0
0.1696389187904372,0.7592308370487905,-0.43876907267406945,1.5027253277460493,0.09670718122704663,0.5238796921336555,0.0
0.17035754073237344,0.761122025227838,-0.4427236096477711,1.5039707060302694,0.09727503954329944,0.5236562688320973,0.0
0.17108962942827888,0.7630948257299693,-0.4468007751279276,1.505271514453115,0.0978651863103813,0.5234242743178106,0.0
0.1717747620257629,0.7649962830591107,-0.4506816131194293,1.5065278005060083,0.09843207963833221,0.5232017710100031,0.0
0.17228258641280353,0.7664453418648367,-0.45360457532751547,1.5074868888297746,0.0988625870561445,0.5230329081363474,0.0
0.17284881832585164,0.7680876133813646,-0.4568900131957999,1.5085746359000995,0.09934948240984093,0.5228423948776175,0.0
0.1739516173607576,0.771331938799847,-0.46332359542939394,1.5107243005171782,0.10031103233405596,0.522469408070049,0.0
0.17483224017514631,0.774116299793202,-0.4687266337168229,1.5125807068367534,0.10113457041278558,0.5221526050678051,0.0
0.1754209966250395,0.7759971302532466,-0.47233058508654824,1.5138326776301103,0.10168759655872213,0.5219400317407308,0.0
0.17587123388685233,0.7774932782348508,-0.47516412513841655,1.5148317366567305,0.10212714914940334,0.5217720040330999,0.0
0.17661666677007765,0.7799855029739033,-0.47985313391395573,1.5164949902126346,0.10285936873239004,0.521494598629449,0.0
0.1771379461981953,0.7818237394424927,-0.4832599268465902,1.5177268847947836,0.10339910921588928,0.5212918036135604,0.0
0.1777981656007129,0.7841611411444196,-0.4875598059419597,1.5192914411780887,0.10408488057704672,0.5210364026722861,0.0
0.17859803507925384,0.7871011683230501,-0.49290138995989896,1.5212642187825007,0.10494900746267777,0.5207195820299486,0.0
0.17916159810021243,0.7892750671026414,-0.4967909238952455,1.522727121723319,0.10558773584517489,0.5204881916723677,0.0
0.1796185621939395,0.7910681330811381,-0.49996927244267936,1.5239337193945193,0.1061141751348785,0.5202992196115127,0.0
0.18004480962461236,0.7927817861867485,-0.5029811256311437,1.5250882509610169,0.10661775048784823,0.5201204085460839,0.0
0.18040529417065407,0.7942647441028915,-0.5055668113480496,1.5260884240073136,0.10705383627573975,0.519967085613015,0.0
0.18084279784143997,0.7960857661378608,-0.508722660590994,1.5273167479730063,0.10759018622005019,0.5197808302218024,0.0
0.18123970000828213,0.7977877929135936,-0.5116466487038404,1.5284667941547172,0.10809243587776553,0.5196087449681301,0.0
0.1816374500982756,0.7995233265431932,-0.5146070455180474,1.5296400614824144,0.10860544247332038,0.5194353270054928,0.0
0.18195647943213875,0.8009533272640944,-0.5170270024188438,1.5306081383404608,0.10902882890846728,0.5192939850961349,0.0
0.1822287264113191,0.8021928693242564,-0.5191123297616321,1.5314476773495025,0.10939628751148868,0.5191726220258243,0.0
0.18257988661087346,0.8038031633082917,-0.5218091361402292,1.5325381856909677,0.10987478953288819,0.5190167924553795,0.0
0.18292071090091006,0.8054069304895145,-0.5244757805945293,1.5336258274304506,0.11035275586920204,0.5188636414937393,0.0
0.18325403711335977,0.8070049278454186,-0.5271156804914948,1.5347103075605075,0.1108302940641897,0.5187131024298924,0.0
0.1835641839924463,0.8085228888711694,-0.5296070228311047,1.5357413800681639,0.11128519630295988,0.5185720530867244,0.0
0.18374482218001634,0.809915589111697,-0.5318149665115754,1.5367209323744062,0.11171289536734366,0.5184460450520649,0.0
0.18389825829446224,0.8113932276058229,-0.5341227903093257,1.537772470340704,0.11217154198610658,0.5183148427539568,0.0
0.1840550230904892,0.8129340302774258,-0.5365163210285787,1.5388695664967744,0.11265164221912442,0.5181801226853736,0.0
0.18420180358379598,0.814431737182764,-0.5388284844405085,1.5399373706262116,0.11312035224387353,0.5180512812655244,0.0
0.18435416602481963,0.8160250076574741,-0.5412747482586145,1.54107415230462,0.11362129319087108,0.5179166435627929,0.0
0.1844963571284411,0.8175740154541715,-0.543638067909756,1.5421809011524128,0.11411079707230422,0.5177881937527621,0.0
0.18462062448165797,0.818977425467143,-0.5457666809245955,1.5431847547029653,0.11455635513046741,0.5176739070538217,0.0
0.18475077444915836,0.8204746863650866,-0.5480269033999983,1.5442562633111372,0.11503409009255484,0.5175543659280052,0.0
0.18488729274793864,0.8220963169107369,-0.5504615612606883,1.5454179965534072,0.11555465818934205,0.517427850140812,0.0
0.18500248861767207,0.8235386577752377,-0.5526131723472496,1.5464530644478756,0.11602042640279984,0.5173178519724664,0.0
0.18511202145910172,0.8249386412271593,-0.5546917697570217,1.5474582576216729,0.1164749507148085,0.5172134580737645,0.0
0.18522020387591054,0.8263618698594472,-0.5567947017337875,1.5484810369792592,0.1169398072699253,0.5171098956512289,0.0
0.18534257906360907,0.8280031376614675,-0.5592088423352632,1.5496612170463981,0.1174797155331894,0.5169939509870914,0.0
0.1854419572519476,0.8294346633819683,-0.5613004468696129,1.5506929144468442,0.11795413457543376,0.5168957969768585,0.0
0.18554209077873368,0.8308878367304876,-0.5634151194751853,1.5517403358472857,0.11843887634481505,0.516799119629983,0.0
0.18563500691586005,0.8322964223815689,-0.5654543916805432,1.5527569815319875,0.11891224220077841,0.5167084230186086,0.0
0.185647839680525,0.8335347877214792,-0.5671957526260438,1.5536760252630806,0.11933908602238032,0.5166332372787275,0.0
0.1856017009374445,0.8348874619088595,-0.5690523012585794,1.5547024862921643,0.1198161363295217,0.5165560493948389,0.0
0.18555944192054938,0.8361998192754456,-0.5708485923847691,1.5556978441229032,0.12028225291415812,0.5164840031495641,0.0
0.18551231044987776,0.8375870078688085,-0.572739036900086,1.5567514076419315,0.12077951497442112,0.5164113559293387,0.0
0.18547785534115593,0.8384649376258453,-0.5739281415758354,1.5574200648348244,0.12109651387667238,0.516366990403099,0.0
0.1854468183786705,0.839279867175583,-0.5750299993215146,1.5580405737821001,0.12139222961511652,0.5163270427032377,0.0
0.18541968097835154,0.8399744098317967,-0.5759666548638551,1.5585698114579258,0.12164552885157673,0.5162939714466304,0.0
0.18538961400829596,0.8407511540459743,-0.5770124504219714,1.5591617867777705,0.12193031541035042,0.5162581858685342,0.0
0.18535893211606905,0.841522730062986,-0.5780486709670296,1.5597503337391245,0.12221487798659278,0.5162239025302854,0.0
0.1853257657448129,0.8423456468728634,-0.5791513506664606,1.5603784585694327,0.12252027800649415,0.5161887960255955,0.0
0.185273925163134,0.8437213775707594,-0.5809930965953295,1.5614280052947798,0.12303579736345728,0.5161341020537293,0.0
0.18521469360473333,0.8450487558981363,-0.5827578737105498,1.5624449097290594,0.1235397573782117,0.5160858572053574,0.0
0.18515422325789058,0.8464416750906617,-0.5846046500508459,1.563512236344011,0.12407455535767249,0.5160399255230798,0.0
0.18510284909347724,0.8474932566241163,-0.5859903324891848,1.5643206956135016,0.12448282757419515,0.5160084151245687,0.0
0.1850136403475199,0.8500838780768754,-0.5894185226707175,1.5663019020134465,0.12550756778815347,0.5159471650040652,0.0
0.18493165021154254,0.8510534511096007,-0.5906618895488108,1.5670629005045678,0.1259022820095763,0.5159298819793194,0.0
0.1848836139120638,0.8520289097976225,-0.5919323988773306,1.5678154198644154,0.12629804021830376,0.5159136081217752,0.0
0.1848406478481949,0.8528409995956723,-0.5929856921459171,1.5684434961971032,0.12663084658795742,0.5159023999456854,0.0
0.18478877500368174,0.8538698191541294,-0.5943190632366128,1.569238921355748,0.1270568322522356,0.5158916248313401,0.0
0.1847367579139079,0.8548348530258167,-0.5955644573095491,1.5699870429173337,0.1274613836583046,0.5158850525265037,0.0
0.1846874515162981,0.8557392815554271,-0.5967285663340738,1.57068902066314,0.12784470104961376,0.5158819890785915,0.0
0.18463951812906784,0.8566086455487514,-0.5978447579666322,1.5713646046213352,0.12821719043319144,0.5158820289302398,0.0
0.18454411366218904,0.857515390315549,-0.5989765860849274,1.5720885703023189,0.12861820202147503,0.5158885093316857,0.0
0.18442517487633026,0.8582774596243853,-0.5999001849142307,1.572713598431649,0.1289657361141824,0.5158992494022043,0.0
0.18429201700299727,0.8591638977619633,-0.600975772442222,1.5734394948529116,0.12937430166037436,0.5159151272499647,0.0
0.18415619076369844,0.8600583007399561,-0.602057574247173,1.5741735944305868,0.12979245319115396,0.5159352815372932,0.0
0.18401881574356932,0.8609600657467382,-0.6031454789009281,1.5749150639976375,0.13022018276239675,0.5159599502017733,0.0
0.18377863237884878,0.862634602127405,-0.6051701482585082,1.5762898889658374,0.1310335417699044,0.5160204144647248,0.0
0.18353764353292423,0.8640608267845872,-0.6068632136731023,1.5774796379641283,0.13175198286807518,0.5160880761222161,0.0
0.18336931580487553,0.8652311012107083,-0.6082668416716837,1.5784459512719844,0.13234888822957563,0.5161504940766557,0.0
0.1832484497197583,0.8659438876742592,-0.6091072151768419,1.5790433543845386,0.13272184332206025,0.516194074163412,0.0
0.1831328556104208,0.8666877293455959,-0.6099895057182156,1.5796634207812223,0.13311483640001917,0.5162428607834908,0.0
0.18301554007220353,0.8674367519751902,-0.6108755827357568,1.5802894214547905,0.13351725984292456,0.5162966959966406,0.0
0.1828842360294375,0.8682809236397303,-0.6118727696585032,1.5809961893788944,0.13397929895732058,0.5163634851284565,0.0
0.1827262750520333,0.8693002031841933,-0.613074306669329,1.5818518793312621,0.13455065263019003,0.5164537932036896,0.0
0.18255589814155956,0.8703745477231194,-0.6143345902568458,1.582758630549935,0.13517046793301982,0.5165612950099094,0.0
0.18243849600681503,0.8710842768197474,-0.6151616810927222,1.5833613029164357,0.13558930630702284,0.5166386349694716,0.0
0.1823448988936249,0.8716664848359308,-0.6158406814369015,1.5838555654516302,0.13593791568592725,0.5167057941068068,0.0
0.18225340543974544,0.8722385037036252,-0.6165070114806899,1.5843420512305846,0.1362860385538449,0.5167758002384147,0.0
0.18215409278846645,0.8728633909353574,-0.6172341174575611,1.584874573827613,0.13667336355143456,0.5168573279293555,0.0
0.1820467713272617,0.8735365984396843,-0.6180157605243478,1.5854501046814755,0.13709964904923067,0.516951568727542,0.0
0.18195647407239074,0.8740877680469649,-0.6186528880275853,1.5859236195485131,0.13745584445376358,0.5170336798321439,0.0
0.18185827819136888,0.8747026748549314,-0.6193641503630437,1.5864523366704961,0.13786093324891924,0.5171309403062331,0.0
0.18176741920630235,0.8752592476924839,-0.6200054384079436,1.5869332034546368,0.13823565356476122,0.5172245917265834,0.0
0.18169839854390052,0.8756761997862023,-0.6204844582730942,1.5872947239458888,0.13852117118286375,0.5172980934812688,0.0
0.18160673078382494,0.8762538979191662,-0.6211497696784308,1.5877954787098103,0.13892435372754372,0.5174056179913347,0.0
0.18152286222114175,0.8767619135398713,-0.6217315979226866,1.588238744724895,0.13928743058726514,0.5175060486381075,0.0
0.18143392088400073,0.877311813277854,-0.6223615059453554,1.5887194622961345,0.1396891197632523,0.5176210741866981,0.0
0.1813499366542691,0.8778212913010702,-0.6229429739384769,1.589167212204103,0.14007044979093083,0.5177340882496733,0.0
0.1812556621691111,0.8784059170799661,-0.6236103030487079,1.5896823249063865,0.14051942093232314,0.5178720593885461,0.0
0.18116020677022784,0.8789838070249821,-0.6242669880097559,1.5901950401266174,0.14097706009828892,0.5180181969118184,0.0
0.1810763568915585,0.8794849920093241,-0.6248346008452832,1.5906422456826281,0.1413851156462057,0.5181528359431029,0.0
0.18099246112063533,0.8799950084549766,-0.6254119898473807,1.5910989243750067,0.14181178795813976,0.5182981123367258,0.0
0.18090703512592218,0.8805107643571591,-0.6259942063089483,1.5915635662294625,0.1422568665587973,0.5184547288332013,0.0
0.1808398027436984,0.8809024641897406,-0.626433923396012,1.5919192056859544,0.1426044017476207,0.5185803163030142,0.0
0.18074421356915418,0.8815122338268526,-0.6271228646631254,1.5924725997034013,0.1431634176179821,0.5187893495107149,0.0
0.18057358613343957,0.882008588085351,-0.6276192403210623,1.592972277589459,0.1436785967745124,0.5189967917156804,0.0
0.18047306683017594,0.882448339995723,-0.6280920158704225,1.5933930302649462,0.1441278743981724,0.5191784698738963,0.0
0.18034268399591552,0.8829206975559223,-0.6285830972407548,1.5938601455812738,0.1446419242154457,0.5193947408259113,0.0
0.1802235468964006,0.8833749348158487,-0.6290579879262078,1.5943103847872158,0.14515490014363513,0.519616395163654,0.0
0.1801122229845571,0.8837829805182077,-0.6294802234515908,1.5947208744035415,0.14563797831187583,0.5198311391346135,0.0
0.18002048920695968,0.8841214394061515,-0.6298297776228113,1.5950640214819933,0.1460538060170562,0.5200200879505279,0.0
0.17992079017933135,0.8844968089446072,-0.6302174731676838,1.5954475594224802,0.14653476998909898,0.5202439412469043,0.0
0.17983346958523036,0.8848121591348582,-0.6305396106488105,1.5957749126162417,0.14695799811092036,0.5204454803579754,0.0
0.1797484218479393,0.8851278399095616,-0.6308625113513624,1.5961049953377626,0.1473991341038646,0.5206598843450636,0.0
0.17966753172626881,0.8854218694799912,-0.6311609466754822,1.5964169311654115,0.14782982189303456,0.5208736662350878,0.0
0.1795637642319205,0.8858187642206425,-0.6315652176873223,1.59684252566885,0.14844633916284236,0.5211878494510044,0.0
0.1794782868737091,0.8861029214607349,-0.6318454055536092,1.5971581893547386,0.14892085474504632,0.5214358129075237,0.0
0.17942281498062942,0.8863026691049508,-0.6320447603506731,1.5973801227712803,0.14926449467682307,0.5216176115387228,0.0
0.1793333711303359,0.8866508055585499,-0.6323946203794589,1.5977717614975107,0.14990407333448486,0.521964213753939,0.0
0.17931344172897806,0.88670753243847,-0.6324477657242968,1.5978390365466852,0.15001481422868904,0.5220250124479935,0.0
0.1791975718756653,0.8871504006782099,-0.6328848463965778,1.598360811210006,0.150946577744862,0.5225508415962797,0.0
0.17910784272492564,0.8873859387177414,-0.6330949837872578,1.5986638963080422,0.15151487691402143,0.5228809680815247,0.0
0.17906081490540873,0.8875866711842072,-0.6332932182578989,1.598910256628101,0.15200032266584054,0.5231649671236802,0.0
0.17901635843216374,0.8877155455704113,-0.6334092996586356,1.599081041397449,0.1523469493746279,0.5233715438244602,0.0
0.1789700428743961,0.8878776830396515,-0.6335605784708848,1.599295667887239,0.15280245269038661,0.5236460460261484,0.0
0.17892665732678792,0.8880143830562851,-0.6336834951039726,1.5994849214768634,0.15322030726792907,0.5239015577444694,0.0
0.17887973751531902,0.8881731122363569,-0.6338263304425763,1.5997110370400827,0.15374599373077902,0.5242276618421431,0.0
0.17883779502181538,0.888295953924679,-0.6339308387227899,1.5998969930112723,0.15419767273128424,0.5245119919259228,0.0
0.17881410570879055,0.8883658247701399,-0.6339896972734255,1.6000052915556717,0.15446806844490907,0.5246834391324599,0.0
0.1787797286277074,0.8884779110007315,-0.6340846842176131,1.6001841140730775,0.15493606941817648,0.5249834137764497,0.0
0.1787384978899988,0.8885978184333447,-0.6341795411133461,1.600391433337129,0.15551032358995603,0.5253571289735919,0.0
0.1787012035922523,0.8886989261523368,-0.6342542357812179,1.6005808287048122,0.15606478288837455,0.5257227668208106,0.0
0.1786698505608679,0.8887804514666624,-0.6343104784847969,1.6007458485026547,0.15657294837954627,0.5260615957914768,0.0
0.17863894110002634,0.8888592474823444,-0.6343604306223836,1.6009205867791303,0.15714187848669647,0.5264451913372887,0.0
0.17860938800051554,0.8889237645145204,-0.6343938100546124,1.6010832198069942,0.1577000351483962,0.5268256572598903,0.0
0.17858275299135723,0.8889813300042377,-0.6344186163761224,1.6012465250215904,0.15829182518068605,0.527232835698353,0.0
0.17855633201978716,0.889026761067108,-0.6344283843130363,1.6014013098946225,0.1588815568761954,0.5276424449610664,0.0
0.17853821181640817,0.8890554901013639,-0.6344303069530829,1.6015124749491498,0.159320272952439,0.5279489078077804,0.0
0.1785186468336563,0.8890847002826617,-0.6344265929317631,1.6016446237673985,0.15986297918203038,0.5283302549762626,0.0
0.1785008846106963,0.8891040215869236,-0.6344157315213056,1.601754012145046,0.16032546204688886,0.5286569751944625,0.0
0.1784838048895795,0.8891223412908286,-0.6344010471056548,1.601874013261193,0.1608477845708218,0.5290273219462667,0.0
0.17846650085489354,0.8891354287600634,-0.6343810772956545,1.6019853385788492,0.16134253480071054,0.5293794515236828,0.0
0.178451676227393,0.8891460344456835,-0.6343614862256909,1.602087084878012,0.1618014025601864,0.5297066489736688,0.0
0.17843920623831355,0.8891534041317893,-0.6343438394533322,1.6021688374256333,0.16217278003238628,0.5299718462298962,0.0
0.17842449082232537,0.8891618732370425,-0.6343222740105494,1.6022671067414362,0.16262103725149302,0.5302921271982799,0.0
0.1784104156567468,0.8891695042141647,-0.6343014861667229,1.6023593900201865,0.16304245587603763,0.5305933514721766,0.0
0.17839911287612129,0.889175575824396,-0.6342840920431075,1.6024360695417492,0.16339431549254413,0.5308450056878277,0.0
0.17838126646076136,0.8891838321566434,-0.6342519291446127,1.6025680993108968,0.16401107432546153,0.5312870582402212,0.0
0.17836929539811874,0.8891865968388194,-0.6342279715746122,1.6026507873539289,0.1644037750315587,0.5315693304729404,0.0
0.17836060073254945,0.8891878329760635,-0.6342072801387333,1.6027194359547658,0.16473603996943645,0.5318086386650236,0.0
0.17835036128269374,0.8891860613712346,-0.6341754765771189,1.602811280178174,0.16519523769719285,0.532140647043841,0.0
0.17834146753427055,0.8891803927893395,-0.6341422622072775,1.602889924945591,0.16560231132677394,0.5324363535162341,0.0
0.17833907244214983,0.8891786030463509,-0.634133398784422,1.6029093695277075,0.16570384617123446,0.5325102302101363,0.0
0.17833824688571348,0.8891439034440419,-0.6340415151524595,1.6030715252867263,0.1666593922823622,0.5332127702419828,0.0
0.17831672717224425,0.8890930258703424,-0.633931908031935,1.6031685800497437,0.16728902359654954,0.5336836140221722,0.0
0.17833788630025146,0.8890505086438062,-0.6338617540432506,1.6032500839474129,0.16790092008144333,0.5341418263967022,0.0
0.17832333932149075,0.8889809187731208,-0.6337382924873413,1.603311594857396,0.168425464378238,0.5345434350246747,0.0
0.17833590513751116,0.8889419778806229,-0.6336804472675008,1.6033466550991045,0.16876651045887373,0.5348040041527714,0.0
0.17834139602985147,0.8888892893381152,-0.6335998055187442,1.6033785457224714,0.1691229670471184,0.5350798279160665,0.0
0.1783482334864452,0.8888394458746612,-0.6335261307599217,1.6034020027094742,0.1694289659202782,0.5353183107142384,0.0
0.17836384185689697,0.888756870371472,-0.6334098655720184,1.603427226805409,0.1698745911858175,0.5356693321948809,0.0
0.17837864508137966,0.8886646428601581,-0.6332817189453486,1.603442931967696,0.1703021941382166,0.5360105167400098,0.0
0.17839680087159515,0.8885684533101427,-0.6331519999672459,1.6034496357991115,0.17070390782236072,0.5363345613869719,0.0
0.1784182300487039,0.8884591986434155,-0.6330074985430323,1.6034477081968221,0.17111254795058933,0.5366682446813699,0.0
0.17844486727306424,0.888330642163427,-0.6328407634389774,1.6034353684155471,0.17154431640698858,0.5370255165767561,0.0
0.17846572585168016,0.8882222344388817,-0.6327006152565651,1.6034195922092402,0.17187715639002102,0.5373041215777076,0.0
0.17850632220408016,0.888051994240019,-0.6324877871608908,1.6033828881579055,0.1723549114138207,0.53770968017494,0.0
0.17853041874189587,0.8879216958003513,-0.6323220045008593,1.6033508965478476,0.17268543227533756,0.537994259534988,0.0
0.1785482463503671,0.8878366091086204,-0.6322154213420917,1.6033278543344687,0.17289455491605896,0.5381754164500201,0.0
0.17858285056055437,0.8876912948740985,-0.6320370386644725,1.6032829333715433,0.17323179057362162,0.5384706828347638,0.0
0.17862217016380813,0.8875194596531799,-0.6318264770708533,1.6032245609306166,0.17359995693631408,0.5387976189914051,0.0
0.17865024362322335,0.8873892822418115,-0.6316665551514947,1.603178030809646,0.1738631996730975,0.5390338986174358,0.0
0.17870584288278873,0.8871670009457682,-0.631399744024241,1.603090074662085,0.17428504586101676,0.5394178824738654,0.0
0.17874909735380712,0.8869678881413574,-0.6311577766247032,1.6030083587894028,0.17463371666220945,0.5397403555661968,0.0
0.17880046228720706,0.8867542212199745,-0.630902152097958,1.6029150536193926,0.17498927023291955,0.5400733409423216,0.0
0.17885691311536997,0.886516921925577,-0.6306189415478058,1.6028068878586683,0.17535930032376396,0.5404252083806802,0.0
0.1789329779393013,0.8862094627351285,-0.6302552805691232,1.6026593107309237,0.17580640297961198,0.5408579958827788,0.0
0.17902691363765058,0.8858238804868221,-0.6298001618295088,1.6024660715951415,0.1763215894492801,0.5413678522917328,0.0
0.17916785460074533,0.8852737567484379,-0.6291580506812711,1.6021745534044698,0.176989178479399,0.5420471475488168,0.0
0.17925458630072824,0.8848565500919066,-0.6286595200383044,1.6019532774873229,0.17745118816246347,0.5425292601010772,0.0
0.17934988189424514,0.8844938002739378,-0.6282391712438565,1.6017508214572187,0.17784258537360095,0.5429425123406052,0.0
0.1794481660143949,0.8840843802642495,-0.6277597403265569,1.6015204566484091,0.17825483362210132,0.5433871085972608,0.0
0.1795643236661236,0.8836225940276434,-0.6272231405494592,1.6012538504638598,0.17869560287751035,0.543871590116849,0.0
0.17968818454057073,0.8831166607618166,-0.6266338574668129,1.6009575292876619,0.17914903059193957,0.5443810492962122,0.0
0.17979725963166032,0.8826672704828065,-0.6261101922388679,1.6006910422598903,0.1795323508817657,0.5448196801646027,0.0
0.17994396043075828,0.8820949071396328,-0.6254488175174975,1.6003438446733282,0.17999620554556267,0.5453614250239084,0.0
0.1800990536583668,0.8814584960501891,-0.6247088560624844,1.599954867797085,0.18047930663332853,0.5459399241319421,0.0
0.18023689897722828,0.8808979216038991,-0.6240579081367885,1.59960816071669,0.1808856098669471,0.5464359744551059,0.0
0.180330835506414,0.8801969053359481,-0.6231944269375415,1.5991956899812345,0.18133852323368807,0.5470113632149262,0.0
0.18041985189643867,0.8796439063774926,-0.6225224222076055,1.5988627077119035,0.18168748909766383,0.5474604661437162,0.0
0.18050307711083452,0.8790939963200533,-0.6218506549716578,1.598530937916935,0.1820200315586968,0.5478963977055072,0.0
0.18061219845806237,0.8784136194736796,-0.6210233214017987,1.5981149446926952,0.18241570409242705,0.5484249113298548,0.0
0.1806747986997473,0.8779671734069726,-0.6204742799813323,1.5978437846999645,0.1826658326240524,0.5487644318164046,0.0
0.18080931431681285,0.8771660479261414,-0.6195032478803267,1.5973455334133195,0.18310035697442825,0.5493648613058884,0.0
0.18090252993585243,0.8764936959049233,-0.6186750113981331,1.5969317000577758,0.1834464806403164,0.5498543635241302,0.0
0.1810063887051451,0.8758367505855992,-0.6178733006180307,1.5965207842017908,0.1837769990793516,0.5503281373090912,0.0
0.1811147397556299,0.8751296564898452,-0.6170075836046006,1.5960773418829972,0.18411953138676784,0.5508285032689832,0.0
0.1812540803748174,0.8742497115370149,-0.6159323198889036,1.595520592853085,0.18452952698518435,0.5514399577401512,0.0
0.18150764627242147,0.872738490709229,-0.6140934276058615,1.594550645981243,0.1851913579095779,0.5524608063184191,0.0
0.18161239409552246,0.8717925502709328,-0.6129048306557398,1.593959710795527,0.18557849272021135,0.5530774831631339,0.0
0.18177481791232494,0.8708668550111549,-0.6117782273014252,1.5933579620251839,0.1859579211499523,0.5536855417102117,0.0
0.1819208925145398,0.8698262842378119,-0.6104866428700143,1.5926912954294281,0.18636034128658074,0.554349724831934,0.0
0.18208168790931736,0.8688006249922042,-0.6092220552627369,1.5920256856496022,0.18674678933768632,0.5549985016582928,0.0
0.18223669179705243,0.8677413142007252,-0.6079065559018685,1.5913395348077435,0.18712988930190283,0.5556567191657203,0.0
0.18241126318029702,0.866599154735292,-0.6064902523021919,1.590594351525304,0.1875297759872133,0.5563578146683632,0.0
0.18254091229591174,0.8656777888666848,-0.6053380340765401,1.5899955510182318,0.1878416023347947,0.556915343354478,0.0
0.18263318766764444,0.8650380672749549,-0.6045379739719133,1.5895783035392843,0.1880547276506546,0.557300380271826,0.0
0.18271903939085735,0.86444987945855,-0.603802083388056,1.5891937105271383,0.18824762027620645,0.5576523885446575,0.0
0.18281289836432638,0.8638143972285207,-0.6030068239602822,1.588777112061785,0.18845250099198402,0.5580303555320004,0.0
0.1829074238211918,0.863170255436281,-0.6021993179689197,1.5883543736025192,0.18865641407844455,0.5584108657370704,0.0
0.18300615935884212,0.8624969821714206,-0.6013541620066924,1.587911828459945,0.18886570538069125,0.5588059556706058,0.0
0.18309902321833732,0.8618564445956814,-0.6005482981289169,1.5874905684239868,0.18906134129586571,0.5591794107511794,0.0
0.18319983351191627,0.8611659079582962,-0.5996788389410057,1.5870354927822998,0.18926864141333385,0.5595796040471196,0.0
0.18331486931752417,0.8603803252847528,-0.5986885273571233,1.5865167994075353,0.1894998890522124,0.5600317695446405,0.0
0.18342292640100108,0.8596266246852343,-0.5977353337525848,1.5860192307961536,0.18971736385225202,0.5604624805272441,0.0
0.18352564060594426,0.8589074561734696,-0.596824079117379,1.5855439602490997,0.18992132076508217,0.5608710514493492,0.0
0.1836839526615761,0.8578434672486822,-0.5954779797786762,1.5848371881349785,0.19021646279825277,0.5614713547965519,0.0
0.18379071947490813,0.8570549668932833,-0.5944712416672495,1.5843164377397758,0.1904298833313537,0.5619120664751756,0.0
0.18390104950617228,0.8562581702234756,-0.5934536847781869,1.5837886820582456,0.19064219378292332,0.5623553359152564,0.0
0.1839626483418818,0.8551487514194162,-0.5919756484715109,1.5830842728748713,0.1909169350693919,0.562952288441797,0.0
0.18401752404573885,0.8539417692937925,-0.5903559896892413,1.582320504308379,0.19120696331206669,0.563594949522229,0.0
0.18404847890533638,0.8531458095626664,-0.5892815993473587,1.5818179365469935,0.19139481975374162,0.5640162443585203,0.0
0.18409056876922525,0.8522171651222717,-0.5880297295956609,1.5812286467902206,0.191610965465367,0.564506097597984,0.0
0.1841643270573098,0.8507603405312222,-0.5860668256182614,1.5802994796998868,0.19194171893525716,0.5652692937003334,0.0
0.1841956447714334,0.8497463528577286,-0.5846831039757668,1.5796586180428176,0.19216543148336798,0.5657950411048551,0.0
0.18423907006808887,0.8487000214251903,-0.5832589934240998,1.5789925130344467,0.1923936149439575,0.5663365032723753,0.0
0.1842735848634501,0.8477748286189033,-0.5819941491835007,1.5784040825230097,0.1925918079275079,0.5668127106012025,0.0
0.18436089510657627,0.8459984543617753,-0.5795740423030202,1.5772645717798237,0.19296319012346708,0.5677219649719049,0.0
0.18439892771572824,0.8444263065182805,-0.5773977781032732,1.5762673940564453,0.19327917864516658,0.568516036979202,0.0
0.18444143286564,0.8432381671184559,-0.5757554550112293,1.5755079969761925,0.19351562406690956,0.5691156075527608,0.0
0.18448572636900756,0.8419226085613879,-0.5739298727769843,1.5746668180172976,0.19377187870171567,0.5697756810810669,0.0
0.18452779046407267,0.8405622536471146,-0.5720334729608334,1.573796928659141,0.19403117191043798,0.5704543303558544,0.0
0.18457048216427768,0.8391281970707777,-0.5700263276626645,1.572879051684467,0.1942987466330386,0.5711659340279114,0.0
0.1846148445178775,0.8375591950405225,-0.5678206632140875,1.5718739714421812,0.19458484293703598,0.5719400736961406,0.0
0.1846421546975476,0.836267887256173,-0.5659919394500689,1.5710487282177645,0.1948154117740002,0.5725736245003977,0.0
0.1846781073048155,0.8348473874877156,-0.5639771287752664,1.5701377299180361,0.1950648816664545,0.5732682503785792,0.0
0.18470645631802493,0.8334410807484322,-0.561970152400582,1.5692370333003176,0.1953066697105159,0.573952248898596,0.0
0.1847318547431051,0.8320833290098826,-0.5600237348077731,1.568367001648601,0.19553597870151118,0.5746099463482517,0.0
0.1846677311087953,0.8309534353783451,-0.5583435152748313,1.5676699090037367,0.19571565195897667,0.5751453155045679,0.0
0.18458736351685953,0.8299342319915011,-0.5568089008371723,1.5670476057922322,0.19587361300481496,0.5756243657153429,0.0
0.1844818399278654,0.8285534899922025,-0.5547263723460574,1.5662021968474877,0.19608439236916986,0.5762714526107263,0.0
0.18434655330952648,0.8268643460065241,-0.5521651455104096,1.5651680275876645,0.1963366692114531,0.5770591719256162,0.0
0.18418085240487767,0.8248916675522356,-0.5491550796609964,1.5639601184350365,0.19662418606201307,0.5779742184646612,0.0
0.1840389709303126,0.8234015159326982,-0.5468578679749987,1.563051148976039,0.1968368162290534,0.5786618130911438,0.0
0.18389271829036058,0.8217717304057456,-0.5443403752755539,1.5620523624920712,0.19706625255842192,0.579412399404974,0.0
0.18373995677539107,0.8201956218564069,-0.5418870065457818,1.5610882941949968,0.19728370401902573,0.5801349664197358,0.0
0.18359860899024438,0.818780746123281,-0.5396716553200931,1.560222704056012,0.19747596247090035,0.5807816315545847,0.0
0.18344534284158384,0.8172562170500064,-0.5372739074170254,1.5592888140210168,0.19767996305413316,0.5814764401197947,0.0
0.18329678407939037,0.8158595727088888,-0.5350619236513017,1.5584344217579562,0.19786380146305274,0.5821107224636939,0.0
0.18314563330355205,0.8144569371929413,-0.5328296737937573,1.5575756617363996,0.19804588870480522,0.582746103203864,0.0
0.18298910654856546,0.8130474210836817,-0.5305737281477806,1.5567128142930033,0.1982261642321098,0.5833827482652851,0.0
0.18282029595451105,0.8115617010056309,-0.5281828250530385,1.5558030978176667,0.19841333973861724,0.5840519182175565,0.0
0.18264810455054442,0.8101036961413024,-0.5258212221883319,1.5549109587443777,0.19859420375915543,0.5847066116501762,0.0
0.18247463752349563,0.8086749163000695,-0.5234930183303534,1.5540368148580568,0.19876893764143266,0.5853464729047249,0.0
0.18224045951324724,0.8071839248632984,-0.5210183119362304,1.5531391902772227,0.19894493748132663,0.58600785577678,0.0
0.1819440793482387,0.8059000108772839,-0.5188167535182459,1.5523931837641138,0.19908794517079384,0.5865678144181791,0.0
0.18159812279839743,0.8043584697079391,-0.5161687847631514,1.5514927084628551,0.19925825417800788,0.5872397774898149,0.0
0.18130675277700056,0.8031076850750061,-0.5140025838763429,1.550763637216179,0.19939454580326763,0.587783415189259,0.0
0.18093953909499097,0.8015210178526023,-0.5112448262963073,1.549836247602269,0.1995654235111933,0.5884719671457729,0.0
0.1805672317384974,0.7999652892929393,-0.5085185936259912,1.548928418943652,0.19973028973071016,0.5891449925013784,0.0
0.18019653471520938,0.7984436351713186,-0.5058337367956677,1.5480403419310622,0.19988942196297801,0.5898017641876613,0.0
0.17978306490296467,0.7967687881705827,-0.5028595459804207,1.547062194044157,0.20006212217801625,0.5905230046561011,0.0
0.17938420418616738,0.7952020744927245,-0.5000532837397321,1.5461484439288027,0.20022125847180133,0.5911957768132982,0.0
0.17896960613376425,0.7935957691294417,-0.4971564112637041,1.5452110332040296,0.2003823256008727,0.5918841117615025,0.0
0.1785733476018953,0.7920996138554804,-0.4944360423811167,1.5443387187910458,0.20053033770409395,0.5925236728059832,0.0
0.17816093961168697,0.7905644353385312,-0.49162565777695694,1.543443293781483,0.2006803701971718,0.5931786215602549,0.0
0.17779891182184004,0.7892536067740535,-0.4892059194458545,1.5426797941973043,0.20080695027434708,0.5937365766621061,0.0
0.17730277559577007,0.7874515367700169,-0.48586390167296684,1.5416275624561795,0.2009788486729241,0.5945024942535362,0.0
0.17681566304960594,0.7857581262751687,-0.48268832701186515,1.540641952347269,0.2011375970122279,0.5952198294841688,0.0
0.1763854800184125,0.7842926267369021,-0.4799164337947965,1.5397892322001532,0.20127345916632614,0.5958393975679889,0.0
0.17591693472859707,0.7827140891614831,-0.47691006448122664,1.5388701059508367,0.20141814651323864,0.5965056083999472,0.0
0.17542552076308032,0.7810968142817145,-0.4738030679331053,1.5379292659951542,0.20156440493558533,0.5971866130661272,0.0
0.17492306891330187,0.7794795722013513,-0.4706684970559108,1.5369891187666878,0.20170878596546113,0.5978661189748904,0.0
0.17445622266492158,0.7780142692305273,-0.4678018776468561,1.536138323698458,0.20183805784221795,0.5984804588973718,0.0
0.1739588548560141,0.776474822486315,-0.4647671275207792,1.535244293299247,0.20197239795700977,0.5991247811498519,0.0
0.17343816106854085,0.7748982658342229,-0.4616314194722878,1.5343295323973494,0.20210827910582604,0.5997832579530401,0.0
0.17291850166172235,0.7733607886199789,-0.4585447880411739,1.5334383861120087,0.20223921634834377,0.6004240777386517,0.0
0.17236396997383163,0.771749840308385,-0.45528214806995376,1.5325050219462992,0.20237481763671702,0.6010942477660246,0.0
0.17178369223296774,0.7701030456617813,-0.45191406211139307,1.5315519397400494,0.2025117004998193,0.6017778683980525,0.0
0.171256268612489,0.7686468636539299,-0.44890411427191124,1.5307106647436755,0.20263136571061002,0.6023810481859386,0.0
0.17066825943354472,0.7670439874766206,-0.44556359272877016,1.5297843733278567,0.20276173349469878,0.6030439408422624,0.0
0.17012026688943738,0.7655933760072475,-0.442507215419283,1.5289479284702654,0.20287833711324932,0.6036425157252259,0.0
0.16952276951264925,0.7640345186126297,-0.43919416920803517,1.5280491049077378,0.20300239255755442,0.6042847214315938,0.0
0.16886900498475016,0.7623670191499198,-0.4356136464520347,1.5270888243957752,0.20313348843852674,0.6049702834315581,0.0
0.16822854060950795,0.7607781605628298,-0.4321622029120102,1.5261756446484749,0.20325692115103994,0.6056220611378914,0.0
0.1675619560489274,0.7591574897451938,-0.4286044921193752,1.5252449656153855,0.20338149219260396,0.6062856425725085,0.0
0.1669111277849574,0.757615820205104,-0.42518086930311866,1.524361297598463,0.20349868992367193,0.6069155468542038,0.0
0.16637285968832669,0.7563738151385293,-0.4223911730724185,1.523650879857747,0.20359228905690016,0.6074220103044193,0.0
0.1659554577015304,0.7554285962873366,-0.42024885851329774,1.5231109156221,0.20366311044042965,0.607806883309757,0.0
0.16548736831446387,0.7543769495420778,-0.4178505908171739,1.5225100387824286,0.20374145815203412,0.6082346757410216,0.0
0.16502920379002986,0.7533643977667499,-0.4155232065314599,1.521932195209128,0.20381637949195783,0.6086460022443092,0.0
0.16440296452926248,0.7519920328749145,-0.41234740039995926,1.521148847258168,0.20391710321450296,0.6092028699852342,0.0
0.16374464910124073,0.7505873032645413,-0.40906013197081365,1.5203490923798382,0.20401909317621308,0.6097717147850407,0.0
0.16304051066891245,0.7491160569566051,-0.4055796408236311,1.5195127306390563,0.20412489999099864,0.6103664211452148,0.0
0.16230518994565535,0.7476152909817275,-0.40198736689509795,1.5186612016858845,0.2042317728772449,0.6109718837594095,0.0
0.16160828149907863,0.7462290333955389,-0.39862767364325313,1.5178764700612302,0.20432959999233616,0.6115300175553581,0.0
0.16086536973310153,0.7447787429019512,-0.39507378460898795,1.5170564655336225,0.20443110187838368,0.6121129399245264,0.0
0.16016252933034153,0.7434419011327482,-0.39175637919901557,1.5163025343149492,0.20452385077019472,0.6126491767369556,0.0
0.1593942821343317,0.7420067385649101,-0.38815551984314534,1.515494101823639,0.2046226376937464,0.6132238999111331,0.0
0.15861079344599982,0.7405793547992056,-0.3845279853452132,1.514692036347952,0.20472000938209797,0.6137943628814092,0.0
0.1578327815647082,0.7391953176740047,-0.38096517167435884,1.5139160875452284,0.20481366484254823,0.6143464206041368,0.0
0.15704206985704472,0.7378198204035145,-0.37737950722917674,1.5131465268883235,0.20490603003055682,0.6148940389097353,0.0
0.15623799271282998,0.7364529941499759,-0.37377034026731176,1.512383558186258,0.20499711119232356,0.615437161499245,0.0
0.15540030470070149,0.7350609975412712,-0.37004666711302836,1.5116082835394125,0.205089165999233,0.6159892291435337,0.0
0.15442509362257478,0.7334750729911927,-0.36574758111232336,1.5107267523322363,0.205193159940094,0.6166170197209853,0.0
0.15334311312268925,0.7317665071124874,-0.361040789872543,1.5097802677637435,0.20530407455270983,0.6172917749208197,0.0
0.15182050468390723,0.7299418303557671,-0.3557207629050008,1.5088376003629174,0.20540999105205549,0.6180038908736177,0.0
0.14915709639229402,0.7280583104286354,-0.34948019978051464,1.508067936651801,0.20548303665071718,0.6187180321834996,0.0
0.14633088476276207,0.725977417008499,-0.3425643725230132,1.5071801720282483,0.2055691756122955,0.6195094059330432,0.0
0.1440549459321389,0.7243599445107765,-0.3370556249594541,1.5064921557751503,0.205635310795991,0.6201234215424861,0.0
0.14132796459429758,0.7224537607648651,-0.33045424180201255,1.505677390563722,0.20571306752691512,0.6208465246126578,0.0
0.13873136218752147,0.7206913469813028,-0.3242102796507373,1.5049240305605662,0.20578437440195704,0.6215141338017085,0.0
0.1363399865969738,0.7191085060720234,-0.3184830124596681,1.5042461435934422,0.2058481959205723,0.6221129456902242,0.0
0.13381665044921517,0.7174748887803992,-0.31245661487199355,1.5035448105004012,0.20591384238827118,0.6227302874384784,0.0
0.13161437138968834,0.7160866519327999,-0.30722419814394486,1.5029484557825181,0.20596941758446666,0.6232541632968137,0.0
0.12905132274334355,0.7145019032623092,-0.3011435201549419,1.5022656029896229,0.20603272902017838,0.623851616211582,0.0
0.1265776686322058,0.7130137340759206,-0.2953045417320473,1.5016239673763152,0.2060919347064416,0.6244118840937656,0.0
0.1239080641319684,0.7114454762016812,-0.28902047129047076,1.50094621545008,0.2061542086526149,0.6250015699503496,0.0
0.12127172169141259,0.7099395636749579,-0.2828421108290869,1.5002946148127831,0.20621386323896657,0.6255669854355086,0.0
0.11843390231891873,0.708360376163968,-0.2762114248019567,1.4996097115015106,0.20627636246858144,0.6261590820761813,0.0
0.11562845085981845,0.7068457601862224,-0.2696855370114193,1.498951920721009,0.20633624564026412,0.6267260467191201,0.0
0.11212812291516855,0.7050062168370169,-0.2615588355028841,1.4981502684288648,0.20640896241267723,0.6274136858245722,0.0
0.10900888516857711,0.7034337447340736,-0.2543720977507685,1.4974653037554033,0.20647104098697225,0.6280002551099091,0.0
0.10624916870977547,0.7020860566673988,-0.2480302616460747,1.4968762228292656,0.20652461644925513,0.6285017935404725,0.0
0.10340973320735716,0.7007387991899243,-0.24152079059726028,1.4962856328712622,0.2065784259647886,0.6290022123643839,0.0
0.10048443005772371,0.6993935917003311,-0.23483624717017945,1.4956946570531768,0.2066323802174371,0.6295009027425272,0.0
0.09785527612476559,0.6982246943335121,-0.2288522588487304,1.4951802670367558,0.2066795476334043,0.6299332548437224,0.0
0.09482752839560193,0.6969154828049665,-0.22197041180513316,1.4946021045340712,0.20673273801149086,0.6304165500960787,0.0
0.09196593884164497,0.6957226868892804,-0.21549458834237006,1.4940745937142874,0.206781535217459,0.6308558478221851,0.0
0.08921833343155866,0.6946147996361308,-0.20929275070422965,1.4935832230234762,0.20682731868263596,0.631262816166457,0.0
0.0861928059610988,0.6934330368491163,-0.20247666071251602,1.4930573821555124,0.20687663712072285,0.6316958832039832,0.0
0.0827472174932299,0.6921357684319523,-0.19473521202995928,1.4924784232631936,0.20693134023127915,0.6321701027194432,0.0
0.07760784347701519,0.690277576958904,-0.18320259630595304,1.4916449871540038,0.20701058140262088,0.6328478199375317,0.0
0.07371263298381327,0.6889741884129145,-0.17456599792307753,1.4910614809297429,0.20706718570097155,0.6333213315778079,0.0
0.06990909704290385,0.6877552196802412,-0.1661061371988907,1.4905095065606642,0.20712207207962952,0.6337608924973828,0.0
0.06558681017637809,0.6864432892695563,-0.15652967267580953,1.4899131666758598,0.20718245173456898,0.6342321488539578,0.0
0.06115675054894794,0.6851813480375342,-0.14675071639220638,1.4893363455729876,0.20724240299213592,0.6346828446314895,0.0
0.056904141919958705,0.6840489951473905,-0.13739302120107338,1.4888151197090296,0.20729834321819393,0.6350843000867034,0.0
0.052627588799165535,0.6829843708871894,-0.1280040076203972,1.4883210806994462,0.20735322588908195,0.6354586942819588,0.0
0.04600921196541058,0.6814450313416033,-0.11346790995992082,1.4875988393829607,0.20743613231747662,0.6359960679703867,0.0
0.040733122145231816,0.6803727559894134,-0.10202852250769898,1.4870930982444113,0.2074981508699568,0.636366882597441,0.0
0.03589367651940452,0.6794747722926234,-0.09146121455948962,1.4866578490576072,0.20755560754163443,0.636668541179925,0.0
0.03183660894811864,0.6788045543443542,-0.08267781117984378,1.4863299514428427,0.20760179041977755,0.6368910216808478,0.0
0.027437583610984424,0.6781409976901955,-0.07312899656059159,1.485998014151338,0.20765171689878603,0.6371056426069158,0.0
0.02445351912962416,0.6777425007003715,-0.0666842720817948,1.4857949294630879,0.2076847696348722,0.6372313572283554,0.0
0.020317613793133352,0.6772333424414294,-0.057729916303921845,1.4855297083856158,0.20773047505453446,0.6373877192513936,0.0
0.015643365142303845,0.6767306987021604,-0.047633988652694366,1.4852603699085016,0.20778112456123263,0.6375367025272343,0.0
0.01219341655130775,0.6764198755456919,-0.040204279196224574,1.485086474977001,0.20781792263898502,0.6376229921872397,0.0
0.007871486819089972,0.6760834131649168,-0.030880502408060433,1.48488929768725,0.20786389629114574,0.6377094585201287,0.0
0.0030113145376042746,0.6757821152565978,-0.020414628541646426,1.4846994799959405,0.20791480611917096,0.6377772574902715,0.0
-0.000979317270952084,0.6756052503563117,-0.011838175295880818,1.4845724954259312,0.20795614671483637,0.6378051897211239,0.0
-0.004891762961405001,0.6754876425837281,-0.003424387961987834,1.484470248087583,0.2079966007491357,0.6378099256178204,0.0
-0.012709137235113611,0.6753616396114664,0.0134391836120945,1.4843096155415758,0.20807706661569567,0.6377772312366167,0.0
-0.01497668741993787,0.6753891834925912,0.018261393148167007,1.4842903765312407,0.20809943697637182,0.6377450411798041,0.0
-0.02298916511485622,0.6755511506089478,0.03550568220605853,1.484244742832097,0.20818065663839513,0.6375987599827905,0.0
-0.02794161222905191,0.6757922267919693,0.04609311725619569,1.4842743707259718,0.2082299547010988,0.6374555948827236,0.0
-0.03258802127044993,0.6761023808639305,0.05610464136284602,1.4843342224762672,0.20827767495271804,0.6372826093141826,0.0
-0.036746608988285384,0.6764481969703384,0.06503618873824504,1.4844156802708985,0.20831999818642524,0.6371030395154227,0.0
-0.0411794228119386,0.6768840459556246,0.07458179532240096,1.484529163911293,0.20836563704235825,0.6368838465114173,0.0
-0.045908120021188464,0.6774245687527594,0.08476727902845087,1.4846805573983475,0.20841449662951358,0.6366208297970559,0.0
-0.04937597588012841,0.6778800764930134,0.09223797869213607,1.4848150028818758,0.20845062644363338,0.6364045312009835,0.0
-0.052317460508601504,0.6783039204826914,0.09858351842040579,1.4849438463987505,0.20848159648704354,0.6362058101292197,0.0
-0.05517936015631938,0.6787473119377124,0.10476372339124296,1.4850815024886639,0.2085119652996265,0.6360001046451449,0.0
-0.060227669690819725,0.6795846109166916,0.11569280595134032,1.485346646038716,0.2085659674319096,0.6356155859998952,0.0
-0.06433050991507476,0.6803399128811368,0.12456668936282561,1.4855916035756966,0.20861013594613195,0.6352749811833476,0.0
-0.06876916320964056,0.6812274325801259,0.13419955177248694,1.4858844935872755,0.2086588355910493,0.6348774260400802,0.0
-0.07312553503247646,0.6821711075802014,0.14366397719771323,1.486200516173337,0.20870723024385798,0.6344591726828556,0.0
-0.07428334257211267,0.6824406463655053,0.14618003629517465,1.4862916732913352,0.20872031003968336,0.6343404991176971,0.0
-0.07975983434058256,0.6837456854535334,0.15812648445764618,1.4867360154716982,0.2087826315172844,0.6337670572532239,0.0
-0.08386206726817681,0.6848075842398453,0.16707609364332535,1.4871013923681584,0.20883003271956174,0.6333056307854865,0.0
-0.08878395559743797,0.6861654628634847,0.17786228648265798,1.4875730029890215,0.2088883330728989,0.6327172716890196,0.0
-0.09269415284907982,0.6873192703249421,0.18644187357660258,1.487976502967742,0.20893552568955792,0.6322210856681076,0.0
-0.0960121803573191,0.6883520880979839,0.1937447017203415,1.4883397789770667,0.20897649548392563,0.6317781810970674,0.0
-0.09952540610215244,0.6894940575674533,0.20149498392666235,1.4887432256956037,0.2090206269927848,0.6312901690040261,0.0
-0.10302093391064654,0.6906816753855827,0.20922461267896136,1.4891645034939778,0.20906536312304347,0.6307844090099339,0.0
-0.1062196658223287,0.6918158049821693,0.21631510210087868,1.4895682191865471,0.2091071072260396,0.6303029204489662,0.0
-0.10967771270454744,0.6930899080643735,0.22400070334684632,1.4900232306465304,0.2091530895557068,0.629763440491801,0.0
-0.11270384780278286,0.6942502550203354,0.23074314526247156,1.4904387377172754,0.20919415346860976,0.629273503242889,0.0
-0.11632815111198337,0.6956893356168656,0.2388416026592724,1.4909554687261226,0.20924427536754198,0.628667240087993,0.0
-0.11958975342726798,0.6970372513941935,0.24615057463440534,1.4914405850202275,0.20929040503749488,0.6281009086897934,0.0
-0.12283051650674932,0.698425112834039,0.2534346726730143,1.4919411311348127,0.2093372327266437,0.6275190363339962,0.0
-0.1261174117147809,0.6998823901976507,0.2608450387859073,1.4924677017292047,0.2093857639834496,0.6269093464787929,0.0
-0.12951508268249032,0.7014417845016497,0.26853000874555927,1.49303215502671,0.2094370714888339,0.626258260012767,0.0
-0.13335038792133522,0.7032652852913575,0.27723607422257196,1.4936933591109942,0.209496386498389,0.6254984389722904,0.0
-0.13689062439441455,0.7050151065604998,0.28530410337919226,1.4943287635271902,0.20955267020322968,0.6247708425775502,0.0
