fotiskoutsikos/xarm7_motion_planning/scripts/logs/2025-04-25_11-15-59/joint_angles.csv
j1,j2,j3,j4,j5,j6,j7
0.04722806893750864,0.7000370092353236,0.342392189090476,1.5707711536555191,0.03822314904064239,0.8708093760999729,-9.429834532781456e-06
1.533270922493557e-05,0.7000372873923837,0.2858725628619476,1.5707709644150132,-5.383307553064043e-05,0.8708097221593469,-8.761506647303463e-06
-0.0026673912437509273,0.7000456069653884,0.16027360614725428,1.5707945855552907,0.0007212199861026392,0.8708598391745586,-8.45669701554641e-06
-0.005652154798077014,0.7000818457348332,0.011775713215812722,1.5708326928914804,0.0015241930589047215,0.870912604284511,-8.476029382364914e-06
-0.008395414439399396,0.7001420301838897,0.01750195324955417,1.570879347353805,0.0022618712556701226,0.870957733645275,-8.45791804060525e-06
-0.015398178726451661,0.7003601045883947,0.032165722965063814,1.571026789963236,0.004150340665353802,0.8710654915396558,-8.476478938312937e-06
-0.020070612610060934,0.7006165830933648,0.04193399326831049,1.5711734942754525,0.005408647068998462,0.871123091740861,-8.452453633012169e-06
-0.02634838448305743,0.7010608016424076,0.05507309784818748,1.5714142445815913,0.007100737400976165,0.8711884069507905,-8.424938040541008e-06
-0.03134084822607175,0.7015197653925052,0.06551319308374381,1.5716516187285494,0.008445164575367592,0.8712277722649784,-8.406707251218393e-06
-0.03683495087476274,0.7021068172293319,0.0769881037293434,1.5719228363929805,0.009910784327048283,0.8711887575627948,-8.391607834390413e-06
-0.04054003021759822,0.7025555350603776,0.08459031201983702,1.5721140609356041,0.010776591508912858,0.871125074218341,-8.452234238731648e-06
-0.04593526256408165,0.7032553868446882,0.09552293336359519,1.572395997935895,0.011896829608265769,0.8709965056475619,-8.443502199639852e-06
-0.05034615803856646,0.7038766211599841,0.10427023113083767,1.5726284375602502,0.012633870883320242,0.8708573728033846,-8.374243541275916e-06
-0.0550868725026854,0.7045819711721073,0.11349212921243801,1.572878923705293,0.013253526905728563,0.8706869039267184,-8.374848713188499e-06
-0.058584102550255146,0.7051286919508772,0.12014362934819545,1.573063315507862,0.013568614544730018,0.8705513387102988,-8.308829038128351e-06
-0.06420032088216576,0.7060323470450811,0.13065094785699394,1.5733577343091607,0.013902122831375152,0.8703310689714163,-8.311437206032224e-06
-0.07450667240333875,0.7077624472945754,0.14943624556308954,1.5738955669363444,0.014022724267234388,0.8699363174997989,-8.445452198913017e-06
-0.07678865162564907,0.7083934566457613,0.15487689741628685,1.574161311866785,0.01379657096790865,0.869788641723586,-8.393155194852397e-06
-0.08356085246995804,0.7102277606575944,0.17033330355302567,1.5749007811058906,0.013222485399333017,0.8693380901377648,-8.341016252799704e-06
-0.0886097746988197,0.7116970515134957,0.18165828918279825,1.5754728160218443,0.012821486701174223,0.8689393557063303,-8.475664674101324e-06
-0.09499810342851145,0.7137486561416813,0.19635192039549842,1.5762799185996732,0.01226949629193097,0.8683471592109058,-8.448872661936946e-06
-0.09947323005159259,0.7152689703538826,0.20647005656437312,1.5768601036372454,0.011906341788817443,0.8678819809346976,-8.517764122473181e-06
-0.1054515934795317,0.7174705191976454,0.22029578470525735,1.577709356406598,0.01138448232530731,0.8671825224449394,-8.501910260250156e-06
-0.11168120297563888,0.71989118797676,0.23456489443655748,1.57862349828497,0.010861606699502424,0.8663836777586535,-8.472988026753114e-06
-0.11634341361828326,0.7218790283477095,0.24548197942920336,1.5793800545074799,0.010441503997454582,0.8657026810210509,-8.506603953684078e-06
-0.12019253540804886,0.723803298375004,0.25568314223836985,1.5799293053860728,0.010018670817485642,0.8642555046454472,-8.66194465576342e-06
-0.12008503292522654,0.7249980253577624,0.2612417481783229,1.579987701784753,0.00987451908892023,0.8613702693390861,-8.678995468081041e-06
-0.12538031080361378,0.7270680038075801,0.272897998873491,1.579969786478716,0.010067049914899151,0.8583960114942082,-8.759583280948391e-06
-0.12543352743974712,0.728152329628978,0.27754927335316903,1.5800687718464888,0.009975913702285233,0.8559603349087217,-8.811013232801201e-06
-0.12968057632796182,0.7302468700949181,0.2881242686223917,1.5801516517667364,0.010099261131621518,0.8528843778954132,-8.89331535525173e-06
-0.13036194269725065,0.7314687029740599,0.2932275637794124,1.5803010361030232,0.010048210180184647,0.8505545936808092,-8.879058720268063e-06
-0.13314075060084996,0.7331696098130935,0.30101067112208657,1.5804451370721155,0.010107491649682387,0.8480479626116253,-9.048836120406634e-06
-0.13488226068435694,0.7349078113519365,0.30821674693767953,1.5806737468906178,0.010095765770359755,0.845203297594324,-9.08432113799762e-06
-0.13794779923473754,0.7371533406179998,0.31764455888562804,1.5809528827907258,0.010139564085488217,0.8419452593854295,-9.171854634892895e-06
-0.13952619437832503,0.7389204280087363,0.32440558330355085,1.5812528910642447,0.010121349215751252,0.8392067106069545,-9.174381304433155e-06
-0.14189830099952694,0.7408466091061028,0.3319133308252056,1.581554553757921,0.010147522821433164,0.8365379232613268,-9.346116386588221e-06
-0.14386683923771582,0.7430381199721561,0.3398705773930537,1.5819752605874209,0.010132380694357401,0.8333526280923254,-9.42940831905048e-06
-0.1463687721414928,0.7453077566649728,0.348116043699914,1.5823969021055406,0.010149553923547217,0.8303255481855878,-9.483519703756826e-06
-0.14801547945999882,0.7473696392855569,0.3550864356817849,1.5828548757468193,0.010128006223195207,0.827456495429904,-9.560756557114303e-06
-0.15003235308941232,0.7493857657410743,0.3619505369383065,1.5832811557461346,0.010134127650743174,0.8248698377225274,-9.557706450280534e-06
-0.15107312597915534,0.7507232362632452,0.366253991605185,1.583602383933541,0.01012132906080776,0.8230996233307399,-9.60648549330756e-06
-0.15346974096246235,0.7535380811716346,0.3752949044194889,1.5842692265116671,0.010108377963257809,0.8195047371964863,-9.70774521480422e-06
-0.15513032652956316,0.7556912499911839,0.3819308899673759,1.5848160712017947,0.010090773069518555,0.8167906954500177,-9.875099537204335e-06
-0.15678665710432682,0.7578103698167968,0.38834176656589836,1.5853638806495098,0.01007622210133885,0.8141932634644933,-9.948678703075586e-06
-0.15848757062203234,0.7601610483057577,0.39524690817049013,1.5859996071848093,0.010053709688105705,0.8113327157926857,-1.002926131477011e-05
-0.1601680472550404,0.7624984391507779,0.401970366118114,1.5866453216780192,0.010032425289299596,0.8085543887628894,-1.0109094800370144e-05
-0.16145575280367908,0.7644184168219663,0.4073381367971409,1.5871968961622187,0.010011055064826913,0.8062951190543002,-1.0174155622877379e-05
-0.16273250546473506,0.7663346274561329,0.4126105720881226,1.5877554326569738,0.009990266223499411,0.8040788917969905,-1.0238386494165752e-05
-0.16394188025245438,0.7682286697017817,0.41771794224058034,1.5883210290960061,0.009967737673740373,0.8019096618329113,-1.0301356245356885e-05
-0.16505056181525646,0.7700050006232368,0.4224276076100377,1.5888606111156642,0.009946063065863875,0.7999014122127974,-1.0359815007632278e-05
-0.16649111707696918,0.7723769969166518,0.42861580281065237,1.589592880566796,0.009915753461106291,0.7972463498332223,-1.0437709510924265e-05
-0.1676048266807335,0.7742841570924659,0.43348623728142766,1.590194700419195,0.00989022634894976,0.7951401231753099,-1.0492092403779907e-05
-0.16902288175726987,0.7767642733955853,0.43972251574648435,1.5909879851213589,0.009856090817125462,0.7924318456693262,-1.0586811015400599e-05
-0.1704881260823088,0.7794359118262024,0.4462982637665345,1.5918603877070154,0.009817208574886216,0.7895496998315368,-1.0681044098070913e-05
-0.17154073555345928,0.7814227302804495,0.45108784509265654,1.5925211308082332,0.00978778015739934,0.7874387407955528,-1.0683531006527858e-05
-0.1724708001050903,0.7831520747075116,0.45521264428704367,1.5930978167643293,0.009763137104458863,0.7856335022978111,-1.0719485890930969e-05
-0.17272749483210337,0.7835359830253195,0.4561502082557123,1.5932177056401642,0.009760774903615932,0.785254430683084,-1.08072247790858e-05
-0.17336242865119544,0.784496682753197,0.45848188853666105,1.5935195366473467,0.009753546173027594,0.7843063605448917,-1.084181469135359e-05
-0.1743757340759009,0.7860682806197579,0.46226181389834853,1.594017360016358,0.009740472513712461,0.7827570841882139,-1.1020282818741123e-05
-0.1750683523162726,0.7871787592060588,0.4648994933788009,1.594374177060101,0.009730787710949151,0.7816664768100585,-1.0922078241826227e-05
-0.17566894172334813,0.7881719393293496,0.46723363236326243,1.5946934108389303,0.009720877319036703,0.7806812759750219,-1.0869630326482138e-05
-0.17635552099470608,0.7893453944978894,0.4699729173502609,1.5950663086716261,0.009708642669368217,0.7794863500026459,-1.0986739447105265e-05
-0.17697764017378592,0.7906185327866213,0.47286175680950926,1.5954790837501065,0.009696544153731779,0.7781074236988008,-1.0968307651459952e-05
-0.17745334344964458,0.7916883280318388,0.47525684176759864,1.5958206835410023,0.00969330597165019,0.7768917705713463,-1.0976292692532752e-05
-0.1779451934839198,0.7927949896543787,0.47772418209086176,1.5961653106785247,0.009695142816996238,0.7756068656717874,-1.1039239222299102e-05
-0.1784511655269787,0.7938494149966715,0.480084844879447,1.5964881751059954,0.009698953862601556,0.7744057731608498,-1.1111415253672874e-05
-0.17890794189242687,0.7948003193200348,0.4822001850363842,1.5967806774879758,0.00970188398042815,0.7733306165984368,-1.1133383567951682e-05
-0.17948324749638633,0.7960089182028076,0.48487224616274105,1.5971536923034195,0.009705131393656252,0.7719701101018002,-1.1115138395467739e-05
-0.1802213904988017,0.7975833464375812,0.4883272807880079,1.5976429074299912,0.009708955924513596,0.7702048344033932,-1.1146350822777151e-05
-0.18107489706319857,0.7994498631599924,0.4923791393067187,1.5982286179026142,0.009712273325668264,0.7681223726812281,-1.1211032100888474e-05
-0.18196738967116932,0.8014612071834444,0.49669128665871565,1.5988669487184168,0.009714785975912577,0.7658915055292912,-1.1283639159032077e-05
-0.18273621450799116,0.803253996309901,0.5004807307457764,1.5994439416047816,0.009714993363943769,0.7639163339482193,-1.1313613955010737e-05
-0.18347005819864215,0.8050090031289905,0.5041504761863962,1.6000138356113682,0.009714993193061794,0.7619946301806797,-1.1388043791527025e-05
-0.18462181019848867,0.8078176367348471,0.5099626986356336,1.6009320194070717,0.009712523711828958,0.7589330303628143,-1.1549430178448006e-05
-0.18534701657680674,0.809707778869968,0.5137960829428545,1.6015632723941202,0.009708996036777329,0.7568870181184622,-1.1575282656828279e-05
-0.18588562377258544,0.8111598188273828,0.5167058214495883,1.6020505743400584,0.009705247062666622,0.7553138990236361,-1.1563573106165848e-05
-0.1864330361493618,0.812825776262013,0.5199947972590708,1.602606131688228,0.00969940127329938,0.7534287825350576,-1.1633883617356844e-05
-0.1866663063944971,0.8141752909730622,0.5225306665601996,1.603075166219404,0.009698328222298436,0.7517414401294884,-1.1743927539775711e-05
-0.1869210893382398,0.8154361000264823,0.5249150700697314,1.6034894642171267,0.0097069702174295,0.7501269775186206,-1.1757393409084216e-05
-0.18735251012413467,0.8171019315224548,0.5281024327018091,1.604018503218474,0.009721517710658212,0.7480402942282947,-1.1852386220922995e-05
-0.18777952550000077,0.8187368393017715,0.5312092502082351,1.6045400118521114,0.009734946536169353,0.7460094217036364,-1.1868049126562141e-05
-0.18810851758525793,0.8200604449069306,0.5336959506738408,1.6049674757842274,0.009744672756832884,0.7443711288788064,-1.1853343976575559e-05
-0.18839668611906824,0.8212447040430204,0.5359069265633014,1.6053522726650469,0.009753472350775283,0.7429105409214056,-1.190625950098223e-05
-0.18872686665570804,0.8226277846905274,0.5384722349321702,1.6058044903442257,0.009762536624124074,0.741208662026895,-1.197808466280037e-05
-0.18902942567683922,0.8239392896477149,0.5408830139188838,1.606236544063977,0.009770304124740115,0.7396002181578591,-1.1979609320533768e-05
-0.18931563785793148,0.825211987969964,0.5432070581197452,1.6066584931216266,0.009777525318404479,0.7380434312874113,-1.202030833535872e-05
-0.18956359040191462,0.8263460249584487,0.5452647875690539,1.6070368133905752,0.009783834201993358,0.7366597361271365,-1.2143607375669774e-05
-0.19000488295508866,0.8283703677719778,0.5489185016924463,1.6077123582477055,0.009793575945450606,0.7341928552605133,-1.2163356235106448e-05
-0.1902887688602295,0.8297860520900784,0.5514390272162002,1.6081922947558436,0.009799366496257456,0.732471692217942,-1.2208243609812541e-05
-0.19059750220807015,0.8313295121442028,0.554170369171735,1.6087167118895414,0.009804896616862457,0.7306036297056675,-1.2217901530497954e-05
-0.19088596964530513,0.8328289354521159,0.5568045559407562,1.609229541881307,0.009810167205786868,0.7287917025855011,-1.2352329062714773e-05
-0.19114587074157008,0.8342237272395527,0.559234640229076,1.6097098910158714,0.009814062206676688,0.7271109094319899,-1.235081422112927e-05
-0.19133781812737816,0.8356383833582068,0.5616503684011036,1.6101980714181021,0.009815971093071418,0.7253279394817618,-1.236319429231969e-05
-0.1913621597914057,0.8366737426818727,0.5633493652948429,1.6105650404682805,0.009819024397740073,0.7239162539998585,-1.2398249744194345e-05
-0.1913713977265079,0.8380107121303375,0.5655285646282735,1.6110272142214992,0.009827649773129998,0.722025778542978,-1.2443912150494896e-05
-0.19139337259951716,0.8395105822322675,0.567975662907088,1.6115231614222125,0.009843778539731396,0.719841211721552,-1.2495353067798476e-05
-0.19160568892834373,0.8414819006123224,0.5712794050112207,1.6121407748534446,0.009866457364764436,0.7170808708421559,-1.2649813339926652e-05
-0.19168102641652585,0.8429852784143739,0.5737292860036005,1.6126313827554224,0.009881153288242572,0.7149380924369257,-1.2646140163496966e-05
-0.19177641965262193,0.8442666096680158,0.5758220139740118,1.6130450280239863,0.009893112092944634,0.7131384181548555,-1.2647958147482541e-05
-0.19184313114914975,0.8453590920986596,0.5775920148234901,1.6134013953044795,0.009903151953364997,0.7115987884122426,-1.2727337060702837e-05
-0.1919037477778227,0.8463893141408052,0.5792506327289741,1.613738511626158,0.009911619783283143,0.7101497961523107,-1.2724628136062677e-05
-0.19195390344509455,0.8472975847305708,0.580708331500313,1.614036583002961,0.009919341799849768,0.7088717890762668,-1.2841734793767046e-05
-0.19201366647850282,0.8483977174440858,0.5824658792932018,1.6143979863548443,0.00992777289018143,0.7073237877014096,-1.2828338996406785e-05
-0.19206760957046676,0.8494881132202883,0.5841986062559963,1.6147570286781185,0.009935811210627143,0.7057883245589371,-1.2914397800933841e-05
-0.19210340405447024,0.8502942236546396,0.5854705307377301,1.6150243244554092,0.00994100247126184,0.7046542850690658,-1.2847766915236036e-05
-0.19214078950004243,0.8511493471988958,0.5868183269286478,1.6153073505684636,0.009947067220823058,0.7034505021590283,-1.2887611392287113e-05
-0.19217201376474513,0.851917077693729,0.5880229197386484,1.6155626204516809,0.009951768786610415,0.7023692184364023,-1.2979078019448309e-05
-0.19221153280471892,0.8528975086573078,0.5895560919768164,1.615887670951567,0.009957394359266125,0.700987587359986,-1.2996453913949324e-05
-0.19225404602186202,0.8540285769234339,0.5913200435652319,1.616262365748029,0.009964171093111318,0.6993894076748113,-1.3064366569004449e-05
-0.19228386124613372,0.8549629774791772,0.592767045789353,1.6165737211657767,0.009969016133771547,0.6980681771013248,-1.3076311085491454e-05
-0.1923193428253196,0.8560743285822126,0.5944827101777337,1.6169428030741377,0.009974261123173456,0.6964948991066544,-1.3077501718861129e-05
-0.1923479238999608,0.8571206724872713,0.5960903764138843,1.6172909828419533,0.009979066765160916,0.6950102137306935,-1.3132447687524973e-05
-0.19236019520604675,0.8580216946553874,0.5974649392848219,1.6175913490321099,0.009983211421833005,0.6937182309473444,-1.3180150615355046e-05
-0.1923346285857228,0.8592944004950676,0.5993777263412152,1.6180119756600346,0.009987910330140792,0.6918233155345277,-1.3155549300591929e-05
-0.1921702435361503,0.8606208829440778,0.6012917052351305,1.618456575709395,0.009993080920433606,0.6896817122789702,-1.326480867547275e-05
-0.1919574784637339,0.861750730603549,0.6028800415824005,1.618826694755593,0.010000003450129746,0.6877280228048726,-1.3272240051875883e-05
-0.19180155296311518,0.8627700512566863,0.6043319053563314,1.6191365935078705,0.010007970652619491,0.6859292139728677,-1.327200411882501e-05
-0.19173609037675643,0.8638664586478066,0.6059491545071571,1.6194488449957358,0.010017002880887027,0.6840599824974323,-1.3321980183000903e-05
-0.19166298703884976,0.864806297655341,0.6073202925481249,1.6197192789843928,0.010023544810821683,0.6824415931105952,-1.3414626883978542e-05
-0.1915893801676436,0.8658016380617095,0.6087704683670596,1.620002827376049,0.010030017712439054,0.6807239692596392,-1.3420326708590835e-05
-0.19150918910514214,0.8668472975590564,0.6102862658079795,1.6202990692936643,0.010035850986756856,0.6789101452205264,-1.3423210609708747e-05
-0.19142642439268798,0.8678962776025116,0.6118021956674067,1.6205942100367379,0.010041291166735355,0.6770791767759992,-1.3500089251827774e-05
-0.19134584435034707,0.8688854508805735,0.6132264280019086,1.620870507681782,0.010046160763580225,0.6753427257577744,-1.3495189594259216e-05
-0.19126129257721747,0.8699204214662517,0.614711564839233,1.6211569736365172,0.010050160854336632,0.6735148390660344,-1.3533549953592683e-05
-0.1911741773779827,0.8709558782267282,0.6161921141868758,1.6214410708912679,0.01005333593078106,0.6716717596457276,-1.3607676983440342e-05
-0.19107630192269465,0.8721298312132273,0.6178651554565757,1.6217575290571746,0.010056020460460502,0.6695653789007876,-1.3647431938323962e-05
-0.19100644982541937,0.8728709731156528,0.6189135334574569,1.6219579664774217,0.010057324110936072,0.6682257514795449,-1.3674959893350547e-05
-0.19093858784544437,0.8736416701233702,0.6200044093762322,1.6221631497267985,0.010058312406192371,0.666827814639853,-1.3703854326863052e-05
-0.19084297373305947,0.8747916015931283,0.6216331925225793,1.6224606036164397,0.010059213836679959,0.6647189916912639,-1.3747010754627809e-05
-0.19073769140913743,0.8759254056968651,0.6232283670093146,1.6227493045891608,0.010059246403242739,0.6626071619145657,-1.3790114214984328e-05
-0.1906424115698666,0.8769964276077085,0.6247346472108743,1.6230151391565846,0.010058752690633277,0.6605928756014272,-1.3822641411920245e-05
-0.1905402395528073,0.8781236543737565,0.6263141273704953,1.6232870348595823,0.01005713096246108,0.6584421851348328,-1.3865833293991159e-05
-0.19043542300027916,0.879283026301148,0.6279351594433393,1.6235568451386877,0.010054577406898524,0.656195035168329,-1.3910473540157398e-05
-0.1903480026271689,0.8801799942457373,0.629182257091645,1.6237610326277974,0.010051960965943074,0.6544315922107398,-1.3991039903515912e-05
-0.19025010379877116,0.8813680332941969,0.6308420526983278,1.6240146998287104,0.010047707192994082,0.6520612169863336,-1.3974575536757072e-05
-0.1901507701713303,0.8823232437618405,0.6321611719359064,1.6242136153758828,0.010043039956640243,0.6501047776767468,-1.4006165439894858e-05
-0.19007434675056167,0.8832566311667884,0.6334616340869026,1.6243945663980108,0.010038628043846032,0.6481774869801908,-1.4024251290045697e-05
-0.18997686286528204,0.884331309393974,0.6349517068453068,1.6245883677898663,0.010032332410168543,0.645890747410033,-1.4067862732503045e-05
-0.18990906988957512,0.8850424237997743,0.6359340053698697,1.6247112339216976,0.010027461024771256,0.6443514249317399,-1.4129681102481584e-05
-0.1898460507678541,0.8858009663971647,0.6369862254527723,1.6248313100199026,0.010021963988154248,0.6426855444209343,-1.4160752225933493e-05
-0.1897875212336526,0.8864431187381587,0.6378733018920695,1.6249264505766998,0.010016937058514586,0.6412438865250358,-1.4187724237224586e-05
-0.18973785329214365,0.8870316896001382,0.6386870952574908,1.6250067211140937,0.010011730802673036,0.6399040069030075,-1.4224525411776767e-05
-0.18968505047191542,0.8876968568879775,0.6396103358857417,1.625086686077971,0.010005816522371092,0.6383554822665598,-1.4253099092087496e-05
-0.1896318162110644,0.888359060083876,0.6405300128754536,1.6251549534899459,0.009999959757255539,0.6367730543340695,-1.4237078874934639e-05
-0.18958300127953542,0.8889971650361144,0.6414165107502656,1.625210046370043,0.009993111308391533,0.6352111816035917,-1.4310576013976117e-05
-0.18952936800493347,0.8899602707482952,0.6427707688885418,1.625258104778327,0.009982710295891373,0.6327599284386611,-1.4354218622614212e-05
-0.18945351084840123,0.8908508137288607,0.644011374687091,1.6252706564224368,0.00997273130660048,0.6303391720699949,-1.4350784505623437e-05
-0.18943138768927614,0.8912780439301367,0.6446133233689038,1.6252698705906168,0.009967301228186898,0.6291743125875211,-1.437157690098445e-05
-0.18940656735597283,0.8916958112782574,0.6452014939963391,1.6252602682252482,0.009961663303427848,0.6279967668360795,-1.4424824824388338e-05
-0.18938396397128265,0.8921583400164597,0.6458563290983887,1.625236705357354,0.009955313399165888,0.6266557659480982,-1.4448189799232125e-05
-0.18937032846702717,0.8929772768768025,0.6470370100324514,1.625144941496103,0.009943105637859162,0.6241425880530285,-1.45039837100569e-05
-0.18932407058947298,0.8934761403702325,0.6477392369786577,1.625065071017076,0.0099357341993489,0.6224651010174194,-1.4518874549729333e-05
-0.18935511359532065,0.8941380701266723,0.6487261618971649,1.6249189132655895,0.009924580362747015,0.6202385385782359,-1.4555672917637708e-05
-0.18929646466540628,0.8946041704276855,0.6493820896652371,1.6247732862856825,0.009916696200678032,0.6183924820958868,-1.4552108694942945e-05
-0.18935760396044632,0.8950682877859579,0.6501030190590207,1.6246133232063382,0.009907692865338547,0.6166848899894708,-1.4579517634949468e-05
-0.18932624080725358,0.8952805725448316,0.6504023645271646,1.6245191199224953,0.009903241686296305,0.6157336877841555,-1.4639572233576814e-05
-0.18935425413521845,0.8956504783049297,0.6509747763073683,1.624336622010441,0.00989580901169873,0.6141409251747083,-1.465122306587574e-05
-0.1893822276075694,0.8961204743317328,0.6517099033711542,1.6240226601092136,0.009885369092118346,0.6118092506579167,-1.4686231342153633e-05
-0.18940486576193383,0.8963846952837482,0.652130273653257,1.6238175403404878,0.009879197862580291,0.6104070564755446,-1.4674435012018705e-05
-0.18943570542461607,0.896626507696376,0.6525263204155491,1.623598743213213,0.0098729118919616,0.6090238637538237,-1.472708114746979e-05
-0.18947880627906777,0.8968845768332416,0.6529615577723993,1.6233159695151533,0.009866018412334476,0.6073888852920337,-1.471820069465224e-05
-0.1895078596352704,0.8970545665240097,0.6532544276625387,1.6230968620110637,0.009860931547359009,0.6061909799297744,-1.4767586311137393e-05
-0.18955199479212403,0.8972250768430259,0.6535607992160699,1.6228468503923033,0.009855608757117551,0.6049051952354496,-1.4785697632468953e-05
-0.18957549818377828,0.8973239810689497,0.6537406564828769,1.6226803283052549,0.00985235092088299,0.6040780252068707,-1.4797169070490668e-05
-0.18962564547801275,0.8974646652215199,0.6540096066422239,1.6224130738416287,0.00984709758981328,0.6028182457028164,-1.482784869821785e-05
-0.18966816445513324,0.8975756124028402,0.6542326701709635,1.6221537217789628,0.009843208408545578,0.6016540766680558,-1.4797672922561844e-05
-0.18968022522161654,0.8976062650934065,0.6542946784237689,1.6220789668116078,0.009841976669491714,0.6013212560871386,-1.4802202339403436e-05
-0.189723466638406,0.897689476557777,0.6544728534417015,1.6218520229608675,0.009838400825733729,0.6003474204582648,-1.4815244036014974e-05
-0.1897858662244225,0.8977852591894075,0.6546951981909732,1.6215277292305954,0.00983375809584075,0.5990177676131125,-1.4832814779097703e-05
-0.1898297525415975,0.8978443705811117,0.6548435968568826,1.6212789184906153,0.009830356472670942,0.5980273408962988,-1.487808795186396e-05
-0.1898907021618479,0.8979058354599063,0.6550131911228192,1.6209745313170005,0.00982652299789688,0.5968577273406481,-1.4893271400140407e-05
-0.18994470278282716,0.8979506395221408,0.6551518057038788,1.6206848997953927,0.009822913316360982,0.5957748688533488,-1.4920445009281025e-05
-0.18997929869779817,0.8979740508626239,0.6552337562011141,1.620503088488194,0.009821312392760184,0.5951093704334154,-1.4883201164828108e-05
-0.19003186587391951,0.8980015432532449,0.6553439330097701,1.6202422174493751,0.009818380744226474,0.5941717908011821,-1.4927430048494728e-05
-0.1900725793624325,0.8980183735062086,0.6554240117669989,1.6200306891932792,0.009816246882638602,0.5934241389889747,-1.4936839949797331e-05
-0.19012838096648021,0.898035511481214,0.6555221047939668,1.6197540922265246,0.009813263862747057,0.5924637963114145,-1.4962098132009771e-05
-0.19017679850100144,0.8980443242486871,0.6556006992108863,1.6195067967258128,0.009810989595204767,0.5916194076290715,-1.4972571392490863e-05
-0.1902334018824705,0.8980496860252725,0.6556842460003622,1.6192256420853601,0.009808485127916988,0.5906740009514024,-1.4984201635037664e-05
-0.19028840522867974,0.8980499206925003,0.6557589162442836,1.6189483901862491,0.009806126616316746,0.5897535488368915,-1.4995463583744595e-05
-0.19034735256611945,0.8980462190417429,0.6558327814249472,1.618653950853603,0.009803693629046428,0.5887870871934116,-1.5007212733841868e-05
-0.1904114676766211,0.8980375407630765,0.6559073430477182,1.6183315433113226,0.009801539896632683,0.5877412574888883,-1.4974290824198988e-05
-0.19047619044659836,0.8980260155491422,0.6559780511102904,1.6180045115376878,0.009798976825395656,0.586685590386911,-1.4987081181416784e-05
-0.19053281785411436,0.8980142545572747,0.6560376249939539,1.617716156726571,0.00979673309511142,0.5857579784634375,-1.4998270650323775e-05
-0.1905816239033502,0.8980035347234594,0.6560880932462698,1.6174665059722182,0.009794782871761498,0.5849556898108128,-1.5007931422061915e-05
-0.19064544178293197,0.8979889477424283,0.6561536310522067,1.6171391634210792,0.009792068638889262,0.583902876613025,-1.5052864412723466e-05
-0.19070389395214793,0.8979761512423119,0.6562124522160158,1.6168401235038612,0.009789403630053428,0.582941614241955,-1.5077519309514287e-05
-0.1907468639424632,0.8979649753812708,0.6562545263773938,1.61661997393134,0.009788081556949102,0.5822390886698541,-1.5040555636502972e-05
-0.1907860827742276,0.8979541154130146,0.656291398641641,1.616421623338267,0.009786376736158786,0.5816061322788642,-1.508039762310176e-05
-0.19082968217100138,0.897941805301862,0.6563301244051383,1.616202326809315,0.009784379044790903,0.580909739462629,-1.5101710037157545e-05
-0.19087045766411226,0.8979276051950604,0.6563641072284474,1.6159976668266758,0.009783243917568463,0.5802677377109893,-1.5064059441627364e-05
-0.19092181111108886,0.8979079738796978,0.6564028065304548,1.6157451584251943,0.009781373732626442,0.5794813016034022,-1.507344309459313e-05
-0.19096910973291248,0.8978864993429925,0.6564340554772041,1.6155128783638153,0.009779595708497624,0.5787651728152934,-1.5114067303478862e-05
-0.19102912253495052,0.8978567125766341,0.656467316873953,1.6152253551827327,0.009777378265166448,0.5778919860682628,-1.5137289854472158e-05
-0.19107420386303176,0.897829127905621,0.6564870454769007,1.6150051531815022,0.009776439473887066,0.5772351418727926,-1.5099761037085102e-05
-0.1911162624585092,0.8978017519385064,0.6565021423526707,1.6148056293967636,0.009775123028742172,0.5766453697040088,-1.5138778784340445e-05
-0.1911616037535646,0.8977698298921979,0.6565141281430424,1.6145932475135938,0.009773952520996332,0.5760275874114367,-1.5145928262683128e-05
-0.19121671333642798,0.897727762493659,0.6565223316625639,1.614339933029564,0.009772400133857495,0.5753033771454064,-1.5167120984926896e-05
-0.19127424989162645,0.8976769409900882,0.6565233361312188,1.6140770299053573,0.009771548553937137,0.5745701717865508,-1.5162238335975076e-05
-0.1913223160270885,0.8976314239992957,0.6565178926063959,1.613857124795226,0.00977044090934065,0.5739655631455234,-1.5181957680354685e-05
-0.19136808204516154,0.897584494075705,0.6565089194226816,1.613651065882065,0.009770191230712655,0.5734121845879727,-1.5143163672348692e-05
-0.191420870952709,0.8975275750795513,0.656493583495168,1.6134195418936308,0.009769422957147,0.5728006460298056,-1.5181898274541084e-05
-0.19147451354000733,0.8974660372466605,0.6564711977141444,1.6131848505573645,0.009768651762912306,0.5721932647835271,-1.5201364266914652e-05
-0.19152823125162222,0.8973993849778905,0.6564432637662598,1.612951880415058,0.00976873929901334,0.5716064918755777,-1.5162274026536693e-05
-0.19158514279068672,0.897325230696449,0.6564079200729891,1.6127097768117356,0.0097684094966759,0.5710084339456643,-1.520133231114329e-05
-0.19164184206859147,0.8972471641986273,0.6563662647880406,1.61246983170642,0.00976838036013472,0.5704299270892639,-1.5207513238024717e-05
-0.19170175196157047,0.8971614132088934,0.6563161396636445,1.6122198485953385,0.00976822929328236,0.569840721916683,-1.5226413715652143e-05
-0.1917771913874633,0.8970477866385682,0.6562462586057531,1.611912364496197,0.009769043964880986,0.5691410168239139,-1.5188574567837065e-05
-0.19185597977378688,0.8969205386158547,0.656161127316091,1.6115921292502122,0.009769631499795928,0.5684331659236985,-1.5227663329397956e-05
-0.19192111486176433,0.8968091268723084,0.6560819690175927,1.6113260197744985,0.00977044898168078,0.5678608316334595,-1.5233394529801103e-05
-0.19200247573426843,0.8966695741027308,0.6559796875538639,1.6110063760270847,0.009771343311175684,0.5671940024232462,-1.525238717992039e-05
-0.1920718222344746,0.8965407950654507,0.6558812804346568,1.610728566494247,0.009773048219800629,0.56663288780633,-1.5212779544526711e-05
-0.19215862664900651,0.8963799791751006,0.6557558894465121,1.6103948403145871,0.009774795184409157,0.5659791221057127,-1.5218969439345642e-05
-0.1922534257355668,0.8961950840588218,0.6556061449937021,1.6100308121300815,0.009777056103401627,0.5652912723962045,-1.5225159675225086e-05
-0.19237639877701707,0.8959500338426238,0.6554028646753602,1.6095722986215284,0.009780329291414702,0.5644628268459977,-1.5232278777865815e-05
-0.19250364566472022,0.89567714322743,0.6551668293551929,1.6090913705428642,0.00978439571752343,0.563633103617196,-1.5239007155720685e-05
-0.1925997157553745,0.8954619309269969,0.654976131388934,1.6087267138307917,0.009787816852692366,0.5630251962592947,-1.5243796095631978e-05
-0.19274007803410154,0.8951574355896463,0.6547071008257435,1.6082269259490065,0.009792646853584941,0.5622294213034111,-1.5281695123547934e-05
-0.1928665357355781,0.894855483961515,0.6544281254669366,1.6077551940618262,0.009797739119974835,0.5615093319533875,-1.5298269230967776e-05
-0.19298148196697618,0.8945825683912592,0.65417673888523,1.6073403877154755,0.009802979327609762,0.560900685486752,-1.529005228739777e-05
-0.193062640383185,0.8943818793312257,0.6539876945096896,1.6070419150229895,0.009806912136019363,0.5604736864539639,-1.526169306753644e-05
-0.19311341987997732,0.8942550084053336,0.6538677726691144,1.6068559078556381,0.009809348512370697,0.5602115726541195,-1.526339390522935e-05
-0.19319526075236482,0.8940558506541612,0.6536807192246759,1.60656749910226,0.009813048510047828,0.559814867541208,-1.529759899998595e-05
-0.19327820131617202,0.8938498509378787,0.6534850521893834,1.6062741384292547,0.009817112513357706,0.559421644390711,-1.529984633918957e-05
-0.1934736500346368,0.8933851424434422,0.6530461743899254,1.605625721512041,0.009826503534006825,0.5585984584756689,-1.5272429941148857e-05
-0.19363647957020813,0.8929310508748989,0.6525967430408324,1.6050265797429244,0.00983629569938671,0.5578734327472281,-1.5275631250588617e-05
-0.19386755698440794,0.8923535948160541,0.652038268732233,1.6042707399968954,0.009848471163855343,0.5570097210699396,-1.531065193116632e-05
-0.19402239370276142,0.8918914081437839,0.6515682105835454,1.6036950354693102,0.009858824092026985,0.5563792033816553,-1.5323396685751334e-05
-0.19417342823885608,0.8914881399600034,0.6511686893183288,1.603190898548096,0.009868333487817793,0.5558481074375345,-1.5281882772555377e-05
-0.19428281781579848,0.8911763813987239,0.6508537464580897,1.602809887233997,0.009875591138825968,0.555456692752248,-1.5282735222221788e-05
-0.19444780386563654,0.890724766457911,0.6504008991774741,1.6022627250908696,0.009885973822394867,0.5549156163614102,-1.5315095722279182e-05
-0.19460945439907906,0.8902626129179199,0.6499310466519592,1.6017141017652046,0.00989701532275511,0.554393433992149,-1.5315609036115063e-05
-0.19478087337994765,0.8897732406695544,0.6494322947499889,1.6011406611207804,0.00990884713771667,0.5538680382598278,-1.5315927224257564e-05
-0.19498820546210727,0.889179156589611,0.6488241203261005,1.6004545799493828,0.009923552964311355,0.5532672026239993,-1.528254088789538e-05
-0.1951700903753366,0.8886356593860967,0.6482614799651749,1.5998392559915882,0.009937185974914442,0.5527484703046923,-1.528455904775683e-05
-0.19530739874354364,0.8882230508976363,0.6478333040359612,1.5993769185428857,0.009947507539997957,0.5523690378043922,-1.5315776823676686e-05
-0.19547407543279238,0.8877315062078734,0.6473226708722608,1.5988286552163817,0.009959761273134582,0.5519334080001688,-1.5325567621182756e-05
-0.19567765458246367,0.8871262252156535,0.6466925959101433,1.5981622676270328,0.009975353535687681,0.5514254055197023,-1.5325038846825123e-05
-0.19582716851308835,0.8866607092404033,0.6462034449918397,1.5976578011663634,0.009987841948026599,0.5510522805460178,-1.5313009432027513e-05
-0.1960460921863687,0.8860064192154073,0.6455186593482871,1.5969506949159857,0.010005017452467513,0.5505490036947007,-1.531138129085008e-05
-0.19641126762295347,0.8849185066999175,0.6443761915368915,1.595791780599729,0.010033657113119432,0.5497753614273275,-1.5318398746799744e-05
-0.1966535747814806,0.884093336992751,0.6434852614296585,1.5949395164813591,0.010056499905316763,0.5492311860945627,-1.531503261364975e-05
-0.19689481473095505,0.8833572540958432,0.6427045784140049,1.594172403319929,0.010076599814743403,0.5487588502709286,-1.5311837363363168e-05
-0.1971418878581952,0.882562811824334,0.6418514296252349,1.5933580751543115,0.010098734763573702,0.5482776569946735,-1.5308105723477183e-05
-0.1973820133849138,0.8817919602256321,0.6410218569529409,1.5925734702793113,0.010120388072420106,0.5478309571464521,-1.5304315953201808e-05
-0.1976699098794068,0.8808714659504631,0.6400295333264427,1.5916436474106979,0.010146445918914893,0.5473245283615453,-1.5299455876416346e-05
-0.19799277250555392,0.8798190845131488,0.6388878296547622,1.5905927491118117,0.010176637263715094,0.5467793003366594,-1.5292537685063223e-05
-0.19829987706151453,0.8787981695998033,0.6377742683159573,1.5895838499945159,0.010206628705470067,0.5462791334392962,-1.5329863734869775e-05
-0.1985773135354041,0.8778717733029158,0.6367585687730539,1.5886742887389147,0.010233893313181142,0.545844142528054,-1.5265895589422485e-05
-0.1988734316762697,0.8768856942216496,0.6356751440836428,1.5877120786771464,0.010262642920163323,0.5454013132718813,-1.5291235025749472e-05
-0.19918496065796365,0.8758338539418844,0.6345148767713864,1.5866938446654295,0.010294457332739704,0.544953459314625,-1.5238512082405009e-05
-0.19955712107520718,0.8745817313442403,0.6331297029094465,1.5854894969718147,0.010332142689621016,0.5444479822640904,-1.5229879908318367e-05
-0.19986879210467734,0.8734847024439789,0.6319034848741145,1.5844470303090485,0.010365568419788751,0.5440267893467166,-1.526506845106468e-05
-0.20013971722536272,0.8725467047792224,0.6308534936964163,1.5835566227643012,0.010394139446606054,0.5436774536542801,-1.5260138204631346e-05
-0.200335722782075,0.8718515406647152,0.6300712786263327,1.5829010550642622,0.010415712825635026,0.543426170673305,-1.5254915609830277e-05
-0.20064900156071275,0.8707776688013826,0.6288683990093871,1.5818884630029952,0.010449327924010987,0.5430537930204311,-1.5278421211739612e-05
-0.20093888021375417,0.8697396575573961,0.627693100656928,1.58091947311733,0.010481979320408286,0.5427086791830584,-1.5270235137698762e-05
-0.20123715858125646,0.8686841972683785,0.6264958503625557,1.5799363212130766,0.010515006713600172,0.5423691565725157,-1.5230853398051636e-05
-0.20153076720036456,0.8676274879455192,0.6252932274235707,1.5789580421061773,0.010549003590709205,0.542043629769764,-1.5253266411718869e-05
-0.20207815397592022,0.8657393962072408,0.6231488063925728,1.5772113888210404,0.010608882956478105,0.5414968253709738,-1.5207150786622492e-05
-0.20224038392567412,0.8650546460780255,0.6223458208241857,1.5765946727461877,0.010631982114544414,0.5413063962360827,-1.5164632382713705e-05
-0.20277696398137213,0.8631565888961292,0.620168916038284,1.5748580468185587,0.010693523787158377,0.5408011747012074,-1.5223490999360934e-05
-0.20305502713004397,0.8620138477450521,0.6188232685717239,1.5738348128254938,0.010731745909994928,0.5405102785577505,-1.5180627991995266e-05
-0.2034227810716578,0.8607037446670489,0.6173066608989837,1.572644307462478,0.010775575368378476,0.5401835103609915,-1.5190314075930189e-05
-0.20385428550895135,0.8596308448128394,0.6161421758767212,1.5716222274407157,0.01082381727301751,0.5399289108272374,-1.5155275888467656e-05
-0.20421433027710734,0.858588807666945,0.6149688587965265,1.5706621859173096,0.010882843395706665,0.5397146711780536,-1.5107549808490717e-05
-0.20471286347661266,0.8569888391541349,0.6131296742299446,1.5692237236647246,0.0109859018957561,0.5394359520157987,-1.5103636978430757e-05
-0.20490898335064145,0.8553753842136151,0.6110737136188717,1.567911885834297,0.01109074003259991,0.5392210919771667,-1.5141803830331924e-05
-0.2050372726929801,0.8545096523315108,0.609979892263711,1.567198148216809,0.011146835773940822,0.5391036366803101,-1.5125262884829738e-05
-0.20521455888032936,0.853300553972578,0.6084501207755251,1.566204205336022,0.011225546588717883,0.5389472186955038,-1.5137356738748053e-05
-0.20538939642868925,0.852045985924474,0.6068508791253064,1.5651781825278377,0.01130673090524148,0.5387899359263235,-1.508975633690568e-05
-0.2054887757319177,0.8512887773496445,0.6058779061262571,1.5645611764056833,0.011355665626095579,0.5386955499081116,-1.5074664421632633e-05
-0.20565398268957402,0.8500979257834773,0.6043532358774097,1.563589235487064,0.011432951242571932,0.5385534876854878,-1.5110391379913324e-05
-0.20579738107527934,0.849009494662953,0.6029483850722723,1.5627046364009463,0.01150303429215338,0.5384257910624441,-1.5068582777999495e-05
-0.20593709154003648,0.8479390174921333,0.6015645565825727,1.561836090667132,0.011572505653195897,0.5383044557592722,-1.5088160645326809e-05
-0.206059734713941,0.8469773374381271,0.600315073715505,1.5610574549444607,0.011634659319463836,0.5381969824546227,-1.5080402110179136e-05
-0.20621994869535332,0.845741523938762,0.5987063722785848,1.560056888427387,0.011714425258888106,0.5380631439306613,-1.4986998239763238e-05
-0.20643015771241213,0.8440983498199737,0.5965597176098525,1.5587304172482428,0.01181999171906778,0.5378929513744435,-1.5044599768643252e-05
-0.206628318896251,0.8424299410695193,0.594360979652528,1.5573908199349944,0.011927365713223281,0.5377270377775023,-1.5027469094874846e-05
-0.2067939112705135,0.8409914638461782,0.5924534663222945,1.5562383491196217,0.012020201681867348,0.5375873378794287,-1.4935195875587226e-05
-0.20697176962381647,0.8394458352033212,0.5903963118991467,1.5550020766361232,0.012119632542892056,0.5374412417608836,-1.4995804783701772e-05
-0.20707919188688706,0.8384190795972435,0.589016486206889,1.554184591523276,0.012185788167531797,0.5373448471236655,-1.4961840575367091e-05
-0.20721626399517667,0.8371657629400051,0.5873327598383682,1.5531854768043427,0.012267091452696555,0.5372310377931679,-1.4906266233793986e-05
-0.20731772160599782,0.836389853500596,0.5862968610041834,1.5525620310109245,0.012319561102534848,0.537162286210477,-1.4975806517547596e-05
-0.2075305524233526,0.8351610994907857,0.584683653327934,1.55155825256326,0.01240953889755847,0.5370646578971234,-1.4931935125694906e-05
-0.20773511806143752,0.8340551897722808,0.5832356376482144,1.5506548783706462,0.012501766783674206,0.5369938369779579,-1.4875416451509693e-05
-0.20796415606394714,0.8325443756613042,0.5812177238439382,1.5494462037333072,0.01263622952752197,0.5369203451137521,-1.4917072651776664e-05
-0.20798199058692113,0.8309197410137035,0.5788969856032606,1.54823669942553,0.012780413667364598,0.5368738841978935,-1.4885201145453664e-05
-0.20796126434262163,0.8301975428931989,0.5778437562912284,1.5477087609595532,0.012845051528654672,0.5368535921364819,-1.483318399042588e-05
-0.20793608757677795,0.8286426600533892,0.5755822012027867,1.5465661424805273,0.012982876040061875,0.5368120608067999,-1.4815499716824831e-05
-0.20790034011265757,0.826793585318641,0.5728777265473388,1.5452097483162763,0.013146346678323262,0.536765149943693,-1.486050444032827e-05
-0.2078487392540671,0.8248911953430094,0.5700715121993349,1.543818679964727,0.01331461055159,0.5367189338414518,-1.4839426985879811e-05
-0.20779039156384282,0.82311841826969,0.5674352149151396,1.5425249923613968,0.013471329041675695,0.5366760099190344,-1.479173798912825e-05
-0.20773515188721436,0.8217296716873088,0.56535429765459,1.5415141887638102,0.013594537731441036,0.5366420054131869,-1.4775428931024237e-05
-0.20768169332779607,0.8204431166901927,0.563418166618332,1.5405782925317935,0.013709006264212675,0.5366108183822975,-1.478704335688974e-05
-0.20759252661957728,0.8178403653924944,0.5594960801079241,1.5386793950661941,0.013938970701441455,0.53655533140663,-1.4759965349497861e-05
-0.2075239945577474,0.8169295269608208,0.5580891165856539,1.538026001964778,0.014019934252322841,0.5365331798020669,-1.4720414379887359e-05
-0.20742312709842725,0.8151411344199762,0.5553419463407119,1.5367322917224673,0.014179216924957494,0.5364935054242865,-1.4672376872582049e-05
-0.20730890795983647,0.8132331541937203,0.552390210903801,1.5353536541359176,0.014348956065339813,0.5364511708848516,-1.465498904273943e-05
-0.2072020163713839,0.8117221668103589,0.5500293865668189,1.53426641512959,0.014483769242330524,0.5364165974119954,-1.4702514525843924e-05
-0.20722439634437428,0.8095376462538413,0.546706668431221,1.5326421644358241,0.014699155737978309,0.5363916364525503,-1.4681625316370628e-05
-0.20713480844339838,0.8071891834568028,0.5430362240397564,1.5309454271523322,0.014959399033006804,0.5364115672046497,-1.4569251804985583e-05
-0.2066050608640948,0.8049013746721405,0.539163195884174,1.5294410980098956,0.015210267156224866,0.5364594391603816,-1.4564372098568867e-05
-0.20614895756760365,0.8023511844959224,0.5348969037503899,1.5277167606226572,0.015491168434509817,0.5365082436781261,-1.459900547740034e-05
-0.20578507720088268,0.8007580991860639,0.5321606361369486,1.5266614849600106,0.01566723811972537,0.5365351739736592,-1.4548681750881087e-05
-0.2053253366392278,0.7985769693053788,0.528418309175053,1.5252020388315728,0.015908781330782773,0.5365717516268962,-1.4554520292975326e-05
-0.20475454363625545,0.7960200506937225,0.5239797297896844,1.5234974861020953,0.016192275169148118,0.5366135408801229,-1.4538517092432812e-05
-0.20428468002311284,0.7940602578964189,0.5205279830151017,1.5221964315791716,0.01641096013861265,0.5366414192098414,-1.4444727101547983e-05
-0.20374628180626964,0.7918194801009646,0.5165537596550429,1.5207063259286633,0.016661526887389755,0.5366711886946733,-1.4418429782558917e-05
-0.20294559713705418,0.7885930078995358,0.5107699693855627,1.5185643859505777,0.017022409433248953,0.5367141457238089,-1.445762301877096e-05
-0.20232957832091625,0.7862628857559812,0.506520353559023,1.517023594120647,0.017291049031485706,0.5367443205035229,-1.4429369060486863e-05
-0.2019653506801644,0.7842954067440138,0.50299445668686,1.5156817353385366,0.01754887805919747,0.5367986471953117,-1.4338599995333823e-05
-0.20125978970416192,0.7822376812790388,0.49908052943235415,1.5143781886505705,0.017822634643687607,0.5368819404377474,-1.4394514644244794e-05
-0.2000303694608263,0.7791544905153085,0.49306228835176924,1.5124699995336206,0.01823098961792713,0.5370109871585811,-1.4274928728852387e-05
-0.199019470203031,0.7767895508992781,0.488351179063808,1.5110163029363388,0.01854701574516948,0.5371022519073012,-1.4245075809604657e-05
-0.19779847532614347,0.7739293324853289,0.4826028111780545,1.5092496732285037,0.018931638335473622,0.5372084935071957,-1.42888740510827e-05
-0.19645701579933217,0.7709770112435903,0.4765493739744988,1.5074378293160056,0.01933093163408639,0.5373100642749256,-1.4253053939761173e-05
-0.19546883504149726,0.7688855394330671,0.4721847065796201,1.5061559785267793,0.019616986112649393,0.5373737308825985,-1.4223394884993468e-05
-0.19448365783887667,0.7668438599183203,0.46787397669051867,1.5049041900081566,0.019898225773013145,0.5374317052039768,-1.4198523174968614e-05
-0.1935927961968611,0.7650580829318709,0.46405112056975106,1.5038116201644751,0.020145823155151454,0.5374778634070925,-1.409888910952617e-05
-0.19249983976321872,0.7629020216941136,0.45938963968254676,1.5024921620877665,0.020446536521925296,0.5375307136219156,-1.4065269599683461e-05
-0.19149569840012504,0.7609995302969779,0.45521191950770934,1.5013321799822608,0.020713996804065715,0.5375724292167208,-1.4042099561351051e-05
-0.19025616515033583,0.7586901597327316,0.4500832837716757,1.4999232056438263,0.021040701313193466,0.5376190645275063,-1.401409565904288e-05
-0.18883257476025417,0.7561373995532312,0.44431928749078686,1.498370635115882,0.02140473859734282,0.5376645397384276,-1.3983231848868627e-05
-0.18745294270110335,0.7537610099508472,0.43885527889552645,1.496929547260227,0.021747523133375246,0.5376997598002049,-1.4031147306248215e-05
-0.18599059948286722,0.7513178896602879,0.433142090566899,1.4954494354480863,0.022103367677520858,0.5377282284518401,-1.4001980930267166e-05
-0.18467646576370722,0.7492136742925126,0.42812604756995754,1.4941792279411041,0.022413494248666233,0.5377453998570338,-1.3976631874967893e-05
-0.18323635909359215,0.7469621615447579,0.42267814848765806,1.49282026197697,0.022748675279471442,0.5377576462654803,-1.3949835817150813e-05
-0.1816441385129659,0.7445616026947155,0.41676361596116696,1.4913754202334104,0.023109917582742945,0.5377636289097998,-1.3921218982027028e-05
-0.18016398103103715,0.7424181456011647,0.4113750113109296,1.4900895576758675,0.023436705070963626,0.5377606779812432,-1.389766625603528e-05
-0.1784865240976652,0.7400541830030258,0.40533032728092167,1.4886720093409052,0.023801233189828075,0.5377502485093402,-1.37898818977078e-05
-0.17723620888035363,0.7383740290840795,0.4009411913614622,1.4876699304086296,0.02406454611550135,0.5377363349210853,-1.384591088182674e-05
-0.17591607125454,0.7366313449191235,0.39632552316757774,1.486629714787874,0.02434034146274655,0.5377164326048156,-1.3828311423935702e-05
-0.1745066192640028,0.7348227747385643,0.39145890828787877,1.4855523970045237,0.02462967566686647,0.5376906220814899,-1.3806670195570803e-05
-0.17303431770683986,0.7329893352003465,0.3864406323883385,1.484462796836163,0.02492641011239094,0.5376584342605613,-1.3788428674388342e-05
-0.17137326680425513,0.7309801573081636,0.3808449934383944,1.4832706317642366,0.025255488958237926,0.5376169008082412,-1.3683622587024047e-05
-0.16988957804312577,0.7292515370067063,0.375934834454565,1.4822488643354905,0.02554314571152627,0.5375750547836118,-1.3741657221011394e-05
-0.16857629454878875,0.7277646460602742,0.37163486656910827,1.48137147767057,0.025793741851945384,0.5375327159431817,-1.3726926271218076e-05
-0.16711008027586072,0.726141488949211,0.36687149802529095,1.4804145023964033,0.026070470938629242,0.5374821032573545,-1.3709788439619786e-05
-0.16561227845523785,0.7245325056495178,0.3620645948010006,1.4794680835333986,0.026348241210637724,0.5374261352786567,-1.36087096160864e-05
-0.16391348979987175,0.722754780001047,0.3566655734380495,1.4784244399030193,0.026659484250335375,0.537359293569863,-1.3666973905479551e-05
-0.16252610810785395,0.7213561818854313,0.35232613565179793,1.4776064277037442,0.026908184323246154,0.5373000292141672,-1.3650806860887599e-05
-0.16076420202461073,0.7196144940287583,0.3468402556301111,1.476587874318704,0.027221649515448476,0.5372209284047997,-1.36311845846393e-05
-0.15837431665817547,0.7173255744575737,0.3394784400780324,1.4752524317924962,0.027639661959085515,0.5371079342739016,-1.3532974325158875e-05
-0.15642465580865395,0.7155554472693266,0.33361516615677367,1.4742266199561014,0.02797081865672091,0.5370103819794751,-1.3581764557457632e-05
-0.15422365460682386,0.713608252558628,0.3270253497528035,1.47309764811674,0.028341690467136083,0.5368927420632383,-1.3559816853359052e-05
-0.15296500463044715,0.7121374447069302,0.32219245628667625,1.4721649030704702,0.02863241281137885,0.5367810028149602,-1.3562215276152756e-05
-0.15165139897258406,0.7107044647193348,0.31735774232483926,1.4712664752431177,0.028920049539503445,0.5366654160356141,-1.3457604375766152e-05
-0.15019271578771498,0.7091431929644907,0.3119936373154779,1.4702877269388344,0.029239037745502294,0.5365310154123355,-1.3443199947005269e-05
-0.14890024522178447,0.707813353589076,0.3073143022199716,1.4694575595171466,0.029516259842327308,0.5364076525504178,-1.342871280662905e-05
-0.14782116851650606,0.706549194549245,0.30288813410043325,1.4686369389051857,0.029827987775627562,0.536265342762503,-1.3484857267265227e-05
-0.14689949150230497,0.7050918618918844,0.2978755386008798,1.4676724232723242,0.030343792102267564,0.5362144465841929,-1.3402004610973961e-05
-0.1445218831799986,0.7033578223429657,0.2910446798457045,1.466763813397992,0.031018623501825715,0.5363269501869361,-1.3470201709608887e-05
-0.13898819933773865,0.700559388091123,0.2788026584870238,1.465536117963251,0.03204613590546046,0.5365360635841379,-1.3407676992649442e-05
-0.13499857977626561,0.698507008816402,0.2695436888154701,1.4645971303286442,0.0328514054391178,0.5366909777975115,-1.3316215642156237e-05
-0.13350682086887833,0.6978084981891204,0.26622772770713965,1.464287560920834,0.03313225393217145,0.5367412748221403,-1.3309669106398303e-05
-0.13123507659860856,0.6967478357670593,0.2611384908136154,1.46381415915023,0.033565201047900395,0.5368178097173448,-1.3295609332608649e-05
-0.1275202524618173,0.695036857103684,0.25277421437312775,1.4630466509287396,0.03427798417857808,0.5369415499405683,-1.3343835309598262e-05
-0.12409220693556389,0.693527089015884,0.24510578538045458,1.4623722709151084,0.03492813192622535,0.5370475994231265,-1.3345752297055924e-05
-0.12098546378857211,0.6922088493169332,0.23817399545107776,1.4617837763590202,0.03551474272963162,0.5371382958474609,-1.3236432108598706e-05
-0.11853959484213306,0.6912070606849632,0.23273583809566567,1.461337569229845,0.03597432342675777,0.5372058985520107,-1.3222938343382395e-05
-0.11534121736107839,0.6899285522701817,0.22562439631957787,1.4607678429960558,0.03657492045865052,0.537291518724822,-1.327678932305787e-05
-0.11190926830126813,0.6886099883550933,0.21802232336487748,1.4601821970126903,0.037214415846708704,0.5373768135541246,-1.3283444060263605e-05
-0.10893530625795922,0.6875155510340667,0.21146109575884608,1.4596974053375105,0.03776484682343906,0.5374453241254198,-1.3174138009830472e-05
-0.10602086764829277,0.6864788474074874,0.20504183124272668,1.4592389547159854,0.03830324993387446,0.5375091787161281,-1.3230812054843e-05
-0.10316266441202604,0.6854996026309301,0.1987601415501974,1.4588071585216706,0.038828820366900274,0.537566874207867,-1.3242277732139485e-05
-0.10008241334720758,0.6844822505105119,0.19200227384719692,1.458359241097848,0.03939315474492844,0.5376248448737897,-1.3133682543298164e-05
-0.0976871720989676,0.6837227443509963,0.18676630932912897,1.4580262249136036,0.03983007771122704,0.5376669400379868,-1.3194096402102673e-05
-0.09493642488382648,0.6828778347919569,0.1807544184147778,1.4576564980081876,0.04033093486918382,0.5377113913964653,-1.3208861330937793e-05
-0.09181970570202136,0.6819566004974336,0.17395401980806646,1.4572542468572909,0.04089637050169248,0.5377577210368729,-1.309831663043326e-05
-0.08861436662296018,0.681049901325629,0.16697814634103292,1.4568602744317847,0.04147566544260162,0.5378011349509686,-1.3185258237236042e-05
-0.08560866961739588,0.6802401319182838,0.1604521790099307,1.456509945449353,0.04201654068930338,0.5378369374433598,-1.3174630266732379e-05
-0.08052159336482045,0.6789260594003466,0.14939424799705847,1.455942475028417,0.04293168528879043,0.5378913984397142,-1.3129203566997205e-05
-0.07592909858895336,0.677843093933979,0.13949540963786689,1.4554813548837027,0.04374580791931848,0.5379277877620163,-1.30439330057186e-05
-0.07026834244000302,0.6765994885274766,0.12726081443911674,1.4549542763941128,0.04475377380150647,0.537962861203173,-1.3097854034249679e-05
-0.06503368202486826,0.6755737378011437,0.11603376662618903,1.4545276317643845,0.04567332871160268,0.537979710536681,-1.2979668340129535e-05
-0.06092147558097416,0.6748460942112171,0.10720703412278443,1.4542289298004656,0.04639801526359477,0.5379838555799621,-1.297203354866383e-05
-0.055767652247107335,0.6740131089708994,0.09615066327428412,1.4538920481430866,0.047304592351205876,0.5379795542472028,-1.296389888416627e-05
-0.05057347357272057,0.6732750986244902,0.08504902407489023,1.4536013842615478,0.04821289126375383,0.5379634985421671,-1.302640735456606e-05
-0.04730273531445839,0.6728741144730783,0.07807437452535204,1.4534488608336416,0.04878359552807776,0.5379453874303861,-1.3022192653089348e-05
-0.04418782089000661,0.6725287353793945,0.07142643125901227,1.4533209337613924,0.04932813415097126,0.5379236646527756,-1.3018965374200775e-05
-0.039737975038312,0.6720852976882208,0.06192165065472377,1.4531622106511994,0.0501062792651501,0.5378862164390998,-1.3057879963085384e-05
-0.03474067726090624,0.6716690954953553,0.051272901295619455,1.4530230831658484,0.05097648194816262,0.5378345102693816,-1.300948813653946e-05
-0.030108281190899255,0.6713672667692991,0.041413556135090346,1.452934480622993,0.05178215270237185,0.5377763525175858,-1.3005436385604696e-05
-0.025999406196154595,0.671168718834954,0.032672108628016616,1.4528889348218712,0.052496782300087474,0.5377161874847829,-1.294662246653644e-05
-0.022265278903168095,0.6710427492531812,0.02472986028553592,1.4528739164419875,0.05314665359015791,0.5376549955519634,-1.2945902512662144e-05
-0.0180120311416907,0.6709552411906445,0.015678563112731858,1.4528838222302713,0.05388791833452178,0.5375788291669403,-1.3013955126872645e-05
-0.013902607959069613,0.6709350758610322,0.006940251016104959,1.4529243723213678,0.054603008893306715,0.537496525384836,-1.2946980430861288e-05
-0.00875650702341435,0.6709837275240895,-0.004015596663192511,1.4530109909720919,0.05550092688893926,0.5373852883483217,-1.3017318875263584e-05
-0.00404663163812824,0.6711158957430179,-0.01402758441331553,1.4531325154186208,0.05632110996979112,0.5372722492863229,-1.3056984528247995e-05
0.001385648813939433,0.6713613270475971,-0.025601473725423318,1.4533176457222794,0.05727106568320828,0.5371304280839997,-1.2951665562255243e-05
0.007121682459458434,0.6717315862812274,-0.03781525682726272,1.4535667684569153,0.05827414559145705,0.5369674630941699,-1.2957612924857642e-05
0.012610536272536166,0.6722002802064138,-0.04952072489443715,1.4538607519067916,0.0592379221936028,0.5367976605374558,-1.2964607982723919e-05
0.01690231070711068,0.672652041940653,-0.05867545475810676,1.4541317337196125,0.05999333426788844,0.5366547805633664,-1.2970742211848574e-05
0.021904735348141635,0.6732578931803319,-0.0693754365120105,1.4544866668278047,0.06087891155666725,0.536479001191899,-1.3044711251630758e-05
0.02550609365492118,0.6737601613235524,-0.07707517434393374,1.4547739519291056,0.0615169559542883,0.5363441915822351,-1.3098524758170527e-05
0.02872099466839284,0.674252934157936,-0.08396468108415878,1.455051947960146,0.0620894095110085,0.536218581415949,-1.299151034839241e-05
0.03214394550858923,0.6748174891998975,-0.09130999863011713,1.4553676299432023,0.06270137673298848,0.5360807811604404,-1.3064452613065214e-05
0.03504846346918544,0.6753354552047588,-0.09754916056874574,1.4556543153696193,0.06322163667628455,0.5359584859967219,-1.301544923393294e-05
0.03772582315866391,0.6758418280032146,-0.10330788811921021,1.4559327194601162,0.06370303219754625,0.5358427683182097,-1.3021943033209027e-05
0.040466652433669204,0.6763884737235415,-0.10921112064186111,1.4562315374784998,0.06419742616931412,0.5357210450042267,-1.3022501636150707e-05
0.04406026253523887,0.6771431760992819,-0.11696505547442637,1.4566422302269038,0.06484808247842899,0.5355570757218304,-1.3105619397713042e-05
0.04757023196564436,0.677929568458068,-0.12454830613182644,1.4570668131847633,0.06548568522812648,0.5353913581385408,-1.3045858964666479e-05
0.05099208295955293,0.6787438181564589,-0.13195574217909645,1.4575042033074705,0.06611003646661295,0.5352240745215902,-1.3069724882797118e-05
0.05659201176935813,0.6801562250081465,-0.14411712812370858,1.4582597700976496,0.06713726013743493,0.5349402996875581,-1.3025001345923215e-05
0.06188216174273364,0.6816067149364313,-0.1556257188080421,1.4590291982964274,0.06811298798121701,0.5346597683267929,-1.3039824721339244e-05
0.0675297788675362,0.6832823527880887,-0.16797413661311555,1.4599139603990645,0.06916576933871621,0.534345877492509,-1.305718649646792e-05
0.0735512540727532,0.6852093908897103,-0.18117998329854323,1.4609251332463984,0.0702968357576248,0.5339962902638797,-1.3130390145832394e-05
0.07853856123148972,0.6869375368147095,-0.19217483167385652,1.4618276753263961,0.07124465333128693,0.5336921355780424,-1.3148316818423211e-05
0.08206049266942017,0.6882341794008893,-0.19996382383991307,1.4625018127547165,0.07191951508882344,0.5334694365103445,-1.316167986153971e-05
0.08528475493875032,0.6894732302629238,-0.20711919743203389,1.46314461752461,0.07254209935421496,0.5332600813759552,-1.3174461679810179e-05
0.08968600468655819,0.691231088797351,-0.21691992826763862,1.4640551167474332,0.07339779799020185,0.53296695241308,-1.325982723798802e-05
0.09312143992248334,0.6926731196234721,-0.22459824502577597,1.4647995826939466,0.0740716963902246,0.5327312709030858,-1.327522893213029e-05
0.09665895026483273,0.6942166459319026,-0.23253357631999094,1.4655949933625747,0.07477115774927778,0.5324826087405867,-1.329177442777052e-05
0.09977669245894649,0.6956313771712832,-0.23955230786446435,1.466322330355288,0.07539237737027449,0.532257808441333,-1.3186771149698018e-05
0.10319179150730218,0.6972334132147004,-0.24726710524638484,1.467144941510501,0.07607823857287155,0.5320066268196912,-1.3203802962102884e-05
0.10606569265672317,0.6986311174506659,-0.2537834636102225,1.4678613536274785,0.07666025580221802,0.531790465209923,-1.3218645327661704e-05
0.10967746561159952,0.7004409677358288,-0.26200150260707833,1.4687880676060914,0.0773973776805823,0.531513845650804,-1.3358907415828014e-05
0.11400381677563232,0.7026931528851303,-0.2718915344811288,1.4699393307518092,0.07828884981660167,0.5311741116701558,-1.3383595334204301e-05
0.11845976974015393,0.7051176838818609,-0.28213528208841776,1.4711763305099739,0.07921837602729287,0.5308146551478794,-1.334046833711966e-05
0.1223669392508775,0.7073405126434062,-0.2911697547293848,1.4723084097221522,0.08004381625562296,0.530490499518053,-1.3364497726264801e-05
0.1268900474791952,0.7100147870152229,-0.30168407017287446,1.4736681688530062,0.08101041956682131,0.5301062411627644,-1.3393665011740552e-05
0.13062881639137292,0.7123266400563919,-0.31043572331692193,1.4748421282997723,0.08182132376179574,0.5297795662542404,-1.3489824453039034e-05
0.1333273922000071,0.7140548986428001,-0.3167832924837253,1.4757178860340598,0.08241311074934465,0.5295390034653646,-1.350883457718055e-05
0.13687316996846288,0.7163854622585344,-0.3251571712711163,1.4768972693972513,0.08319723653801958,0.5292177261828819,-1.341220162931478e-05
0.13956632976813577,0.718217403859442,-0.33155738397364054,1.4778236879713669,0.08380090682247943,0.5289688232978484,-1.3432328424656248e-05
0.14195158692072063,0.7198804742716733,-0.33724753859545853,1.4786635021355385,0.0843401098929224,0.5287452178154686,-1.3450540336634731e-05
0.14527240696322696,0.7222471402666351,-0.3451998298939474,1.47985747252027,0.08509742049856062,0.5284304580884527,-1.3526868111846113e-05
0.1485992917266188,0.7246970197591649,-0.3532197352613142,1.4810926275400993,0.08586635138299936,0.5281085160345471,-1.3553825215062432e-05
0.14980272175542186,0.725611386641198,-0.35613841286008885,1.4815530874117622,0.08614805076423071,0.5279899373312515,-1.356380675598956e-05
0.1545468791452702,0.7292503907685104,-0.36765457018325964,1.483383396731778,0.08726179979279891,0.5275203603125229,-1.3677927876543094e-05
0.1563628529468719,0.7313171957945226,-0.3734873268784602,1.4845783633644851,0.08792175537575364,0.5272644346369226,-1.3700723649812119e-05
0.15712310246317163,0.7329607058063727,-0.3776301765522394,1.4856655734128914,0.08847704988205951,0.5270664540314325,-1.3718486429503685e-05
0.1583531134731304,0.7350137232259994,-0.38292265972903117,1.486961637069399,0.08914742231258366,0.5268165829152425,-1.36670616788237e-05
0.15944790898643735,0.7370564320416166,-0.3880353473838172,1.488274614601516,0.089812826839478,0.5265684477994945,-1.368922702926767e-05
0.16093370537741603,0.7398084116941712,-0.3948391211563438,1.490035776491193,0.09069784114988089,0.5262339578082935,-1.3719223793451363e-05
0.1620491627969569,0.742036333658473,-0.40019743420777143,1.4914751803394477,0.09140773683207915,0.5259633733367961,-1.3817325507758937e-05
0.16296970317368586,0.7438914415344424,-0.40459421267614193,1.4926716554606871,0.09199222708966825,0.5257382918269355,-1.3837508169523005e-05
0.16390965051178608,0.7458633293131554,-0.40919269961145766,1.49394898520067,0.0926100026516723,0.5254995271294955,-1.3858911339426072e-05
0.16500203840184824,0.748214756390503,-0.4145965973746133,1.495474731394781,0.09334162025983073,0.5252154776427886,-1.388451489692244e-05
0.16592541771553293,0.7502852585235615,-0.41926721363812636,1.4968226464171126,0.09398068220196798,0.5249658026681816,-1.3782331125256064e-05
0.16678093019026452,0.7522547601498486,-0.42364866984570426,1.4981074761861244,0.09458555380791367,0.5247295991087277,-1.3860150112954273e-05
0.167836185353611,0.7547553800558777,-0.4291325257398153,1.4997419332193616,0.09534902914294019,0.5244303212685413,-1.3872272468518076e-05
0.168777878345578,0.7570811761093728,-0.43414123043959574,1.5012669987837528,0.0960542182762456,0.5241526787755859,-1.3860855220926283e-05
0.16963695276616697,0.7592669517574553,-0.43877883186553746,1.5027029026863392,0.09671364571156005,0.5238933405928821,-1.388443327865474e-05
0.17035565756057292,0.7611573409987571,-0.4427331855499901,1.5039480650319659,0.09728173073692048,0.5236702962371194,-1.4024142914514925e-05
0.17108775719472824,0.763130139035435,-0.44681028129423783,1.5052489009019725,0.09787188691855508,0.5234383030254666,-1.404569642371456e-05
0.1717728997920931,0.7650315932565412,-0.4506910523079828,1.5065052140580972,0.0984387890395606,0.5232158004734755,-1.406630306988177e-05
0.17228073158843404,0.7664806497762902,-0.4536139641782775,1.5074643227997706,0.09886930303855213,0.5230469381269875,-1.4081938254584259e-05
0.17284703357239728,0.7681229294718994,-0.4568993913771706,1.5085519323265455,0.09935628013815023,0.5228565971780252,-1.401398127409692e-05
0.17394978723033994,0.771367239307188,-0.46333281646678603,1.5107018033187662,0.10031777001792541,0.5224834394472238,-1.4134775972785008e-05
0.17483035191931418,0.7741523906714702,-0.4687358760299425,1.5125584904221308,0.10114110249673569,0.5221662591160179,-1.4044416195346798e-05
0.17541918940687218,0.7760324264123319,-0.47233964886084934,1.5138102461577008,0.10169435438597407,0.5219540639461115,-1.4185269186839378e-05
0.17586936202357073,0.7775293659136038,-0.4751732554622219,1.5148095669805732,0.10213369542671114,0.5217856584133225,-1.407999751368294e-05
0.17661480703465315,0.7800215885730477,-0.4798621818358644,1.516472855660398,0.10286592526660598,0.5215082528814987,-1.4106918703404858e-05
0.17713616668609422,0.7818590317663476,-0.4832687990628175,1.5177045348414318,0.10340589117814147,0.5213058360993514,-1.424803059890678e-05
0.17779639699649952,0.7841964324876916,-0.48756860237876243,1.51926912398336,0.10409167196932145,0.5210504350490899,-1.427321001834514e-05
0.17859620756936057,0.7871372318126442,-0.4929101901981747,1.5212422342711447,0.10495557421475787,0.520733196205069,-1.4130970205528115e-05
0.1791599155781789,0.7893103519310936,-0.49679958028360627,1.5227047726059268,0.10559460203846349,0.5205023503417605,-1.4186549545769367e-05
0.1796168253374697,0.7911034036925626,-0.4999778281112768,1.5239115536694525,0.10612097526908659,0.5203132103781325,-1.4293670366427591e-05
0.180043080356187,0.7928170569692714,-0.5029896273833883,1.5250661096614166,0.10662455703710716,0.5201343986245224,-1.4311369858965861e-05
0.1804035009636582,0.7943008025758633,-0.5055753823624549,1.5260665459234248,0.10706042889276457,0.5199806942876677,-1.4205510140641309e-05
0.18084114569486243,0.7961210531081155,-0.5087311038488451,1.527294495415978,0.10759707739602309,0.519794984968418,-1.4258164986458155e-05
0.18123799262447005,0.7978230650081919,-0.5116549960364374,1.528444723062944,0.10809926072810505,0.5196227330181795,-1.4364480259487777e-05
0.18163567996966812,0.7995593858235335,-0.5146154550403352,1.5296182574806698,0.10861205379532368,0.519448932694667,-1.426125141978929e-05
0.18195484836482745,0.8009886175303018,-0.5170352965652345,1.5305859546436453,0.10903573731316119,0.5193081366267824,-1.430922069012297e-05
0.18222703772273086,0.8022281443070431,-0.5191205433810637,1.5314256678975706,0.10940312810869557,0.5191866081149366,-1.4410881381543561e-05
0.18257813489254193,0.8038392246893826,-0.5218174164159572,1.5325164419082826,0.10988141566881637,0.5190303954521793,-1.430643112509955e-05
0.18291915773816747,0.8054422448042642,-0.5244839334594458,1.5336037172702186,0.11035967365736443,0.5188777762679804,-1.4349668010282812e-05
0.1832523727978499,0.8070401966190719,-0.5271237499695083,1.5346883613550535,0.11083715552181861,0.5187270939169988,-1.4458282401541567e-05
0.1835624512358658,0.8085589515302356,-0.5296151643176392,1.5357197017688016,0.11129183805420517,0.5185856533825834,-1.4355812909983001e-05
0.18374328874727297,0.809950906947237,-0.5318229869758682,1.5366988840054194,0.11171982886086518,0.5184601778181408,-1.4397333264248857e-05
0.183896612883375,0.8114285073394178,-0.534130733674453,1.537750585491052,0.11217841712048049,0.5183288300577891,-1.4504667835701923e-05
0.18405338388581693,0.8129693141865557,-0.5365242219851822,1.5388477022604725,0.11265852193756842,0.5181941085707695,-1.4519715919369958e-05
0.18420009799491233,0.814467810567832,-0.5388364599717548,1.5399157706834137,0.11312701354304444,0.518064878712015,-1.4416698424390972e-05
0.1843526607603545,0.8160603362980403,-0.5412825977708904,1.5410521845863583,0.11362824718919473,0.5179307738644363,-1.446076793332196e-05
0.18449473779001746,0.8176093133167024,-0.5436458412306155,1.542159100058342,0.11411769044431797,0.5178021750445527,-1.4567823316546935e-05
0.1846190110953012,0.8190127281371407,-0.5457744157797437,1.5431629728395713,0.11456325262198686,0.5176878869539037,-1.4582030126497614e-05
0.18474909614471002,0.8205107725765677,-0.5480347127823899,1.5442347436116588,0.11504077061438256,0.517567959901065,-1.4478738139089842e-05
0.18488581474373778,0.822131658305965,-0.5504692442577577,1.5453961090276644,0.11556163187563762,0.517441977581921,-1.4523377544151117e-05
0.1850008942803445,0.8235739753374167,-0.552620784112932,1.5464313447493412,0.11602733683509481,0.5173318270919012,-1.4628789782200613e-05
0.1851104328626274,0.8249739639152791,-0.5546993439222563,1.547436557091335,0.11648186510190062,0.51722743172928,-1.4643078614540173e-05
0.1852185515149669,0.8263979702267683,-0.5568023523186145,1.5484595956018161,0.11694650586296085,0.5171234858231388,-1.4538776121675312e-05
0.1853411269476446,0.8280384930111051,-0.5592163663497534,1.5496394078436886,0.11748670765413483,0.5170080751293948,-1.4583978723337054e-05
0.18544038693893938,0.8294700017297414,-0.5613079020447884,1.550671275224965,0.11796106124217509,0.516909765691957,-1.4688898350101454e-05
0.18554045794708696,0.8309239488529592,-0.5634226498721713,1.5517189549758017,0.11844558835210783,0.5168127065137291,-1.4585203978789707e-05
0.18563357338855013,0.8323317889652015,-0.5654618017488522,1.5527352296631127,0.11891924728843595,0.5167225444148729,-1.462821241471346e-05
0.18564641159258954,0.8335701584313275,-0.5672031312208299,1.5536542890329166,0.11934609484637182,0.5166473581801965,-1.4640169008650616e-05
0.18560015324598567,0.8349228233065684,-0.5690596167949975,1.554680919904766,0.11982307746158671,0.5165700123877146,-1.4743393126792625e-05
0.18555783307561935,0.8362359498031484,-0.5708559884407789,1.5556765312858296,0.12028898017154255,0.516497586763264,-1.4637498597203091e-05
0.1855107750280034,0.8376223839989532,-0.5727462858374652,1.5567298761284807,0.12078646322298692,0.5164253165223451,-1.477131296390155e-05
0.1854764502377213,0.8385003306127263,-0.5739353991918632,1.5573983875261979,0.1211035379184624,0.5163811109220662,-1.4688835568321679e-05
0.1854452234206132,0.839316011912711,-0.5750373212313953,1.5580192966682525,0.12139896630625202,0.5163406263867234,-1.4664024493349359e-05
0.18541828294042428,0.8400098061995358,-0.5759738744007477,1.5585481555989533,0.12165255648000262,0.5163080896506171,-1.4704551174027358e-05
0.18538802625097794,0.840787305796832,-0.5770197354136197,1.5591405295976637,0.12193705595190707,0.5162717680103484,-1.4682656503950398e-05
0.1853573478165389,0.8415588826006495,-0.5780559370028584,1.5597290875876864,0.12222162008105286,0.5162374831603831,-1.4689289675295925e-05
0.1853243783025169,0.8423810521781228,-0.5791585126785215,1.5603568324397106,0.12252731221243263,0.5162029129473602,-1.4727166814054726e-05
0.18527254394196735,0.8437567885967283,-0.5810002251526152,1.561406396493629,0.1230428354353057,0.5161482183195307,-1.4740608169638847e-05
0.18521331834926436,0.8450841725018758,-0.5827649703054618,1.5624233175362257,0.12354679913397337,0.5160999728470888,-1.4753479964824123e-05
0.1851526611445875,0.8464778486725058,-0.5846117977027063,1.5634910520841405,0.12408131071316753,0.5160535032080711,-1.4736581798402426e-05
0.18510135556352392,0.847528684727167,-0.5859973437941379,1.5642992920126524,0.12448980006856658,0.5160223657483876,-1.4866832833249077e-05
0.1850120944916922,0.8501200684779873,-0.5894255830500779,1.566280763932867,0.12551433289129132,0.5159607406359168,-1.4772745797309028e-05
0.18493030176017644,0.8510888938439525,-0.5906688428609419,1.5670413838585366,0.12590934004193954,0.5159439946746902,-1.4811300527384219e-05
0.18488213879998128,0.8520643619201147,-0.5919393039011887,1.5677940750712809,0.12630502316178482,0.5159275540045298,-1.490859458730398e-05
0.18483911400508646,0.8528772018485595,-0.5929926886083106,1.5684223925618515,0.12663761856901345,0.5159159737268393,-1.4796735427147212e-05
0.1847874386577928,0.8539052743657738,-0.5943259505151852,1.569217439979151,0.12706389769704085,0.5159057361818418,-1.4837259643130096e-05
0.1847352942042102,0.8548703210705568,-0.5955712972215004,1.5699657344389193,0.1274683730339854,0.5158989956816189,-1.4934563866475514e-05
0.184685930265597,0.8557754974891818,-0.5967354952719459,1.570667953576029,0.1278514803741322,0.5158955611443634,-1.4823352970871895e-05
0.1846380618390686,0.8566441245393417,-0.5978515568213219,1.571343319031567,0.1282241839579008,0.5158959705869188,-1.4951651174932579e-05
0.18454260029114344,0.8575516151789735,-0.5989834745566505,1.5720675253053766,0.1286249857323778,0.5159020803965406,-1.4839686806489283e-05
0.18442385815232587,0.8583129368698108,-0.5999069713478553,1.5726921715006856,0.12897281292770657,0.5159133589885245,-1.487775039077377e-05
0.1842905717914043,0.8591993935232587,-0.6009825157798936,1.5734182407391915,0.12938130063952435,0.5159290666832401,-1.4973745196655841e-05
0.18415488236368738,0.860093788430067,-0.6020643220572541,1.5741521882589167,0.1297995345440972,0.5159493908635007,-1.489321326708648e-05
0.18401731874018612,0.8609963113224142,-0.6031522929837045,1.5748940593516796,0.1302269748977274,0.5159735201970772,-1.4869275686280048e-05
0.18377714317704985,0.862670857681473,-0.6051769261934297,1.5762689041609992,0.13104033791926462,0.5160339839294412,-1.4883473408389136e-05
0.18353635386326417,0.8640963382250559,-0.6068698755649491,1.5774582786293196,0.1317590741100494,0.5161021848668899,-1.4927376826179284e-05
0.18336789695887123,0.8652666399717344,-0.6082734561863052,1.5784247705468495,0.1323559000328034,0.5161644293985708,-1.502470874736872e-05
0.18324697599816542,0.8659801638084765,-0.6091139230981168,1.579022408223306,0.13272864724679767,0.516207642841982,-1.4910657146316453e-05
0.18313157801180058,0.8667232569217669,-0.6099961116914328,1.5796420922107917,0.13312193404764727,0.5162569693701631,-1.4949052605572888e-05
0.1830140732569978,0.8674730375294937,-0.6108822591735272,1.5802684928277229,0.1335240672260376,0.5163102643725095,-1.4922621858204366e-05
0.18288296582494734,0.8683164610523377,-0.611879341840301,1.5809748797263161,0.13398640036222087,0.516377593545629,-1.4961999337259613e-05
0.18272487377212432,0.8693357719679353,-0.613080836234305,1.5818307478786497,0.1345576727109714,0.5164677262220199,-1.5057128171847012e-05
0.18255444472274718,0.8704108517634044,-0.6143412052712831,1.58273773645202,0.13517728193877332,0.5165748628907743,-1.4945276215705405e-05
0.18243723840345627,0.8711198319495912,-0.6151681948269916,1.5833400257446062,0.1355964143234205,0.5166527436665644,-1.4983371737109508e-05
0.18234345145913178,0.8717027981408254,-0.6158472696760882,1.5838346861583021,0.13594473274641938,0.5167193621974109,-1.4955319707965486e-05
0.1822519605314703,0.8722748201031498,-0.6165135879446382,1.5843211788404599,0.13629285674755387,0.5167893680880669,-1.4958868640668754e-05
0.1821527067901494,0.8728989876019462,-0.617240573719755,1.5848534849026183,0.1366803908844414,0.5168712598875853,-1.50841817481151e-05
0.1820453879352213,0.873572199295019,-0.6180222030730427,1.5854290242418694,0.1371066774664218,0.516965500101584,-1.5088201137380963e-05
0.18195523004056735,0.8741233430909059,-0.6186593395542426,1.5859023772990808,0.13746295943017284,0.5170477891967185,-1.5005593860806243e-05
0.18185689977841069,0.8747382848100296,-0.6193705691644134,1.5864312702430734,0.13786796392042078,0.5171448714155407,-1.5096597105745957e-05
0.1817659878400546,0.8752955840333092,-0.6200119529423143,1.5869123663252394,0.13824247830934855,0.5172381597231475,-1.4979592245722984e-05
0.18169716145095727,0.8757117848334897,-0.6204908773243343,1.5872735002503955,0.13852828963111374,0.5173122032091602,-1.5015733034751122e-05
0.18160535870695327,0.8762895196478064,-0.6211561571968103,1.5877744308811934,0.13893138728380983,0.5174195488068607,-1.5106237261974798e-05
0.18152143753288286,0.8767982600291555,-0.6217380819483438,1.5882179250659068,0.13929425851846844,0.5175196169237024,-1.4989055703296117e-05
0.18143269098022863,0.8773474092528453,-0.6223678917029698,1.5886982575576525,0.13969624181057583,0.5176351846234297,-1.5025970966142665e-05
0.18134857103895907,0.8778569252261734,-0.6229493300435296,1.589146183101775,0.14007748622536376,0.517748019001651,-1.511577221613436e-05
0.18125429894941902,0.8784415557114125,-0.6236166474113851,1.5896613028024822,0.14052645844996903,0.517885990202199,-1.5119037725774831e-05
0.18115879187478257,0.8790201688079264,-0.6242734272640975,1.5901742462297417,0.14098389263634026,0.5180317659686837,-1.5001711868301015e-05
0.1810751364616774,0.8795206028811018,-0.624840942827884,1.590621065941682,0.1413922423783367,0.5181669477698767,-1.5038253125432277e-05
0.18099110440378574,0.8800306596663168,-0.625418302693248,1.5910779211641284,0.14181882829803438,0.5183120434558903,-1.5127346165044742e-05
0.1809056804783289,0.8805464198182191,-0.6260005089643856,1.5915425691013398,0.1422639078214356,0.5184686601623207,-1.5129765421839636e-05
0.18083839622309483,0.8809388394863173,-0.6264403244859791,1.591898433854987,0.14261123812873233,0.518593886461808,-1.5010949145910502e-05
0.18074280966397183,0.8815486134638855,-0.6271292536068875,1.5924518349028878,0.14317025520382476,0.5188029201336803,-1.5013451876377815e-05
0.18057237700526585,0.8820442176258751,-0.6276255333085281,1.5929511258885851,0.14368572871437557,0.5190109062146959,-1.504912720928786e-05
0.18047185971150181,0.882483973106444,-0.6280983005599579,1.5933718832618737,0.14413500724593842,0.5191925850517682,-1.5050419411188898e-05
0.1803414791433111,0.8829563347240139,-0.6285893734013648,1.5938390033867167,0.14464905800739292,0.5194088568522837,-1.5051585910974552e-05
0.1802222047046449,0.8834106165423536,-0.629064237785582,1.594289419163851,0.14516194616285727,0.5196303291370095,-1.513885549897509e-05
0.18011083006774076,0.8838193799201202,-0.6294865717511833,1.5947001326862367,0.1456448201632874,0.5198447131335788,-1.5018668473310015e-05
0.1800190979075662,0.8841578418586513,-0.629836119889549,1.595043283170713,0.1460606484925826,0.520033662595524,-1.5018959571122537e-05
0.1799195927157511,0.8845324596590158,-0.6302237210572397,1.5954264331398873,0.14654190682369528,0.5202580606089615,-1.5053655159746882e-05
0.1798322736144975,0.8848478127170063,-0.6305458529530217,1.5957537894585556,0.14696513554395185,0.5204596005352782,-1.5053642248297194e-05
0.179747227340874,0.8851634963129671,-0.6308687480769866,1.5960838753027211,0.14740627211995427,0.5206740053793091,-1.5053442984580556e-05
0.17966619852301324,0.8854575716384838,-0.6311671606687517,1.59639598681144,0.14783687100328535,0.5208876040174815,-1.5139265587826856e-05
0.17956243272917494,0.8858544704426983,-0.6315714247833117,1.5968215853767802,0.14845338883458847,0.5212017882628261,-1.513837171351895e-05
0.17947690484699752,0.8861393419903321,-0.631851713241498,1.5971374705658237,0.14892770057199645,0.5214493923921513,-1.501637960821256e-05
0.17942143388669773,0.8863390916043956,-0.6320510646209794,1.5973594058724325,0.14927134082961047,0.5216311916824301,-1.501554041105635e-05
0.17933199159531377,0.8866872313555145,-0.6324009186556321,1.5977510479443353,0.14991092001368234,0.5219777951065812,-1.5013717921341652e-05
0.17931211403430858,0.8867432481399167,-0.6324539579000614,1.597818104959047,0.1500218650616869,0.52203895414707,-1.5134466630151167e-05
0.17919619457102964,0.8871868314067539,-0.6328911363334786,1.598340102255456,0.15095342511461052,0.5225644250255499,-1.5009818965516786e-05
0.17910665855157948,0.8874216168245317,-0.6331011823568033,1.5986427971515589,0.15152201867050863,0.5228950981936578,-1.5042393392228348e-05
0.17905949091476003,0.8876223967962735,-0.6332993962377049,1.5988893331473486,0.15200737446057477,0.5231789129646653,-1.512624140254104e-05
0.179015034990619,0.8877512728298527,-0.633415475735223,1.5990601189496658,0.15235400129355536,0.5233854904653743,-1.5124470950311775e-05
0.17896872008442166,0.8879134122319057,-0.6335667520242563,1.5992747468385948,0.15280950475057065,0.5236599936951674,-1.5122060712968732e-05
0.1789252839417541,0.8880508234111435,-0.6336897716690411,1.5994642195713906,0.1532271556443705,0.5239151461536071,-1.4998329570303781e-05
0.1788784159116803,0.8882088454537342,-0.6338324998560507,1.5996901178511802,0.15375304612608964,0.524241612028586,-1.5116893607114434e-05
0.17883661482053181,0.8883316422366345,-0.6339370231756165,1.5998759010903418,0.1542048155739888,0.5245261287495797,-1.502749184911778e-05
0.17881292580864283,0.888401513975202,-0.6339958807614074,1.5999842000822087,0.15447521134518105,0.5246975766702544,-1.5025705938143119e-05
0.1787785491843934,0.8885136016392474,-0.6340908661438949,1.6001630233148294,0.15494321239570752,0.5249975525513921,-1.5022498318195687e-05
0.17873717796370236,0.8886335573083235,-0.6341857045757537,1.6003705174962999,0.15551737599687687,0.52537108326817,-1.5104463999549012e-05
0.17870002505057858,0.8887346199894042,-0.6342604150062305,1.6005597390155168,0.1560719259376544,0.5257369086673878,-1.501409586079916e-05
0.17866867234021377,0.8888161466224025,-0.6343166568482852,1.6007247590780365,0.15658009141895235,0.5260757390469815,-1.5010071951593318e-05
0.17863776317296853,0.8888949440137015,-0.6343666082469586,1.6008994975151216,0.157149021485254,0.52645933618399,-1.5005399839118638e-05
0.1786082103114044,0.8889594623334336,-0.634399987236625,1.6010621305241592,0.1577071780778585,0.5268398036915052,-1.5000643839968575e-05
0.17858157549249665,0.889017029088528,-0.6344247932680576,1.6012254356132383,0.15829896801072163,0.5272469838183262,-1.4995456739441693e-05
0.1785551546669213,0.8890624613575495,-0.6344345611848503,1.6013802201956366,0.1588886995793013,0.527656594783962,-1.4990125997371706e-05
0.17853703454650827,0.8890911912511781,-0.634436483903829,1.6014913849762955,0.15932741554946173,0.5279630589031523,-1.4986092875979296e-05
0.1785174696303402,0.8891204024357533,-0.6344327700819932,1.6016235333967943,0.15987012163234748,0.5283444076486523,-1.4981019754500835e-05
0.17849970744908994,0.8891397245839849,-0.6344219089857166,1.6017329213428866,0.16033260436015517,0.5286711292241648,-1.4976620899886939e-05
0.1784824865939445,0.8891580921367606,-0.6344072080527656,1.6018530966170133,0.16085483588247307,0.5290412910458793,-1.5057858067990537e-05
0.17846513169642453,0.889171889117665,-0.6343873436933709,1.601964639087627,0.16134938222664363,0.5293930603991805,-1.4931118835548318e-05
0.17845030704521925,0.8891824955727197,-0.6343677531154999,1.6020663848526562,0.16180824981427744,0.5297202590850292,-1.4926600963249825e-05
0.1784380291061538,0.8891891102737013,-0.6343500186553026,1.602147744619674,0.16217992173104623,0.5299860056901435,-1.4958686534782828e-05
0.17842317248826944,0.8891976270471131,-0.6343284368197768,1.6022461880858083,0.16262808793803707,0.5303061014712851,-1.5040597165061342e-05
0.17840923850076074,0.8892052118009444,-0.6343076663680005,1.6023382961412764,0.16304959727207802,0.5306075135055295,-1.4950140847957982e-05
0.1783977945184656,0.8892113308900074,-0.6342902557157304,1.602415149999051,0.16340136589223775,0.5308589821963494,-1.5032996258490527e-05
0.1783798971881927,0.8892202969481664,-0.6342581985495164,1.602547396695325,0.16401792071887655,0.5313006742605619,-1.4904790514691513e-05
0.17836792608623853,0.8892230622373534,-0.6342342415155695,1.60263008422712,0.1644106212591936,0.5315829475397322,-1.49008232979142e-05
0.1783594234743875,0.8892235432480291,-0.6342134624455182,1.602698339923566,0.1647431807407207,0.5318228056806431,-1.4933343997824977e-05
0.17834904273599506,0.889221819144713,-0.6341816426273805,1.6027903582891438,0.16520228740440768,0.5321546288154604,-1.5015079416258459e-05
0.17834029012144015,0.8892161042892717,-0.6341484459047901,1.602868827609396,0.16560945174126296,0.5324505230993646,-1.4924522430348475e-05
0.178337702902855,0.8892150703249211,-0.6341396707412956,1.6028886645488276,0.16571069182279174,0.5325238507660632,-1.4887571797572718e-05
0.17833692787806577,0.8891796627820225,-0.6340476838864779,1.6030506010270438,0.1666664413226755,0.5332267563304667,-1.4999809693883037e-05
0.1783154079401097,0.8891287859322281,-0.6339380788942162,1.603147654140379,0.16729607228294885,0.5336976020654607,-1.499280410399706e-05
0.17833651572395137,0.889086978026711,-0.6338680312567062,1.6032293747609776,0.16790776449352496,0.5341554529021897,-1.4863682209487195e-05
0.1783221605874905,0.8890166330579774,-0.6337444840111042,1.6032904913036363,0.16843260321786246,0.5345576131296275,-1.4893451870001684e-05
0.17833458490356247,0.8889777385762248,-0.6336866228619957,1.6033257254829838,0.1687735582674641,0.5348179967388109,-1.4975981017073536e-05
0.17834007552674525,0.888925050098158,-0.6336059825669986,1.6033576150446507,0.16913001460485866,0.5350938216042476,-1.497170067832343e-05
0.17834686166717262,0.8888759160740838,-0.6335324142935574,1.6033812889161227,0.16943580919964507,0.5353319415505586,-1.4845413782715866e-05
0.17836246952905999,0.8887933405659423,-0.6334161512545782,1.603406511489725,0.16988143408526035,0.5356829642998919,-1.4839809380440272e-05
0.1783774644538756,0.8887003574180543,-0.6332879189341964,1.603421822324882,0.1703093314889621,0.5360247006395804,-1.4870320736548592e-05
0.1783956196952241,0.8886041677253775,-0.6331582023529503,1.6034285244866888,0.1707110447874145,0.5363487465643395,-1.4864980424356133e-05
0.1784169072149826,0.888494958469976,-0.6330136863076881,1.6034267698055,0.1711195938705865,0.5366822448281905,-1.4946027270923423e-05
0.178443543766714,0.8883664014752091,-0.6328469542014439,1.6034144279188345,0.1715513619012512,0.5370395181816958,-1.4939977640793245e-05
0.17846435051857856,0.8882587035925908,-0.6327069138085921,1.6033988681186724,0.1718839972123023,0.5373177595596017,-1.4812454800505748e-05
0.1785049971046586,0.8880877516082419,-0.6324939841988666,1.6033619436677693,0.17236195584932013,0.5377236842339954,-1.4929450816936196e-05
0.17852904172853368,0.8879581638788121,-0.6323283099178552,1.6033301678711087,0.17269227206602533,0.5380078999914044,-1.4800247112312093e-05
0.17854686889367066,0.8878730768731566,-0.6322217286383358,1.6033071244418826,0.17290139441823182,0.5381890575311417,-1.4797034443958523e-05
0.17858166464328384,0.8877270065432228,-0.6320432612023499,1.6032618085603714,0.173238924474866,0.5384848762797843,-1.4827777531145614e-05
0.1786208425124025,0.8875552149265795,-0.6318326858597363,1.6032036080511745,0.17360700001609963,0.5388116278459529,-1.4908540595826025e-05
0.1786488637433008,0.8874257481214558,-0.6316728722581582,1.6031572944968895,0.17387003774166132,0.5390475427283654,-1.4781285577747383e-05
0.17870446178111177,0.8872034657203987,-0.6314060658811647,1.6030693352876222,0.1742918832317688,0.539431527904572,-1.4774069314604787e-05
0.1787479076157883,0.88700359658929,-0.6311640149256119,1.6029872237346812,0.1746408482984636,0.5397545538140207,-1.4803956401188145e-05
0.17879927141948482,0.8867899286199217,-0.6309083949769789,1.6028939156173392,0.17499640122162052,0.5400875404341301,-1.4797501415309e-05
0.17885572100574798,0.8865526281463145,-0.6306251894804706,1.60278574662284,0.17536643060328405,0.5404394091783358,-1.4790591682078968e-05
0.17893159172846218,0.8862459226707822,-0.6302616227713767,1.6026385583361522,0.1758132374946424,0.5408716462822589,-1.4745935343007943e-05
0.1790255253769253,0.8858603383394463,-0.6298065121034515,1.6024453140852026,0.17632842285472172,0.5413815044273909,-1.473560091014292e-05
0.17916646339537134,0.8853102114684823,-0.6291644123094855,1.6021537887503596,0.17699601032604573,0.5420608019592885,-1.472153467130255e-05
0.17925319297561337,0.8848930026249109,-0.6286658905334681,1.6019325072625037,0.17745801884636414,0.5425429161607713,-1.4711291388636027e-05
0.17934848662586944,0.8845302506665211,-0.6282455491537231,1.6017300466084494,0.1778494150467287,0.5429561697543113,-1.470250786272942e-05
0.17944696127718274,0.8841200732842829,-0.6277660390962998,1.6014992834555457,0.17826195695534697,0.5434013200692602,-1.4728814445419403e-05
0.179563116519037,0.8836582843718892,-0.6272294488510148,1.6012326713609237,0.17870272492619854,0.5438858032738194,-1.471817339648851e-05
0.17968697477860296,0.8831523481864378,-0.6266401762510876,1.6009363437038973,0.17915615124226125,0.5443952642169716,-1.4706802828001742e-05
0.179796047556799,0.882702955319119,-0.6261165203206405,1.6006698509527872,0.17953947029714,0.544833896588722,-1.4696914696799013e-05
0.17994255254709213,0.8821313433666544,-0.6254552447384105,1.6003230393541479,0.1800030286948715,0.5453750902626897,-1.4648798584815381e-05
0.18009783532894197,0.8814941737737358,-0.624715208976415,1.599933661304954,0.18048642275053517,0.5459541443099463,-1.4671174530356268e-05
0.18023567774639293,0.8809335959945477,-0.6240642726333965,1.599586947167495,0.18089272445749494,0.546450196273847,-1.4659544822492876e-05
0.18032947227442975,0.8802326111417376,-0.6232007873263878,1.5991746387287789,0.18134554845741135,0.5470254053568153,-1.4733399815725079e-05
0.18041848619671352,0.8796796087016832,-0.622528794539674,1.5988416488949353,0.18169451303581852,0.5474745101459444,-1.472249532330494e-05
0.18050165447870548,0.8791304164408515,-0.6218571462111324,1.5985100935095504,0.18202684677979342,0.5479100711850116,-1.4588342135191112e-05
0.18061096562621692,0.8784492817469438,-0.6210297402819487,1.5980936980563207,0.1824228120800493,0.5484391401192079,-1.4610766798206498e-05
0.1806735637931549,0.8780028334226078,-0.6204807087810353,1.597822532091337,0.1826729393981399,0.548778661744791,-1.4602250533179983e-05
0.18080793758351188,0.8772017349903969,-0.6195096736394436,1.5973244410858527,0.18310737518676223,0.5493789130877165,-1.4675302328903683e-05
0.18090115026420062,0.8765293788151345,-0.6186814519472659,1.5969105985082486,0.18345349728252014,0.549868417300651,-1.4662854329827724e-05
0.18100500610740955,0.8758724293775861,-0.6178797553821669,1.596499673819614,0.18378401420391022,0.5503421929908603,-1.4650774238234021e-05
0.18111349145125555,0.8751653022742021,-0.6170140746143691,1.5960560520358786,0.18412663059338374,0.5508427400095686,-1.4549525359619508e-05
0.1812528278596055,0.8742853528721222,-0.6159388301878934,1.595499291551814,0.1845366238490671,0.5514541964379021,-1.4533636318425636e-05
0.18150638645857953,0.8727741241923921,-0.6140999708860004,1.594529325239919,0.1851984507275981,0.5524750481585148,-1.4506730267704881e-05
0.18161112998761908,0.8718281794624456,-0.6129113953930512,1.5939383774003861,0.1855855830110933,0.5530917269848254,-1.4490133627198531e-05
0.18177354927133038,0.8709024793603932,-0.6117848122319849,1.5933366168484868,0.18596500894677348,0.5536997873115199,-1.4473923060975835e-05
0.18191961894791397,0.8698619035374406,-0.6104932510514898,1.592669936691105,0.18636742628387815,0.5543639724252571,-1.4455940739566131e-05
0.18208040939389303,0.8688362391533628,-0.609228686161063,1.5920043137505768,0.1867538715619057,0.5550127511140488,-1.443832633363229e-05
0.182235272749657,0.8677769430926983,-0.6079131875737529,1.5913183165265181,0.1871368856240494,0.5556707955166393,-1.4509543914797973e-05
0.18240978014651077,0.8666355111922366,-0.6064970188053334,1.5905733442792798,0.18753655837485894,0.5563715134359706,-1.436581019920169e-05
0.1825396187227355,0.865713387973301,-0.6053447348354943,1.5899741388560376,0.1878486761275049,0.5569295982472182,-1.4385563642527188e-05
0.18263169711464577,0.8650744155730683,-0.6045447752689146,1.5895572766802832,0.18806150574294733,0.5573140812196256,-1.4339873578350648e-05
0.18271773986253148,0.8644854725663782,-0.6038088118270517,1.5891722826101446,0.1882546906874678,0.5576666453767718,-1.4364991836934848e-05
0.18281140178167465,0.8638507388677494,-0.6030136526599854,1.5887560698701684,0.18845927566014353,0.5580440580568382,-1.4319601573831164e-05
0.18290611796812772,0.8632058421804025,-0.602206075386162,1.5883329292430535,0.18866348094717988,0.5584251245218672,-1.4343546587802791e-05
0.183004716369088,0.862532579109387,-0.6013609103074096,1.5878905409170816,0.1888726892678303,0.5588200433985664,-1.442260613071511e-05
0.18309771085714832,0.8618920246557602,-0.600555085358935,1.5874691073675002,0.18906840445502393,0.5591936713430163,-1.4321848350817845e-05
0.18319838414980172,0.861201496507852,-0.5996856173568847,1.5870141875457247,0.18927562206002513,0.5595936944464421,-1.4400485871313151e-05
0.18331335590986342,0.860416651432554,-0.5986954333838881,1.586495713025756,0.18950665472206563,0.5600454773676011,-1.426399687076696e-05
0.18342160337169755,0.8596621948601486,-0.5977421712136408,1.5859977416544107,0.18972442090182096,0.5604767442598293,-1.4285866667407277e-05
0.1835241809198891,0.858943031593058,-0.5968309081931125,1.5855226254697277,0.1899282960323294,0.560885146311886,-1.436439018132063e-05
0.18368242662794199,0.8578797810856749,-0.5954849433233367,1.58481606970639,0.1902232215254145,0.561485065795531,-1.4223367279520005e-05
0.18378938361312702,0.8570905248951535,-0.5944781381852717,1.584294915757412,0.1904369331508855,0.5619263335409865,-1.4244527307916144e-05
0.18389957748090602,0.8562937300021014,-0.5934605738784162,1.5837673126612524,0.19064916260301157,0.5623694356619904,-1.4322274262568158e-05
0.18396110913737385,0.8551850532826055,-0.591982675459529,1.5830631191039393,0.19092368633991885,0.562966002794596,-1.4180145499587127e-05
0.18401617366378265,0.8539773154145376,-0.5903629608992933,1.5822989408853596,0.19121400439665148,0.5636092206966801,-1.4195266781591442e-05
0.1840471249539677,0.8531813526951764,-0.5892885901331315,1.5817963624447167,0.19140185850902736,0.5640305164279287,-1.4182821196584428e-05
0.1840890795133987,0.85225270576999,-0.5880367162838516,1.5812072215343944,0.19161792421165558,0.5645202046408038,-1.4259294814245038e-05
0.1841627678884743,0.8507966267447618,-0.5860739592749695,1.5802782672041769,0.19194845799234717,0.5652830132438291,-1.4112531196985856e-05
0.18419427527410903,0.84978188426249,-0.584690178257266,1.5796369983505718,0.19217246050165215,0.5658093171665826,-1.4130055605576786e-05
0.18423769571371018,0.8487355491697794,-0.5832660936962322,1.5789708792504396,0.19240064090837627,0.5663507804689036,-1.4113851386277076e-05
0.1842722062311486,0.847810353272175,-0.5820012724535593,1.578382436325657,0.19259883119668686,0.566826988780333,-1.4099617481555526e-05
0.18435937874692065,0.8460339663123264,-0.5795811811485141,1.577243061002255,0.19297013302734367,0.5677360821940312,-1.4164042577036184e-05
0.18439733906196754,0.8444625709774787,-0.5774050687901404,1.5762460966240068,0.19328589961371367,0.5685297629458388,-1.4015878966766593e-05
0.18444003297772404,0.8432736770532347,-0.5757626916469682,1.5754862901332398,0.19352263402399483,0.5691298901993909,-1.4030374325457728e-05
0.1844843203180364,0.8419581142241661,-0.5739371425118476,1.5746450938076206,0.19377888468324667,0.5697899647668354,-1.401063562944671e-05
0.18452637792442506,0.84059775497294,-0.5720407772911669,1.5737751862304021,0.19403817377868204,0.5704686151590108,-1.399006480795606e-05
0.18456893534887886,0.8391636792364787,-0.5700336383407647,1.572857446477001,0.19430567150932898,0.5711800612021634,-1.4060841067475849e-05
0.18461322306037875,0.8375954374102008,-0.5678281273086272,1.5718525824305454,0.1945915437126038,0.5719538052044211,-1.3913005977528314e-05
0.18464052694407407,0.8363041254570662,-0.5659994367422723,1.571027321995163,0.19482210861670524,0.5725873568068787,-1.3893852177204735e-05
0.1846766673224689,0.8348828718987331,-0.5639845793075882,1.570115911672434,0.19507186606065385,0.5732825392143646,-1.3904774577078172e-05
0.18470488369470406,0.8334765393603334,-0.5619776079006176,1.5692153502857975,0.1953135792050258,0.5739663832569555,-1.3976751261246534e-05
0.18473040065600355,0.8321188030340343,-0.5600312576332245,1.568345147202045,0.1955429539505973,0.5746242359697904,-1.3862479154802543e-05
0.18466614721294494,0.8309888847433875,-0.558351036374896,1.567648191080294,0.19572255452551346,0.575159452814475,-1.3939876764013093e-05
0.1845857755791238,0.8299696785131623,-0.5568164494810226,1.5670258734007199,0.19588051268108408,0.5756385041463927,-1.392564165758614e-05
0.18448024614177783,0.8285889325218774,-0.5547339586633244,1.5661804445726633,0.19609128812184995,0.5762855926177011,-1.3905676794934152e-05
0.18434488162826312,0.8269005625487669,-0.5521728932626466,1.565146492863386,0.1963433371083605,0.5770729097707177,-1.3756742172077452e-05
0.1841791716538328,0.8249278804799101,-0.5491628821201697,1.563938556160501,0.19663084761997585,0.5779879571280597,-1.3728530038115139e-05
0.18403747813945603,0.8234369785897879,-0.5468656299368257,1.563029172799542,0.19684376411744342,0.5786761081616767,-1.3738179581501697e-05
0.1838910953906403,0.8218071551969306,-0.5443481487600383,1.5620305129155652,0.1970731286734022,0.5794265463795458,-1.3808677074678144e-05
0.1837382544275199,0.8202318281920737,-0.5418949406589988,1.5610666660478598,0.19729035045359922,0.580148706967667,-1.3661516260476958e-05
0.18359690002050044,0.8188169502800289,-0.5396796294766748,1.5602010563032156,0.19748260417191332,0.5807953723426023,-1.3641762145688574e-05
0.18344382140627058,0.8172916716882375,-0.5372818434243394,1.5592667522109958,0.1976868903264517,0.5814907369317641,-1.3650695683153913e-05
0.183295135258855,0.8158949830651041,-0.5350698640161635,1.5584124874782992,0.19787065972581086,0.5821248742930845,-1.3725413171350453e-05
0.18314390394055113,0.814493136171615,-0.5328377713960695,1.5575539537323237,0.19805251595309592,0.5827598447768185,-1.3581071887536211e-05
0.18298756510418457,0.8130828715713623,-0.5305817853588506,1.5566906939478997,0.19823307702053405,0.5833970456278283,-1.3591434079529563e-05
0.18281862780337832,0.8115971021776041,-0.5281908886468392,1.555781102041264,0.19842018471664957,0.584066073043771,-1.3665491051639833e-05
0.18264635428188214,0.8101398909461484,-0.5258294459142068,1.5548891900993445,0.1986008161269286,0.5847203534716803,-1.3520545636858117e-05
0.18247307486088093,0.8087103634892641,-0.523501203350448,1.5540146336809846,0.19877583503946283,0.5853607702888306,-1.3530377254156178e-05
0.18223876685994966,0.8072193308492155,-0.5210265046178835,1.553117136985522,0.19895176323562147,0.5860220027954322,-1.3608029635570063e-05
0.1819423107954945,0.8059362053757244,-0.5188251012358274,1.5523713558164554,0.19909454349101807,0.5865815563318941,-1.346262770862694e-05
0.1815964819506899,0.8043938939815813,-0.5161771083380398,1.551470453754134,0.19926514254560868,0.5872540896889431,-1.3477377904358434e-05
0.18130504239754064,0.8031430911494271,-0.5140109024370672,1.5507415240367424,0.19940135706784545,0.5877975623259264,-1.3552481409107031e-05
0.18093775103692256,0.8015572135500699,-0.5112533099135232,1.549814355155502,0.1995720063319535,0.5884857091272453,-1.3402985618249375e-05
0.18056557144554564,0.8000007138067993,-0.5085270545900853,1.548906099158872,0.19973716251089435,0.5891593054212807,-1.3418222951422365e-05
0.18019480357525808,0.798479042363021,-0.5058422015206308,1.548018160204383,0.19989621623657605,0.5898159108547079,-1.348946396806383e-05
0.17978125515241672,0.796804986551761,-0.5028681797034045,1.547040231308074,0.20006868776121323,0.5905367461578965,-1.3338706443377646e-05
0.17938252184614978,0.7952374997305478,-0.5000618969294255,1.5461260529528351,0.20022811378950145,0.5912100898512183,-1.335382204992186e-05
0.17896785267975446,0.7936311783976553,-0.4971650310264737,1.54518877988364,0.2003891016349746,0.5918982571750107,-1.3424339226020265e-05
0.17857151588227538,0.7921358155820606,-0.49444482647964794,1.5443166869526035,0.20053688571152772,0.5925374129153447,-1.3276057777567019e-05
0.17815910084206177,0.7906006386882014,-0.491634491247984,1.5434212398066878,0.20068691233516667,0.5931923609265137,-1.3256505791758855e-05
0.17779720214857608,0.7892890359166884,-0.4892147251878356,1.5426573154924448,0.2008137830950787,0.5937508885266416,-1.3276569518438919e-05
0.1773009937287613,0.7874869510266587,-0.4858727209632674,1.5416052194264855,0.20098560076122673,0.5945166365976036,-1.3344156412742336e-05
0.17681380116352674,0.7857943353241437,-0.48269731849990105,1.540619827497431,0.20114412040650365,0.595233566395466,-1.3193554520007922e-05
0.17638361517624013,0.7843288571417935,-0.47992548433163584,1.5397670441500395,0.20127999412720854,0.5958531689867614,-1.3230452355905697e-05
